; generated by Slic3r 1.1.7 on 2015-04-16 at 07:40:08

; perimeters extrusion width = 0.40mm
; infill extrusion width = 0.67mm
; solid infill extrusion width = 0.67mm
; top infill extrusion width = 0.67mm
; support material extrusion width = 0.40mm

G21 ; set units to millimeters
M107
M190 S60 ; wait for bed temperature to be reached
M104 S210 ; set temperature
G28 ; home all axes
G1 Z5 F5000 ; lift nozzle
M109 S210 ; wait for temperature to be reached
G90 ; use absolute coordinates
G92 E0
M82 ; use absolute distances for extrusion
G1 F2400.000 E-3.00000
G92 E0
G1 Z-4.350 F6000.000
G1 X29.086 Y49.195 F6000.000
G1 E3.00000 F2400.000
G1 X29.399 Y49.010 E3.03365 F1080.000
G1 X31.003 Y48.200 E3.19986
G1 X32.676 Y47.529 E3.36659
G1 X34.397 Y47.010 E3.53281
G1 X36.160 Y46.640 E3.69945
G1 X37.302 Y46.490 E3.80596
G1 X37.940 Y46.428 E3.86523
G1 X39.500 Y46.364 E4.00967
G1 X160.748 Y46.370 E15.22402
G1 X161.907 Y46.421 E15.33134 F1080.000
G1 X162.547 Y46.470 E15.39072
G1 X163.689 Y46.621 E15.49723
G1 X164.326 Y46.726 E15.55692
G1 X165.454 Y46.977 E15.66384
G1 X166.076 Y47.136 E15.72316
G1 X167.788 Y47.699 E15.88989
G1 X168.856 Y48.141 E15.99681
G1 X169.440 Y48.406 E16.05612
G1 X171.029 Y49.257 E16.22286
G1 X172.004 Y49.879 E16.32977
G1 X172.533 Y50.241 E16.38909
G1 X173.450 Y50.945 E16.49601
G1 X173.950 Y51.355 E16.55584
G1 X174.802 Y52.136 E16.66276
G1 X175.260 Y52.585 E16.72208
G1 X176.463 Y53.928 E16.88880
G1 X177.539 Y55.367 E17.05503
G1 X178.490 Y56.899 E17.22175
G1 X179.300 Y58.503 E17.38797
G1 X179.971 Y60.176 E17.55469
G1 X180.318 Y61.279 E17.66160
G1 X180.490 Y61.897 E17.72092
G1 X180.860 Y63.660 E17.88757
G1 X181.072 Y65.440 E18.05333
G1 X181.136 Y67.000 E18.19777
G1 X181.130 Y124.250 E23.49285
G1 X181.082 Y125.334 E23.59319
G1 X181.033 Y125.962 E23.65147
G1 X180.893 Y127.027 E23.75088
G1 X180.789 Y127.654 E23.80968
G1 X180.398 Y129.316 E23.96756
G1 X179.862 Y130.946 E24.12630
G1 X179.187 Y132.518 E24.28445
G1 X178.377 Y134.028 E24.44294
G1 X177.439 Y135.461 E24.60138
G1 X176.781 Y136.318 E24.70132
G1 X176.380 Y136.805 E24.75963
G1 X175.652 Y137.600 E24.85938
G1 X175.205 Y138.056 E24.91839
G1 X174.410 Y138.784 E25.01816
G1 X173.931 Y139.194 E25.07643
G1 X172.556 Y140.223 E25.23528
G1 X171.648 Y140.801 E25.33486
G1 X171.104 Y141.122 E25.39327
G1 X169.572 Y141.895 E25.55201
G1 X168.578 Y142.307 E25.65152
G1 X167.984 Y142.530 E25.71017
G1 X166.952 Y142.855 E25.81022
G1 X166.344 Y143.025 E25.86866
G1 X165.293 Y143.258 E25.96819
G1 X164.668 Y143.374 E26.02701
G1 X162.977 Y143.576 E26.18455
G1 X161.500 Y143.636 E26.32123
G1 X38.250 Y143.630 E37.72071
G1 X37.166 Y143.582 E37.82105
G1 X36.538 Y143.533 E37.87933
G1 X35.473 Y143.393 E37.97873
G1 X34.846 Y143.289 E38.03754
G1 X33.184 Y142.898 E38.19543
G1 X31.554 Y142.362 E38.35416
G1 X30.560 Y141.950 E38.45366
G1 X29.982 Y141.687 E38.51233
G1 X28.472 Y140.877 E38.67082
G1 X27.039 Y139.939 E38.82926
G1 X26.182 Y139.281 E38.92919
G1 X25.695 Y138.880 E38.98751
G1 X24.444 Y137.705 E39.14625
G1 X23.716 Y136.910 E39.24600
G1 X23.306 Y136.431 E39.30429
G1 X22.648 Y135.574 E39.40423
G1 X22.277 Y135.056 E39.46316
G1 X21.378 Y133.604 E39.62113
G1 X20.879 Y132.644 E39.72117
G1 X20.605 Y132.072 E39.77989
G1 X19.970 Y130.484 E39.93804
G1 X19.645 Y129.452 E40.03807
G1 X19.475 Y128.844 E40.09652
G1 X19.242 Y127.793 E40.19604
G1 X19.126 Y127.168 E40.25487
G1 X18.985 Y126.103 E40.35426
G1 X18.924 Y125.477 E40.41243
G1 X18.864 Y124.000 E40.54911
G1 X18.870 Y66.752 E45.84404
G1 X18.921 Y65.593 E45.95136
G1 X18.970 Y64.953 E46.01074
G1 X19.121 Y63.811 E46.11725
G1 X19.226 Y63.174 E46.17694
G1 X19.636 Y61.424 E46.34316
G1 X20.199 Y59.712 E46.50989
G1 X20.906 Y58.060 E46.67610
G1 X21.426 Y57.061 E46.78021
G1 X21.757 Y56.471 E46.84285
G1 X22.379 Y55.496 E46.94976
G1 X22.741 Y54.967 E47.00909
G1 X23.855 Y53.550 E47.17582
G1 X24.636 Y52.698 E47.28273
G1 X25.085 Y52.240 E47.34205
G1 X25.937 Y51.458 E47.44896
G1 X26.429 Y51.037 E47.50880
G1 X27.346 Y50.334 E47.61571
G1 X27.867 Y49.961 E47.67504
G1 X29.034 Y49.226 E47.80258
G1 F2400.000 E44.80258
G92 E0
G1 X28.017 Y121.612 F6000.000
G1 E3.00000 F2400.000
G1 X28.159 Y121.808 E3.02237 F360.000
G1 X28.264 Y122.025 E3.04475
G1 X28.328 Y122.256 E3.06691
G1 X28.350 Y122.500 E3.08954
G1 X28.328 Y122.744 E3.11218
G1 X28.264 Y122.975 E3.13433
G1 X28.159 Y123.192 E3.15671
G1 X28.017 Y123.388 E3.17908
G1 X27.842 Y123.555 E3.20149
G1 X27.640 Y123.689 E3.22385
G1 X27.417 Y123.784 E3.24626
G1 X27.181 Y123.838 E3.26864
G1 X26.819 Y123.838 E3.30220
G1 X26.583 Y123.784 E3.32457
G1 X26.360 Y123.689 E3.34698
G1 X26.158 Y123.555 E3.36934
G1 X25.983 Y123.388 E3.39174
G1 X25.841 Y123.192 E3.41411
G1 X25.736 Y122.975 E3.43650
G1 X25.672 Y122.744 E3.45865
G1 X25.650 Y122.500 E3.48128
G1 X25.699 Y122.139 E3.51494
G1 X25.784 Y121.914 E3.53720
G1 X25.908 Y121.706 E3.55961
G1 X26.067 Y121.524 E3.58197
G1 X26.256 Y121.373 E3.60438
G1 X26.469 Y121.259 E3.62675
G1 X26.700 Y121.184 E3.64916
G1 X26.939 Y121.151 E3.67153
G1 X27.086 Y121.154 E3.68511
G1 X27.300 Y121.184 E3.70510 F360.000
G1 X27.531 Y121.259 E3.72751
G1 X27.744 Y121.373 E3.74988
G1 X27.975 Y121.568 E3.77791
G1 X27.018 Y120.949 F6000.000
G1 F2400.000 E0.77791
G92 E0
G1 X36.819 Y55.838 F6000.000
G1 E3.00000 F2400.000
G1 X36.583 Y55.784 E3.02236 F360.000
G1 X36.360 Y55.689 E3.04478
G1 X36.067 Y55.476 E3.07829
G1 X35.908 Y55.294 E3.10066
G1 X35.784 Y55.086 E3.12307
G1 X35.699 Y54.861 E3.14532
G1 X35.656 Y54.625 E3.16751
G1 X35.656 Y54.375 E3.19054
G1 X35.736 Y54.025 E3.22376
G1 X35.841 Y53.808 E3.24613
G1 X35.983 Y53.612 E3.26850
G1 X36.158 Y53.445 E3.29091
G1 X36.360 Y53.311 E3.31328
G1 X36.583 Y53.216 E3.33569
G1 X36.819 Y53.162 E3.35805
G1 X37.086 Y53.154 E3.38283
G1 X37.417 Y53.216 E3.41397 F360.000
G1 X37.640 Y53.311 E3.43638
G1 X37.842 Y53.445 E3.45875
G1 X38.017 Y53.612 E3.48115
G1 X38.216 Y53.914 E3.51467
G1 X38.301 Y54.139 E3.53693
G1 X38.344 Y54.375 E3.55911
G1 X38.344 Y54.625 E3.58215
G1 X38.264 Y54.975 E3.61536
G1 X38.159 Y55.192 E3.63774
G1 X38.017 Y55.388 E3.66011
G1 X37.842 Y55.555 E3.68252
G1 X37.640 Y55.689 E3.70488
G1 X37.417 Y55.784 E3.72729
G1 X37.181 Y55.838 E3.74966
G1 X36.878 Y55.843 E3.77770
G1 F2400.000 E0.77770
G92 E0
G1 X37.124 Y52.819 F6000.000
G1 X161.650 Y54.500 F6000.000
G1 E3.00000 F2400.000
G1 X161.672 Y54.256 E3.02263 F360.000
G1 X161.736 Y54.025 E3.04480
G1 X161.908 Y53.706 E3.07833
G1 X162.067 Y53.524 E3.10069
G1 X162.360 Y53.311 E3.13421
G1 X162.583 Y53.216 E3.15662
G1 X162.819 Y53.162 E3.17899
G1 X163.086 Y53.154 E3.20376
G1 X163.300 Y53.184 E3.22374 F360.000
G1 X163.531 Y53.259 E3.24615
G1 X163.842 Y53.445 E3.27968
G1 X164.092 Y53.706 E3.31317
G1 X164.264 Y54.025 E3.34672
G1 X164.328 Y54.256 E3.36886
G1 X164.350 Y54.500 E3.39150
G1 X164.301 Y54.860 E3.42515
G1 X164.159 Y55.192 E3.45857
G1 X163.933 Y55.476 E3.49207
G1 X163.640 Y55.689 E3.52559
G1 X163.417 Y55.784 E3.54800
G1 X163.181 Y55.838 E3.57037
G1 X162.819 Y55.838 E3.60393
G1 X162.469 Y55.741 E3.63744
G1 X162.158 Y55.555 E3.67096
G1 X161.908 Y55.294 E3.70446
G1 X161.736 Y54.975 E3.73800
G1 X161.672 Y54.744 E3.76015
G1 X161.653 Y54.560 E3.77724
G1 F2400.000 E0.77724
G92 E0
G1 X163.157 Y52.950 F6000.000
G1 X172.819 Y121.162 F6000.000
G1 E3.00000 F2400.000
G1 X173.086 Y121.154 E3.02476 F360.000
G1 X173.417 Y121.216 E3.05592 F360.000
G1 X173.640 Y121.311 E3.07833
G1 X173.842 Y121.445 E3.10070
G1 X174.017 Y121.612 E3.12308
G1 X174.159 Y121.808 E3.14547
G1 X174.264 Y122.025 E3.16785
G1 X174.328 Y122.256 E3.18999
G1 X174.350 Y122.500 E3.21263
G1 X174.328 Y122.744 E3.23526
G1 X174.264 Y122.975 E3.25742
G1 X174.159 Y123.192 E3.27981
G1 X174.017 Y123.388 E3.30217
G1 X173.842 Y123.555 E3.32458
G1 X173.640 Y123.689 E3.34694
G1 X173.300 Y123.816 E3.38051
G1 X173.061 Y123.849 E3.40288
G1 X172.819 Y123.838 E3.42529
G1 X172.583 Y123.784 E3.44766
G1 X172.360 Y123.689 E3.47007
G1 X172.158 Y123.555 E3.49244
G1 X171.983 Y123.388 E3.51482
G1 X171.841 Y123.192 E3.53721
G1 X171.736 Y122.975 E3.55959
G1 X171.656 Y122.624 E3.59280
G1 X171.656 Y122.375 E3.61584
G1 X171.699 Y122.140 E3.63801
G1 X171.784 Y121.914 E3.66027
G1 X171.908 Y121.706 E3.68269
G1 X172.067 Y121.524 E3.70504
G1 X172.256 Y121.373 E3.72745
G1 X172.469 Y121.259 E3.74982
G1 X172.760 Y121.173 E3.77782
G1 X173.274 Y120.874 F6000.000
G1 F2400.000 E0.77782
G92 E0
G1 X168.350 Y134.350 F6000.000
G1 E3.00000 F2400.000
G1 X100.650 Y134.350 E9.26164 F360.000
G1 X100.650 Y59.650 E16.17071
G1 X168.350 Y59.650 E22.43235
G1 X168.350 Y134.290 E29.33587
G1 X168.350 Y134.750 F6000.000
G1 X99.350 Y134.350 F6000.000
G1 X31.650 Y134.350 E35.59751 F360.000
G1 X31.650 Y59.650 E42.50658
G1 X99.350 Y59.650 E48.76822
G1 X99.350 Y134.290 E55.67174
G1 X99.350 Y134.750 F6000.000
G1 X35.883 Y135.621 F6000.000
G1 X164.117 Y135.621 E67.53227 F720.000
G1 X164.167 Y136.074 E67.57442
G1 X163.651 Y136.189 E67.62329
G1 X162.585 Y136.329 E67.72275
G1 X161.464 Y136.379 E67.82652
G1 X38.536 Y136.379 E79.19626
G1 X37.415 Y136.329 E79.30003
G1 X36.349 Y136.189 E79.39948
G1 X35.833 Y136.074 E79.44836
G1 X35.876 Y135.681 E79.48497
G1 X32.287 Y134.986 F6000.000
G1 X167.713 Y134.986 E92.01057 F720.000
G1 X167.807 Y135.373 E92.04748
G1 X166.998 Y135.795 E92.13189
G1 X165.952 Y136.228 E92.23657
G1 X164.867 Y136.570 E92.34186
G1 X163.762 Y136.815 E92.44656
G1 X162.641 Y136.963 E92.55114
G1 X161.478 Y137.014 E92.65876
G1 X38.522 Y137.014 E104.03110
G1 X37.359 Y136.963 E104.13872
G1 X36.238 Y136.815 E104.24329
G1 X35.133 Y136.570 E104.34799
G1 X34.048 Y136.228 E104.45329
G1 X33.002 Y135.795 E104.55796
G1 X32.193 Y135.373 E104.64237
G1 X32.273 Y135.044 E104.67373
G1 F2400.000 E101.67373
G92 E0
G1 X30.379 Y58.379 F6000.000
G1 E3.00000 F2400.000
G1 X30.379 Y133.330 E9.93227 F720.000
G1 X29.748 Y132.752 E10.01137
G1 X29.019 Y131.956 E10.11119
G1 X28.360 Y131.098 E10.21123
G1 X27.782 Y130.190 E10.31084
G1 X27.282 Y129.229 E10.41100
G1 X26.870 Y128.235 E10.51054
G1 X26.462 Y126.940 E10.63608
G1 X26.486 Y126.940 E10.63834
G1 X26.311 Y126.151 E10.71312
G1 X26.161 Y125.011 E10.81950
G1 X26.649 Y125.099 E10.86535
G1 X26.884 Y125.120 E10.88718
G1 X27.351 Y125.099 E10.93039
G1 X27.585 Y125.057 E10.95241
G1 X28.029 Y124.912 E10.99564
G1 X28.446 Y124.688 E11.03943
G1 X28.811 Y124.397 E11.08259
G1 X28.975 Y124.226 E11.10447
G1 X29.123 Y124.040 E11.12642
G1 X29.362 Y123.640 E11.16959
G1 X29.528 Y123.198 E11.21319
G1 X29.611 Y122.743 E11.25600
G1 X29.623 Y122.500 E11.27851
G1 X29.611 Y122.257 E11.30104
G1 X29.528 Y121.801 E11.34384
G1 X29.362 Y121.360 E11.38742
G1 X29.123 Y120.960 E11.43056
G1 X28.975 Y120.774 E11.45258
G1 X28.811 Y120.603 E11.47446
G1 X28.446 Y120.312 E11.51761
G1 X28.029 Y120.088 E11.56139
G1 X27.585 Y119.943 E11.60461
G1 X27.351 Y119.901 E11.62661
G1 X26.884 Y119.880 E11.66988
G1 X26.649 Y119.901 E11.69165
G1 X26.121 Y119.997 E11.74128
G1 X26.121 Y67.036 E16.63969
G1 X26.174 Y65.829 E16.75137
G1 X26.326 Y64.677 E16.85885
G1 X26.579 Y63.538 E16.96681
G1 X26.930 Y62.425 E17.07474
G1 X27.376 Y61.347 E17.18268
G1 X27.915 Y60.311 E17.29062
G1 X28.542 Y59.327 E17.39855
G1 X29.252 Y58.401 E17.50649
G1 X30.041 Y57.541 E17.61443
G1 X30.901 Y56.752 E17.72236
G1 X31.827 Y56.042 E17.83030
G1 X32.811 Y55.415 E17.93824
G1 X33.847 Y54.876 E18.04617
G1 X34.351 Y54.667 E18.09667
G1 X34.472 Y55.199 E18.14706
G1 X34.638 Y55.640 E18.19066
G1 X34.877 Y56.040 E18.23381
G1 X35.189 Y56.397 E18.27761
G1 X35.554 Y56.688 E18.32079
G1 X35.971 Y56.912 E18.36457
G1 X36.415 Y57.057 E18.40780
G1 X36.649 Y57.099 E18.42978
G1 X37.116 Y57.120 E18.47306
G1 X37.585 Y57.057 E18.51679
G1 X38.029 Y56.912 E18.56000
G1 X38.242 Y56.810 E18.58185
G1 X38.446 Y56.688 E18.60383
G1 X38.811 Y56.397 E18.64701
G1 X39.123 Y56.040 E18.69083
G1 X39.362 Y55.640 E18.73398
G1 X39.455 Y55.423 E18.75579
G1 X39.580 Y54.971 E18.79913
G1 X39.623 Y54.500 E18.84290
G1 X39.611 Y54.257 E18.86541
G1 X39.580 Y54.029 E18.88670
G1 X39.487 Y53.621 E18.92536
G1 X160.513 Y53.621 E30.11916
G1 X160.420 Y54.029 E30.15788
G1 X160.389 Y54.257 E30.17909
G1 X160.389 Y54.743 E30.22406
G1 X160.472 Y55.198 E30.26685
G1 X160.545 Y55.423 E30.28871
G1 X160.748 Y55.844 E30.33202
G1 X161.025 Y56.226 E30.37565
G1 X161.189 Y56.397 E30.39751
G1 X161.554 Y56.688 E30.44070
G1 X161.971 Y56.912 E30.48448
G1 X162.415 Y57.057 E30.52768
G1 X162.884 Y57.120 E30.57143
G1 X163.351 Y57.099 E30.61467
G1 X163.585 Y57.057 E30.63667
G1 X164.029 Y56.912 E30.67991
G1 X164.242 Y56.810 E30.70172
G1 X164.636 Y56.550 E30.74536
G1 X164.975 Y56.226 E30.78874
G1 X165.123 Y56.040 E30.81068
G1 X165.362 Y55.639 E30.85388
G1 X165.528 Y55.198 E30.89747
G1 X165.649 Y54.667 E30.94784
G1 X166.153 Y54.876 E30.99837
G1 X167.189 Y55.415 E31.10631
G1 X168.173 Y56.042 E31.21424
G1 X169.099 Y56.752 E31.32218
G1 X169.959 Y57.541 E31.43011
G1 X170.748 Y58.401 E31.53805
G1 X171.458 Y59.327 E31.64599
G1 X172.085 Y60.311 E31.75393
G1 X172.624 Y61.347 E31.86186
G1 X173.070 Y62.425 E31.96980
G1 X173.421 Y63.538 E32.07774
G1 X173.674 Y64.677 E32.18569
G1 X173.826 Y65.829 E32.29318
G1 X173.879 Y67.036 E32.40485
G1 X173.879 Y119.997 E37.30326
G1 X173.351 Y119.901 E37.35286
G1 X173.116 Y119.880 E37.37470
G1 X172.649 Y119.901 E37.41790
G1 X172.415 Y119.943 E37.43993
G1 X171.971 Y120.088 E37.48316
G1 X171.553 Y120.312 E37.52696
G1 X171.189 Y120.603 E37.57013
G1 X171.025 Y120.774 E37.59198
G1 X170.877 Y120.959 E37.61391
G1 X170.638 Y121.360 E37.65711
G1 X170.472 Y121.802 E37.70072
G1 X170.389 Y122.257 E37.74348
G1 X170.377 Y122.500 E37.76606
G1 X170.389 Y122.743 E37.78852
G1 X170.472 Y123.198 E37.83132
G1 X170.638 Y123.639 E37.87493
G1 X170.877 Y124.040 E37.91812
G1 X171.025 Y124.227 E37.94012
G1 X171.189 Y124.397 E37.96198
G1 X171.554 Y124.688 E38.00513
G1 X171.971 Y124.912 E38.04892
G1 X172.415 Y125.057 E38.09211
G1 X172.649 Y125.099 E38.11411
G1 X173.116 Y125.120 E38.15739
G1 X173.351 Y125.099 E38.17915
G1 X173.839 Y125.011 E38.22504
G1 X173.689 Y126.151 E38.33142
G1 X173.455 Y127.202 E38.43099
G1 X173.130 Y128.235 E38.53116
G1 X172.718 Y129.229 E38.63070
G1 X172.218 Y130.190 E38.73086
G1 X171.640 Y131.098 E38.83047
G1 X170.981 Y131.956 E38.93051
G1 X170.252 Y132.752 E39.03033
G1 X169.621 Y133.330 E39.10943
G1 X169.621 Y58.379 E46.04170
G1 X30.439 Y58.379 E58.91482
G1 X31.014 Y59.014 F6000.000
G1 X31.014 Y134.643 E65.90982 F720.000
G1 X30.135 Y133.968 E66.01236
G1 X29.298 Y133.202 E66.11731
G1 X28.532 Y132.365 E66.22226
G1 X27.839 Y131.463 E66.32744
G1 X27.231 Y130.508 E66.43219
G1 X26.705 Y129.498 E66.53748
G1 X26.272 Y128.452 E66.64215
G1 X25.930 Y127.367 E66.74745
G1 X25.685 Y126.262 E66.85215
G1 X25.537 Y125.141 E66.95672
G1 X25.480 Y123.847 E67.07647
G1 X26.059 Y124.250 E67.14168
G1 X26.220 Y124.327 E67.15821
G1 X26.557 Y124.437 E67.19103
G1 X26.912 Y124.484 E67.22411
G1 X27.266 Y124.469 E67.25691
G1 X27.443 Y124.437 E67.27351
G1 X27.780 Y124.327 E67.30633
G1 X27.941 Y124.250 E67.32286
G1 X28.239 Y124.053 E67.35586
G1 X28.496 Y123.807 E67.38874
G1 X28.607 Y123.667 E67.40530
G1 X28.789 Y123.363 E67.43809
G1 X28.860 Y123.199 E67.45460
G1 X28.954 Y122.857 E67.48734
G1 X28.987 Y122.500 E67.52055
G1 X28.954 Y122.143 E67.55374
G1 X28.860 Y121.801 E67.58649
G1 X28.789 Y121.637 E67.60299
G1 X28.608 Y121.333 E67.63576
G1 X28.496 Y121.193 E67.65236
G1 X28.239 Y120.947 E67.68524
G1 X27.941 Y120.750 E67.71823
G1 X27.780 Y120.673 E67.73476
G1 X27.443 Y120.563 E67.76758
G1 X27.266 Y120.531 E67.78416
G1 X26.912 Y120.516 E67.81700
G1 X26.557 Y120.563 E67.85006
G1 X26.270 Y120.654 E67.87791
G1 X26.059 Y120.750 E67.89940
G1 X25.486 Y121.148 E67.96394
G1 X25.486 Y67.022 E72.97018
G1 X25.541 Y65.774 E73.08570
G1 X25.699 Y64.567 E73.19832
