; generated by Slic3r 1.1.7 on 2015-04-16 at 22:35:11

; perimeters extrusion width = 0.40mm
; infill extrusion width = 0.67mm
; solid infill extrusion width = 0.67mm
; top infill extrusion width = 0.67mm
; support material extrusion width = 0.40mm

G21 ; set units to millimeters
M107
M190 S60 ; wait for bed temperature to be reached
M104 S210 ; set temperature
G28 ; home all axes
G1 Z5 F5000 ; lift nozzle
M109 S210 ; wait for temperature to be reached
G90 ; use absolute coordinates
G92 E0
M82 ; use absolute distances for extrusion
G1 F2400.000 E-3.00000
G92 E0
G1 Z-4.350 F6000.000
G1 X85.894 Y81.139 F6000.000
G1 E3.00000 F2400.000
G1 X87.606 Y79.898 E3.19551 F1080.000
G1 X90.000 Y79.364 E3.42241
G1 X110.000 Y79.364 E5.27223
G1 X112.076 Y79.761 E5.46775
G1 X113.861 Y80.894 E5.66326 F1080.000
G1 X115.102 Y82.606 E5.85878
G1 X115.636 Y85.000 E6.08568
G1 X115.636 Y105.000 E7.93549
G1 X115.239 Y107.076 E8.13101
G1 X114.106 Y108.861 E8.32652
G1 X112.394 Y110.102 E8.52204
G1 X110.000 Y110.636 E8.74894
G1 X90.000 Y110.636 E10.59876
G1 X87.924 Y110.239 E10.79427
G1 X86.139 Y109.106 E10.98979
G1 X84.898 Y107.394 E11.18530
G1 X84.364 Y105.000 E11.41220
G1 X84.364 Y85.000 E13.26202
G1 X84.761 Y82.924 E13.45753
G1 X85.862 Y81.190 E13.64750
G1 F2400.000 E10.64750
G92 E0
G1 X106.475 Y103.504 F6000.000
G1 E3.00000 F2400.000
G1 X106.208 Y103.720 E3.03173 F360.000
G1 X106.003 Y103.823 E3.05293
G1 X105.784 Y103.890 E3.07411
G1 X105.557 Y103.919 E3.09528
G1 X105.329 Y103.909 E3.11646
G1 X105.105 Y103.861 E3.13766
G1 X104.838 Y103.751 E3.16434
G1 X104.787 Y103.802 E3.17099
G1 X104.381 Y103.326 E3.22882
G1 X104.227 Y103.020 E3.26055
G1 X104.155 Y102.686 E3.29216
G1 X104.169 Y102.341 E3.32405
G1 X104.270 Y102.014 E3.35573
G1 X104.450 Y101.722 E3.38746
G1 X104.697 Y101.484 E3.41919
G1 X104.997 Y101.317 E3.45091
G1 X105.329 Y101.231 E3.48263
G1 X105.587 Y101.223 E3.50653
G1 X105.895 Y101.279 E3.53554 F360.000
G1 X106.108 Y101.364 E3.55671
G1 X106.303 Y101.484 E3.57788
G1 X106.489 Y101.649 E3.60086
G1 X106.517 Y101.649 E3.60347
G1 X106.679 Y101.912 E3.63200
G1 X106.831 Y102.264 E3.66751
G1 X106.899 Y102.264 E3.67382
G1 X106.860 Y102.570 E3.70235
G1 X106.892 Y102.821 E3.72578
G1 X106.834 Y102.821 E3.73116
G1 X106.730 Y103.126 E3.76095
G1 X106.619 Y103.326 E3.78212
G1 X106.515 Y103.459 E3.79775
G1 F2400.000 E0.79775
G92 E0
G1 X105.576 Y100.910 F6000.000
G1 X107.621 Y92.559 F6000.000
G1 E3.00000 F2400.000
G1 X107.458 Y93.836 E3.11915 F720.000
G1 X107.422 Y94.001 E3.13471
G1 X107.310 Y94.318 E3.16584
G1 X107.146 Y94.612 E3.19702
G1 X106.934 Y94.875 E3.22818
G1 X106.681 Y95.097 E3.25934
G1 X106.541 Y95.192 E3.27494
G1 X106.241 Y95.343 E3.30610
G1 X106.082 Y95.399 E3.32171
G1 X105.752 Y95.470 E3.35286
G1 X105.584 Y95.485 E3.36847
G1 X105.248 Y95.470 E3.39962
G1 X104.918 Y95.399 E3.43077
G1 X104.759 Y95.343 E3.44638
G1 X104.459 Y95.192 E3.47753
G1 X104.319 Y95.097 E3.49314
G1 X104.066 Y94.875 E3.52430
G1 X103.954 Y94.748 E3.53990
G1 X103.766 Y94.469 E3.57106
G1 X103.690 Y94.318 E3.58667
G1 X103.578 Y94.001 E3.61780
G1 X103.542 Y93.836 E3.63336
G1 X103.513 Y93.500 E3.66458
G1 X103.542 Y93.164 E3.69579
G1 X103.578 Y92.999 E3.71135
G1 X103.690 Y92.682 E3.74249
G1 X103.854 Y92.388 E3.77367
G1 X104.066 Y92.125 E3.80482
G1 X104.188 Y92.009 E3.82042
G1 X104.319 Y91.903 E3.83601
G1 X104.606 Y91.726 E3.86717
G1 X104.759 Y91.657 E3.88277
G1 X105.081 Y91.558 E3.91393
G1 X105.248 Y91.530 E3.92954
G1 X105.584 Y91.515 E3.96068
G1 X105.752 Y91.530 E3.97629
G1 X106.082 Y91.601 E4.00744
G1 X106.394 Y91.726 E4.03862
G1 X106.681 Y91.903 E4.06978
G1 X106.934 Y92.125 E4.10094
G1 X107.146 Y92.388 E4.13210
G1 X107.251 Y92.559 E4.15067
G1 X107.561 Y92.559 E4.17937
G1 X106.899 Y93.194 F6000.000
G1 X106.831 Y93.729 E4.22922 F360.000
G1 X106.730 Y94.056 E4.26090
G1 X106.619 Y94.256 E4.28208
G1 X106.475 Y94.434 E4.30324
G1 X106.208 Y94.650 E4.33497
G1 X105.895 Y94.791 E4.36670
G1 X105.671 Y94.839 E4.38790
G1 X105.443 Y94.849 E4.40908
G1 X105.216 Y94.820 E4.43025
G1 X104.997 Y94.753 E4.45143
G1 X104.697 Y94.586 E4.48316
G1 X104.450 Y94.348 E4.51488
G1 X104.321 Y94.158 E4.53609
G1 X104.227 Y93.950 E4.55726
G1 X104.169 Y93.729 E4.57838
G1 X104.150 Y93.500 E4.59963
G1 X104.193 Y93.160 E4.63135
G1 X104.270 Y92.944 E4.65254
G1 X104.381 Y92.744 E4.67372
G1 X104.525 Y92.566 E4.69489
G1 X104.697 Y92.414 E4.71609
G1 X104.997 Y92.247 E4.74782
G1 X105.216 Y92.180 E4.76900
G1 X105.443 Y92.151 E4.79017
G1 X105.671 Y92.161 E4.81135 F360.000
G1 X105.895 Y92.209 E4.83255
G1 X106.108 Y92.294 E4.85372
G1 X106.303 Y92.414 E4.87489
G1 X106.475 Y92.566 E4.89610
G1 X106.619 Y92.744 E4.91727
G1 X106.839 Y93.194 E4.96364
G1 X105.366 Y91.935 F6000.000
G1 X96.487 Y93.500 F6000.000
G1 X96.458 Y93.836 E4.99485 F720.000
G1 X96.422 Y94.001 E5.01041
G1 X96.310 Y94.318 E5.04155
G1 X96.146 Y94.612 E5.07272
G1 X95.934 Y94.875 E5.10388
G1 X95.681 Y95.097 E5.13504
G1 X95.541 Y95.192 E5.15064
G1 X95.241 Y95.343 E5.18181
G1 X95.082 Y95.399 E5.19741
G1 X94.752 Y95.470 E5.22857
G1 X94.416 Y95.485 E5.25971
G1 X94.081 Y95.442 E5.29090
G1 X93.759 Y95.343 E5.32205
G1 X93.459 Y95.192 E5.35320
G1 X93.319 Y95.097 E5.36881
G1 X93.066 Y94.875 E5.39997
G1 X92.954 Y94.748 E5.41557
G1 X92.766 Y94.469 E5.44674
G1 X92.627 Y94.162 E5.47789
G1 X92.542 Y93.836 E5.50901
G1 X92.513 Y93.500 E5.54022
G1 X92.521 Y93.330 E5.55597
G1 X92.578 Y92.999 E5.58700
G1 X92.690 Y92.682 E5.61813
G1 X92.854 Y92.388 E5.64931
G1 X93.066 Y92.125 E5.68047
G1 X93.319 Y91.903 E5.71163
G1 X93.459 Y91.808 E5.72723
G1 X93.759 Y91.657 E5.75839
G1 X94.081 Y91.558 E5.78955
G1 X94.416 Y91.515 E5.82073
G1 X94.640 Y91.520 E5.84150
G1 X95.082 Y91.601 E5.88298 F720.000
G1 X95.394 Y91.726 E5.91416
G1 X95.681 Y91.903 E5.94532
G1 X95.934 Y92.125 E5.97648
G1 X96.146 Y92.388 E6.00764
G1 X96.310 Y92.682 E6.03882
G1 X96.422 Y92.999 E6.06995
G1 X96.484 Y93.440 E6.11112
G1 X95.850 Y93.500 F6000.000
G1 X95.807 Y93.840 E6.14285 F360.000
G1 X95.730 Y94.056 E6.16404
G1 X95.619 Y94.256 E6.18521
G1 X95.475 Y94.434 E6.20638
G1 X95.303 Y94.586 E6.22759
G1 X95.003 Y94.753 E6.25931
G1 X94.671 Y94.839 E6.29103
G1 X94.443 Y94.849 E6.31222
G1 X94.216 Y94.820 E6.33339
G1 X93.997 Y94.753 E6.35457
G1 X93.792 Y94.650 E6.37577
G1 X93.525 Y94.434 E6.40750
G1 X93.321 Y94.158 E6.43923
G1 X93.227 Y93.950 E6.46040
G1 X93.169 Y93.729 E6.48152
G1 X93.155 Y93.384 E6.51341
G1 X93.193 Y93.160 E6.53449
G1 X93.270 Y92.944 E6.55568
G1 X93.450 Y92.652 E6.58740
G1 X93.697 Y92.414 E6.61913
G1 X93.997 Y92.247 E6.65086
G1 X94.216 Y92.180 E6.67203
G1 X94.443 Y92.151 E6.69321
G1 X94.671 Y92.161 E6.71439 F360.000
G1 X95.003 Y92.247 E6.74611
G1 X95.208 Y92.350 E6.76732
G1 X95.392 Y92.486 E6.78849
G1 X95.550 Y92.652 E6.80966
G1 X95.730 Y92.944 E6.84139
G1 X95.807 Y93.160 E6.86258
G1 X95.848 Y93.440 E6.88878
G1 X94.379 Y91.931 F6000.000
G1 F2400.000 E3.88878
G92 E0
G1 X96.039 Y102.644 F6000.000
G1 E3.00000 F2400.000
G1 X95.550 Y103.418 E3.08469 F360.000
G1 X95.303 Y103.656 E3.11642
G1 X95.003 Y103.823 E3.14814
G1 X94.671 Y103.909 E3.17986
G1 X94.329 Y103.909 E3.21158
G1 X93.997 Y103.823 E3.24330
G1 X93.792 Y103.720 E3.26451
G1 X93.608 Y103.584 E3.28568
G1 X93.450 Y103.418 E3.30685
G1 X93.321 Y103.228 E3.32805
G1 X93.193 Y102.910 E3.35977
G1 X93.150 Y102.570 E3.39150
G1 X93.169 Y102.341 E3.41274
G1 X93.227 Y102.120 E3.43386
G1 X93.321 Y101.912 E3.45503
G1 X93.450 Y101.722 E3.47624
G1 X93.697 Y101.484 E3.50797
G1 X93.997 Y101.317 E3.53969
G1 X94.216 Y101.250 E3.56087
G1 X94.443 Y101.221 E3.58204
G1 X94.671 Y101.231 E3.60322
G1 X95.003 Y101.317 E3.63495
G1 X95.208 Y101.420 E3.65615
G1 X95.392 Y101.556 E3.67732
G1 X95.550 Y101.722 E3.69849
G1 X95.730 Y102.014 E3.73022
G1 X95.807 Y102.230 E3.75141
G1 X95.870 Y102.644 E3.79017
G1 X95.979 Y102.644 E3.80032
G1 X96.411 Y102.791 F6000.000
G1 X98.317 Y101.373 F6000.000
G1 X96.840 Y101.373 E3.93690 F720.000
G1 X96.673 Y101.101 E3.96641
G1 X96.393 Y100.755 E4.00755
G1 X96.060 Y100.461 E4.04867
G1 X95.875 Y100.337 E4.06929
G1 X95.478 Y100.136 E4.11041
G1 X95.268 Y100.062 E4.13104
G1 X94.833 Y99.968 E4.17215
G1 X94.389 Y99.950 E4.21326
G1 X94.167 Y99.969 E4.23388
G1 X93.732 Y100.062 E4.27500
G1 X93.522 Y100.136 E4.29563
G1 X93.125 Y100.337 E4.33673
G1 X92.767 Y100.601 E4.37790
G1 X92.459 Y100.923 E4.41907
G1 X92.210 Y101.291 E4.46018
G1 X92.033 Y101.681 E4.49983
G1 X91.621 Y101.602 E4.53865
G1 X91.621 Y94.468 E5.19841
G1 X92.033 Y94.389 E5.23722
G1 X92.210 Y94.779 E5.27687
G1 X92.327 Y94.969 E5.29747
G1 X92.607 Y95.315 E5.33861
G1 X92.940 Y95.609 E5.37973
G1 X93.319 Y95.842 E5.42087
G1 X93.732 Y96.008 E5.46206
G1 X94.167 Y96.101 E5.50317
G1 X94.611 Y96.120 E5.54429
G1 X95.053 Y96.064 E5.58548
G1 X95.478 Y95.934 E5.62661
G1 X95.875 Y95.733 E5.66773
G1 X96.233 Y95.469 E5.70889
G1 X96.541 Y95.147 E5.75006
G1 X96.790 Y94.779 E5.79117
G1 X96.973 Y94.374 E5.83230
G1 X97.085 Y93.944 E5.87341
G1 X97.123 Y93.500 E5.91460
G1 X97.085 Y93.056 E5.95581
G1 X96.973 Y92.626 E5.99692
G1 X96.790 Y92.221 E6.03805
G1 X96.541 Y91.853 E6.07915
G1 X96.233 Y91.531 E6.12032
G1 X95.875 Y91.267 E6.16149
G1 X95.478 Y91.066 E6.20260
G1 X95.053 Y90.936 E6.24372
G1 X94.611 Y90.880 E6.28493
G1 X94.167 Y90.898 E6.32604
G1 X93.732 Y90.992 E6.36715
G1 X93.319 Y91.158 E6.40834
G1 X92.940 Y91.391 E6.44948
G1 X92.607 Y91.685 E6.49060
G1 X92.327 Y92.031 E6.53174
G1 X92.210 Y92.221 E6.55233
G1 X92.033 Y92.611 E6.59199
G1 X91.621 Y92.532 E6.63080
G1 X91.621 Y86.621 E7.17746
G1 X108.379 Y86.621 E8.72738
G1 X108.379 Y91.923 E9.21773
G1 X107.603 Y91.923 E9.28952
G1 X107.233 Y91.531 E9.33935
G1 X106.875 Y91.267 E9.38051
G1 X106.478 Y91.066 E9.42163
G1 X106.053 Y90.936 E9.46275
G1 X105.833 Y90.898 E9.48337
G1 X105.389 Y90.880 E9.52448
G1 X105.167 Y90.898 E9.54509
G1 X104.732 Y90.992 E9.58621
G1 X104.319 Y91.158 E9.62740
G1 X103.940 Y91.391 E9.66854
G1 X103.607 Y91.685 E9.70966
G1 X103.459 Y91.853 E9.73029
G1 X103.210 Y92.221 E9.77140
G1 X103.027 Y92.626 E9.81253
G1 X102.915 Y93.056 E9.85365
G1 X102.877 Y93.500 E9.89483
G1 X102.915 Y93.944 E9.93603
G1 X103.027 Y94.374 E9.97714
G1 X103.210 Y94.779 E10.01828
G1 X103.459 Y95.147 E10.05939
G1 X103.767 Y95.469 E10.10055
G1 X104.125 Y95.733 E10.14173
G1 X104.522 Y95.934 E10.18283
G1 X104.947 Y96.064 E10.22396
G1 X105.389 Y96.120 E10.26515
G1 X105.833 Y96.102 E10.30626
G1 X106.268 Y96.008 E10.34738
G1 X106.681 Y95.842 E10.38857
G1 X107.060 Y95.609 E10.42971
G1 X107.393 Y95.315 E10.47083
G1 X107.673 Y94.969 E10.51197
G1 X107.790 Y94.779 E10.53257
G1 X107.967 Y94.389 E10.57222
G1 X108.379 Y94.468 E10.61103
G1 X108.379 Y100.993 E11.21449
G1 X107.606 Y100.993 E11.28598
G1 X107.227 Y100.378 E11.35281
G1 X106.936 Y100.378 E11.37970
G1 X106.681 Y100.228 E11.40704
G1 X106.478 Y100.136 E11.42764
G1 X106.053 Y100.006 E11.46876
G1 X105.611 Y99.950 E11.50997
G1 X105.167 Y99.969 E11.55108
G1 X104.732 Y100.062 E11.59219
G1 X104.522 Y100.136 E11.61282
G1 X104.125 Y100.337 E11.65393
G1 X103.940 Y100.461 E11.67456
G1 X103.607 Y100.755 E11.71567
G1 X103.327 Y101.101 E11.75681
G1 X103.110 Y101.490 E11.79801
G1 X102.962 Y101.909 E11.83909
G1 X102.887 Y102.345 E11.88006
G1 X102.887 Y102.795 E11.92160
G1 X102.994 Y103.379 E11.97653
G1 X97.080 Y103.379 E12.52352
G1 X98.285 Y101.424 E12.73594
G1 X97.178 Y102.008 F6000.000
G1 X96.413 Y102.008 E12.80669 F720.000
G1 X96.234 Y101.601 E12.84783
G1 X96.046 Y101.322 E12.87899
G1 X95.934 Y101.195 E12.89459
G1 X95.681 Y100.973 E12.92576
G1 X95.541 Y100.878 E12.94136
G1 X95.241 Y100.727 E12.97252
G1 X94.919 Y100.628 E13.00367
G1 X94.584 Y100.585 E13.03486
G1 X94.248 Y100.600 E13.06600
G1 X93.918 Y100.671 E13.09716
G1 X93.759 Y100.727 E13.11276
G1 X93.459 Y100.878 E13.14392
G1 X93.319 Y100.973 E13.15952
G1 X93.066 Y101.195 E13.19068
G1 X92.954 Y101.322 E13.20629
G1 X92.766 Y101.601 E13.23745
G1 X92.690 Y101.752 E13.25305
G1 X92.578 Y102.069 E13.28418
G1 X92.542 Y102.234 E13.29975
G1 X92.513 Y102.570 E13.33096
G1 X92.542 Y102.906 E13.36218
G1 X92.578 Y103.071 E13.37775
G1 X92.690 Y103.388 E13.40887
G1 X92.766 Y103.539 E13.42448
G1 X93.059 Y104.014 E13.47616
G1 X90.986 Y104.014 E13.66793
G1 X90.986 Y85.986 E15.33543
G1 X109.014 Y85.986 E17.00293
G1 X109.014 Y104.014 E18.67042
G1 X106.941 Y104.014 E18.86220
G1 X107.285 Y103.457 E18.92277
G1 X107.614 Y103.457 E18.95326
G1 X107.501 Y102.570 E19.03597
G1 X107.621 Y101.629 E19.12376
G1 X107.251 Y101.629 E19.15800
G1 X106.872 Y101.013 E19.22484
G1 X106.741 Y101.013 E19.23691
G1 X106.541 Y100.878 E19.25921
G1 X106.241 Y100.727 E19.29037
G1 X106.082 Y100.671 E19.30598
G1 X105.752 Y100.600 E19.33714
G1 X105.416 Y100.585 E19.36828
G1 X105.081 Y100.628 E19.39947
G1 X104.759 Y100.727 E19.43062
G1 X104.459 Y100.878 E19.46177
G1 X104.319 Y100.973 E19.47738
G1 X104.066 Y101.195 E19.50854
G1 X103.854 Y101.458 E19.53970
G1 X103.690 Y101.752 E19.57088
G1 X103.578 Y102.069 E19.60201
G1 X103.521 Y102.400 E19.63304
G1 X103.513 Y102.570 E19.64878
G1 X103.542 Y102.906 E19.68001
G1 X103.578 Y103.071 E19.69557
G1 X103.690 Y103.388 E19.72670
G1 X104.059 Y104.014 E19.79394
G1 X95.941 Y104.014 E20.54479
G1 X97.147 Y102.060 E20.75721
G1 F2400.000 E17.75721
G92 E0
G1 X90.350 Y104.650 F6000.000
G1 E3.00000 F2400.000
G1 X90.350 Y85.350 E4.78508 F360.000
G1 X109.650 Y85.350 E6.57015
G1 X109.650 Y104.650 E8.35523
G1 X90.410 Y104.650 E10.13475
G1 X90.550 Y104.304 F6000.000
G1 X92.062 Y100.583 F6000.000
G1 X92.096 Y100.617 E10.13922 F1260.000
G1 X92.584 Y100.188 E10.19934
G1 X92.062 Y99.666 E10.26764
G1 X92.062 Y98.748 E10.35249
G1 X93.139 Y99.825 E10.49340
G1 X93.823 Y99.592 E10.56023
G1 X92.062 Y97.831 E10.79057
G1 X92.062 Y96.913 E10.87542
G1 X94.669 Y99.520 E11.21642
G1 X95.944 Y99.878 E11.33885
G1 X92.062 Y95.996 E11.84657
G1 X93.288 Y96.304 F6000.000
G1 X97.916 Y100.932 E12.45192 F1260.000
G1 X98.833 Y100.932 E12.53677
G1 X94.456 Y96.555 E13.10932
G1 X95.275 Y96.457 E13.18562
G1 X101.756 Y102.938 E14.03339
G1 X102.446 Y102.711 E14.10059
G1 X95.933 Y96.198 E14.95250
G1 X96.484 Y95.831 E15.01369
G1 X102.522 Y101.869 E15.80342
G1 X102.768 Y101.198 E15.86951
G1 X96.930 Y95.359 E16.63323
G1 X97.271 Y94.783 E16.69515
G1 X103.131 Y100.643 E17.46157
G1 X103.589 Y100.184 E17.52157
G1 X97.501 Y94.096 E18.31789
G1 X97.541 Y93.218 E18.39910
G1 X104.152 Y99.829 E19.26382
G1 X106.950 Y99.875 F6000.000
G1 X94.137 Y87.062 E20.93980 F1260.000
G1 X93.220 Y87.062 E21.02465
G1 X105.670 Y99.513 E22.65325
G1 X104.830 Y99.590 E22.73129
G1 X92.302 Y87.062 E24.36999
G1 X92.062 Y87.739 E24.43646
G1 X94.780 Y90.457 E24.79192
G1 X93.909 Y90.503 E24.87260
G1 X92.062 Y88.657 E25.11413
G1 X92.062 Y89.574 E25.19898
G1 X93.214 Y90.726 E25.34960
G1 X92.639 Y91.069 E25.41147
G1 X92.062 Y90.492 E25.48700
G1 X92.062 Y91.409 E25.57185
G1 X92.152 Y91.498 E25.58356
G1 X102.690 Y94.697 F6000.000
G1 X95.054 Y87.062 E26.58229 F1260.000
G1 X95.972 Y87.062 E26.66714
G1 X102.437 Y93.527 E27.51282
G1 X102.547 Y92.720 E27.58818
G1 X96.889 Y87.062 E28.32827
G1 X97.807 Y87.062 E28.41312
G1 X102.801 Y92.056 E29.06640
G1 X103.173 Y91.511 E29.12746
G1 X98.724 Y87.062 E29.70938
G1 X99.641 Y87.062 E29.79423
G1 X103.644 Y91.065 E30.31781
G1 X104.220 Y90.723 E30.37973
G1 X100.559 Y87.062 E30.85861
G1 X101.476 Y87.062 E30.94346
G1 X104.916 Y90.502 E31.39338
G1 X105.787 Y90.455 E31.47405
G1 X102.394 Y87.062 E31.91790
G1 X103.311 Y87.062 E32.00276
G1 X107.230 Y90.981 E32.51533
G1 X107.938 Y90.772 E32.58363
G1 X104.228 Y87.062 E33.06886
G1 X105.146 Y87.062 E33.15371
G1 X107.938 Y89.854 E33.51894
G1 X107.938 Y88.937 E33.60379
G1 X106.063 Y87.062 E33.84902
G1 X106.981 Y87.062 E33.93387
G1 X107.938 Y88.019 E34.05910
G1 X107.938 Y87.102 E34.14395
