; generated by Slic3r 1.1.7 on 2015-04-25 at 18:50:29

; perimeters extrusion width = 0.40mm
; infill extrusion width = 0.67mm
; solid infill extrusion width = 0.67mm
; top infill extrusion width = 0.67mm
; support material extrusion width = 0.40mm

G21 ; set units to millimeters
M107
M190 S60 ; wait for bed temperature to be reached
M104 S210 ; set temperature
G28 ; home all axes
G1 Z5 F5000 ; lift nozzle
M109 S210 ; wait for temperature to be reached
G90 ; use absolute coordinates
G92 E0
M82 ; use absolute distances for extrusion
G1 F2400.000 E-3.00000
G92 E0
G1 Z-4.350 F4200.000
G1 X63.894 Y63.815 F4200.000
G1 E3.00000 F2400.000
G1 X65.606 Y62.574 E3.19551 F1080.000
G1 X68.000 Y62.040 E3.42241
G1 X88.132 Y62.042 E5.28442
G1 X120.132 Y62.790 E8.24494 F1080.000
G1 X123.019 Y63.665 E8.52394
G1 X134.811 Y71.148 E9.81567
G1 X135.305 Y71.519 E9.87285
G1 X135.832 Y72.008 E9.93931
G1 X136.279 Y72.524 E10.00248
G1 X136.614 Y72.996 E10.05597
G1 X136.892 Y73.473 E10.10708
G1 X137.032 Y73.754 E10.13606
G1 X137.199 Y74.144 E10.17536
G1 X137.360 Y74.612 E10.22109
G1 X137.476 Y75.052 E10.26314
G1 X137.575 Y75.597 E10.31439
G1 X137.626 Y76.134 E10.36427
G1 X137.636 Y76.475 E10.39584
G1 X137.629 Y121.794 E14.58743
G1 X137.598 Y122.211 E14.62613
G1 X137.490 Y122.882 E14.68899
G1 X137.347 Y123.427 E14.74106
G1 X137.154 Y123.964 E14.79391
G1 X136.925 Y124.463 E14.84468
G1 X136.650 Y124.946 E14.89607
G1 X136.322 Y125.419 E14.94932
G1 X135.963 Y125.851 E15.00120
G1 X135.577 Y126.241 E15.05202
G1 X135.149 Y126.605 E15.10401
G1 X134.678 Y126.938 E15.15733
G1 X134.202 Y127.216 E15.20829
G1 X133.703 Y127.452 E15.25943
G1 X133.169 Y127.651 E15.31208
G1 X132.789 Y127.760 E15.34866
G1 X132.243 Y127.874 E15.40020
G1 X131.646 Y127.944 E15.45583
G1 X131.200 Y127.960 E15.49711
G1 X94.533 Y127.953 E18.88846
G1 X93.992 Y127.908 E18.93871
G1 X93.444 Y127.815 E18.99006
G1 X92.897 Y127.671 E19.04243
G1 X92.361 Y127.479 E19.09506
G1 X91.861 Y127.248 E19.14603
G1 X91.379 Y126.974 E19.19733
G1 X90.907 Y126.648 E19.25041
G1 X90.415 Y126.234 E19.30979
G1 X90.083 Y125.901 E19.35330
G1 X89.663 Y125.400 E19.41383
G1 X63.518 Y91.092 E23.40339
G1 X62.574 Y89.200 E23.59891
G1 X62.364 Y87.676 E23.74121
G1 X62.364 Y67.676 E25.59103
G1 X62.761 Y65.599 E25.78654
G1 X63.862 Y63.866 E25.97651
G1 F2400.000 E22.97651
G92 E0
G1 X118.379 Y77.296 F4200.000
G1 E3.00000 F2400.000
G1 X130.379 Y77.296 E4.10989 F720.000
G1 X130.379 Y79.138 E4.28028
G1 X130.072 Y79.165 E4.30875
G1 X129.118 Y79.305 E4.39794
G1 X128.170 Y79.500 E4.48746
G1 X127.236 Y79.750 E4.57685
G1 X126.318 Y80.054 E4.66630
G1 X125.419 Y80.411 E4.75581
G1 X124.544 Y80.819 E4.84513
G1 X123.691 Y81.279 E4.93467
G1 X122.869 Y81.786 E5.02403
G1 X122.077 Y82.340 E5.11350
G1 X121.317 Y82.940 E5.20299
G1 X120.596 Y83.582 E5.29233
G1 X119.911 Y84.267 E5.38188
G1 X119.269 Y84.988 E5.47122
G1 X118.669 Y85.747 E5.56071
G1 X118.113 Y86.540 E5.65019
G1 X117.606 Y87.362 E5.73955
G1 X117.147 Y88.214 E5.82909
G1 X116.738 Y89.089 E5.91843
G1 X116.381 Y89.989 E6.00794
G1 X116.077 Y90.907 E6.09740
G1 X115.827 Y91.840 E6.18678
G1 X115.631 Y92.788 E6.27632
G1 X115.491 Y93.743 E6.36559
G1 X115.407 Y94.705 E6.45489
G1 X115.379 Y95.651 E6.54241
G1 X115.379 Y103.348 E7.25432
G1 X115.448 Y105.716 E7.47342
G1 X115.558 Y105.716 E7.48357
G1 X115.631 Y106.211 E7.52982
G1 X115.827 Y107.159 E7.61936
G1 X116.077 Y108.092 E7.70875
G1 X116.381 Y109.010 E7.79820
G1 X116.738 Y109.910 E7.88773
G1 X117.147 Y110.785 E7.97705
G1 X117.606 Y111.637 E8.06659
G1 X118.113 Y112.459 E8.15596
G1 X118.669 Y113.252 E8.24543
G1 X119.269 Y114.011 E8.33493
G1 X119.911 Y114.732 E8.42427
G1 X120.596 Y115.417 E8.51381
G1 X121.317 Y116.059 E8.60315
G1 X122.077 Y116.659 E8.69265
G1 X122.869 Y117.213 E8.78212
G1 X123.691 Y117.720 E8.87147
G1 X124.544 Y118.180 E8.96101
G1 X125.419 Y118.588 E9.05034
G1 X126.318 Y118.945 E9.13985
G1 X127.236 Y119.249 E9.22929
G1 X128.170 Y119.499 E9.31869
G1 X129.118 Y119.694 E9.40821
G1 X130.072 Y119.834 E9.49740
G1 X130.379 Y119.861 E9.52587
G1 X130.379 Y120.703 E9.60376
G1 X95.621 Y120.703 E12.81852
G1 X95.621 Y119.861 E12.89642
G1 X95.928 Y119.834 E12.92488
G1 X96.882 Y119.694 E13.01407
G1 X97.830 Y119.499 E13.10359
G1 X98.764 Y119.249 E13.19299
G1 X99.682 Y118.945 E13.28243
G1 X100.581 Y118.588 E13.37194
G1 X101.456 Y118.180 E13.46127
G1 X102.309 Y117.720 E13.55081
G1 X103.131 Y117.213 E13.64016
G1 X103.923 Y116.659 E13.72964
G1 X104.683 Y116.059 E13.81913
G1 X105.404 Y115.417 E13.90847
G1 X105.947 Y114.874 E13.97951
G1 X106.731 Y114.011 E14.08733
G1 X107.331 Y113.252 E14.17682
G1 X107.887 Y112.459 E14.26630
G1 X108.394 Y111.637 E14.35566
G1 X108.853 Y110.785 E14.44520
G1 X109.262 Y109.910 E14.53454
G1 X109.619 Y109.010 E14.62405
G1 X109.923 Y108.092 E14.71351
G1 X110.173 Y107.159 E14.80289
G1 X110.369 Y106.211 E14.89243
G1 X110.509 Y105.256 E14.98170
G1 X110.593 Y104.294 E15.07100
G1 X110.621 Y103.348 E15.15852
G1 X110.621 Y95.651 E15.87043
G1 X110.570 Y93.918 E16.03078
G1 X110.535 Y93.918 E16.03405
G1 X110.369 Y92.788 E16.13965
G1 X110.173 Y91.840 E16.22919
G1 X109.923 Y90.907 E16.31858
G1 X109.619 Y89.989 E16.40803
G1 X109.262 Y89.089 E16.49755
G1 X108.853 Y88.214 E16.58688
G1 X108.394 Y87.362 E16.67643
G1 X107.887 Y86.540 E16.76579
G1 X107.331 Y85.747 E16.85526
G1 X106.731 Y84.988 E16.94476
G1 X106.089 Y84.267 E17.03410
G1 X105.404 Y83.582 E17.12364
G1 X104.683 Y82.940 E17.21298
G1 X103.923 Y82.340 E17.30248
G1 X103.131 Y81.786 E17.39195
G1 X102.309 Y81.279 E17.48131
G1 X101.456 Y80.819 E17.57084
G1 X100.581 Y80.411 E17.66017
G1 X99.682 Y80.054 E17.74968
G1 X98.764 Y79.750 E17.83912
G1 X97.830 Y79.500 E17.92852
G1 X96.882 Y79.305 E18.01804
G1 X95.928 Y79.165 E18.10723
G1 X95.621 Y79.138 E18.13570
G1 X95.621 Y77.296 E18.30608
G1 X107.621 Y77.296 E19.41598
G1 X107.621 Y70.046 E20.08657
G1 X118.379 Y70.046 E21.08154
G1 X118.379 Y77.236 E21.74658
G1 X119.014 Y76.660 F4200.000
G1 X131.014 Y76.660 E22.85647 F720.000
G1 X131.014 Y79.721 E23.13953
G1 X130.146 Y79.797 E23.22016
G1 X129.228 Y79.931 E23.30593
G1 X128.317 Y80.119 E23.39204
G1 X127.419 Y80.359 E23.47801
G1 X126.536 Y80.652 E23.56403
G1 X125.671 Y80.995 E23.65012
G1 X124.829 Y81.388 E23.73602
G1 X124.009 Y81.829 E23.82214
G1 X123.218 Y82.317 E23.90808
G1 X122.456 Y82.850 E23.99413
G1 X121.726 Y83.427 E24.08020
G1 X121.032 Y84.045 E24.16612
G1 X120.373 Y84.703 E24.25224
G1 X119.756 Y85.397 E24.33816
G1 X119.179 Y86.127 E24.42423
G1 X118.645 Y86.889 E24.51029
G1 X118.157 Y87.680 E24.59622
G1 X117.715 Y88.499 E24.68235
G1 X117.322 Y89.341 E24.76826
G1 X116.979 Y90.206 E24.85436
G1 X116.686 Y91.089 E24.94039
G1 X116.445 Y91.987 E25.02635
G1 X116.257 Y92.899 E25.11247
G1 X116.122 Y93.817 E25.19832
G1 X116.041 Y94.742 E25.28420
G1 X116.014 Y95.660 E25.36916
G1 X116.014 Y103.339 E26.07933
G1 X116.066 Y105.080 E26.24048
G1 X116.107 Y105.080 E26.24435
G1 X116.257 Y106.100 E26.33969
G1 X116.445 Y107.012 E26.42581
G1 X116.686 Y107.910 E26.51178
G1 X116.979 Y108.793 E26.59781
G1 X117.322 Y109.658 E26.68391
G1 X117.715 Y110.500 E26.76981
G1 X118.157 Y111.319 E26.85594
G1 X118.645 Y112.110 E26.94188
G1 X119.179 Y112.872 E27.02793
G1 X119.756 Y113.602 E27.11400
G1 X120.373 Y114.296 E27.19992
G1 X121.032 Y114.954 E27.28605
G1 X121.726 Y115.572 E27.37196
G1 X122.456 Y116.149 E27.45804
G1 X123.218 Y116.682 E27.54409
G1 X124.009 Y117.170 E27.63002
G1 X124.829 Y117.611 E27.71614
G1 X125.671 Y118.004 E27.80204
G1 X126.536 Y118.347 E27.88813
G1 X127.419 Y118.640 E27.97415
G1 X128.317 Y118.880 E28.06012
G1 X129.228 Y119.068 E28.14623
G1 X130.146 Y119.202 E28.23200
G1 X131.014 Y119.278 E28.31263
G1 X131.014 Y121.339 E28.50320
G1 X94.986 Y121.339 E31.83553
G1 X94.986 Y119.278 E32.02610
G1 X95.854 Y119.202 E32.10673
G1 X96.772 Y119.068 E32.19249
G1 X97.683 Y118.880 E32.27861
G1 X98.581 Y118.640 E32.36458
G1 X99.464 Y118.347 E32.45060
G1 X100.329 Y118.004 E32.53669
G1 X101.171 Y117.611 E32.62259
G1 X101.991 Y117.170 E32.70871
G1 X102.782 Y116.682 E32.79464
G1 X103.544 Y116.149 E32.88069
G1 X104.274 Y115.572 E32.96677
G1 X104.968 Y114.954 E33.05268
G1 X105.498 Y114.424 E33.12201
G1 X106.244 Y113.602 E33.22470
G1 X106.821 Y112.872 E33.31078
G1 X107.355 Y112.110 E33.39683
G1 X107.843 Y111.319 E33.48277
G1 X108.285 Y110.500 E33.56889
G1 X108.678 Y109.658 E33.65480
G1 X109.021 Y108.793 E33.74090
G1 X109.314 Y107.910 E33.82693
G1 X109.555 Y107.012 E33.91289
G1 X109.743 Y106.100 E33.99901
G1 X109.878 Y105.182 E34.08486
G1 X109.959 Y104.257 E34.17074
G1 X109.986 Y103.339 E34.25570
G1 X109.986 Y95.660 E34.96588
G1 X109.953 Y94.554 E35.06828
G1 X109.878 Y93.817 E35.13675
G1 X109.743 Y92.899 E35.22260
G1 X109.555 Y91.987 E35.30872
G1 X109.314 Y91.089 E35.39468
G1 X109.021 Y90.206 E35.48071
G1 X108.678 Y89.341 E35.56681
G1 X108.285 Y88.499 E35.65272
G1 X107.843 Y87.680 E35.73884
G1 X107.355 Y86.889 E35.82478
G1 X106.821 Y86.127 E35.91083
G1 X106.244 Y85.397 E35.99691
G1 X105.627 Y84.703 E36.08283
G1 X104.968 Y84.045 E36.16895
G1 X104.274 Y83.427 E36.25487
G1 X103.544 Y82.850 E36.34094
G1 X102.782 Y82.317 E36.42699
G1 X101.991 Y81.829 E36.51292
G1 X101.171 Y81.388 E36.59904
G1 X100.329 Y80.995 E36.68494
G1 X99.464 Y80.652 E36.77103
G1 X98.581 Y80.359 E36.85706
G1 X97.683 Y80.119 E36.94303
G1 X96.772 Y79.931 E37.02914
G1 X95.854 Y79.797 E37.11491
G1 X94.986 Y79.721 E37.19554
G1 X94.986 Y76.660 E37.47859
G1 X106.986 Y76.660 E38.58848
G1 X106.986 Y69.410 E39.25908
G1 X119.014 Y69.410 E40.37163
G1 X119.014 Y76.600 E41.03667
G1 X119.650 Y76.025 F4200.000
G1 X131.192 Y76.025 E42.10416 F360.000
G1 X131.317 Y76.041 E42.11586
G1 X131.458 Y76.106 E42.13024
G1 X131.568 Y76.217 E42.14468
G1 X131.634 Y76.357 E42.15904
G1 X131.650 Y76.483 E42.17078
G1 X131.650 Y80.335 E42.52700
G1 X131.106 Y80.351 E42.57730
G1 X130.220 Y80.428 E42.65963
G1 X129.339 Y80.557 E42.74198
G1 X128.463 Y80.738 E42.82468
G1 X127.601 Y80.969 E42.90722
G1 X126.753 Y81.249 E42.98982
G1 X125.922 Y81.579 E43.07249
G1 X125.114 Y81.956 E43.15497
G1 X124.327 Y82.380 E43.23767
G1 X123.568 Y82.848 E43.32018
G1 X122.836 Y83.361 E43.40281
G1 X122.135 Y83.915 E43.48546
G1 X121.468 Y84.508 E43.56795
G1 X120.836 Y85.140 E43.65066
G1 X120.243 Y85.806 E43.73315
G1 X119.689 Y86.507 E43.81581
G1 X119.176 Y87.239 E43.89844
G1 X118.708 Y87.998 E43.98095
G1 X118.283 Y88.785 E44.06366
G1 X117.906 Y89.593 E44.14614
G1 X117.576 Y90.424 E44.22882
G1 X117.295 Y91.272 E44.31143
G1 X117.064 Y92.134 E44.39397
G1 X116.883 Y93.009 E44.47667
G1 X116.754 Y93.891 E44.55910
G1 X116.676 Y94.779 E44.64156
G1 X116.650 Y95.670 E44.72395
G1 X116.650 Y103.329 E45.43240
G1 X116.683 Y104.445 E45.53560
G1 X116.696 Y104.445 E45.53681
G1 X116.754 Y105.108 E45.59840
G1 X116.883 Y105.990 E45.68082
G1 X117.064 Y106.865 E45.76353
G1 X117.295 Y107.727 E45.84607
G1 X117.576 Y108.575 E45.92867
G1 X117.906 Y109.406 E46.01136
G1 X118.283 Y110.214 E46.09383
G1 X118.708 Y111.001 E46.17654
G1 X119.176 Y111.760 E46.25905
G1 X119.689 Y112.492 E46.34169
G1 X120.243 Y113.193 E46.42434
G1 X120.836 Y113.859 E46.50683
G1 X121.468 Y114.491 E46.58954
G1 X122.135 Y115.084 E46.67203
G1 X122.836 Y115.638 E46.75469
G1 X123.568 Y116.151 E46.83731
G1 X124.327 Y116.619 E46.91982
G1 X125.114 Y117.043 E47.00253
G1 X125.922 Y117.420 E47.08500
G1 X126.753 Y117.750 E47.16767
G1 X127.601 Y118.030 E47.25027
G1 X128.463 Y118.261 E47.33282
G1 X129.339 Y118.442 E47.41552
G1 X130.220 Y118.571 E47.49787
G1 X131.106 Y118.648 E47.58020
G1 X131.650 Y118.664 E47.63049
G1 X131.650 Y121.516 E47.89425
G1 X131.634 Y121.641 E47.90595
G1 X131.589 Y121.750 E47.91681
G1 X131.518 Y121.842 E47.92759
G1 X131.425 Y121.913 E47.93837
G1 X131.317 Y121.958 E47.94923
G1 X131.192 Y121.974 E47.96087
G1 X94.808 Y121.974 E51.32605
G1 X94.647 Y121.947 E51.34121
G1 X94.482 Y121.842 E51.35927
G1 X94.377 Y121.678 E51.37730
G1 X94.350 Y121.516 E51.39243
G1 X94.350 Y118.664 E51.65623
G1 X94.894 Y118.648 E51.70652
G1 X95.780 Y118.571 E51.78886
G1 X96.661 Y118.442 E51.87121
G1 X97.537 Y118.261 E51.95391
G1 X98.399 Y118.030 E52.03645
G1 X99.247 Y117.750 E52.11905
G1 X100.078 Y117.420 E52.20172
G1 X100.886 Y117.043 E52.28420
G1 X101.673 Y116.619 E52.36690
G1 X102.432 Y116.151 E52.44941
G1 X103.164 Y115.638 E52.53204
G1 X103.865 Y115.084 E52.61469
G1 X104.532 Y114.491 E52.69718
G1 X105.049 Y113.975 E52.76480
G1 X105.757 Y113.193 E52.86236
G1 X106.311 Y112.492 E52.94501
G1 X106.824 Y111.760 E53.02765
G1 X107.292 Y111.001 E53.11016
G1 X107.717 Y110.214 E53.19287
G1 X108.094 Y109.406 E53.27535
G1 X108.424 Y108.575 E53.35803
G1 X108.705 Y107.727 E53.44064
G1 X108.936 Y106.865 E53.52318
G1 X109.117 Y105.990 E53.60588
G1 X109.246 Y105.108 E53.68830
G1 X109.324 Y104.220 E53.77077
G1 X109.350 Y103.329 E53.85316
G1 X109.350 Y95.670 E54.56161
G1 X109.324 Y94.779 E54.64400
G1 X109.246 Y93.891 E54.72647
G1 X109.117 Y93.009 E54.80889
G1 X108.936 Y92.134 E54.89159
G1 X108.705 Y91.272 E54.97413
G1 X108.424 Y90.424 E55.05674
G1 X108.094 Y89.593 E55.13942
G1 X107.717 Y88.785 E55.22190
G1 X107.292 Y87.998 E55.30461
G1 X106.824 Y87.239 E55.38712
G1 X106.311 Y86.507 E55.46975
G1 X105.757 Y85.806 E55.55241
G1 X105.164 Y85.140 E55.63490
G1 X104.532 Y84.508 E55.71761
G1 X103.865 Y83.915 E55.80010
G1 X103.164 Y83.361 E55.88275
G1 X102.432 Y82.848 E55.96538
G1 X101.673 Y82.380 E56.04789
G1 X100.886 Y81.956 E56.13059
G1 X100.078 Y81.579 E56.21307
G1 X99.247 Y81.249 E56.29574
G1 X98.399 Y80.969 E56.37834
G1 X97.537 Y80.738 E56.46089
G1 X96.661 Y80.557 E56.54359
G1 X95.780 Y80.428 E56.62594
G1 X94.894 Y80.351 E56.70827
G1 X94.350 Y80.335 E56.75856
G1 X94.350 Y76.483 E57.11481
G1 X94.366 Y76.358 E57.12651
G1 X94.411 Y76.249 E57.13736
G1 X94.482 Y76.157 E57.14814
G1 X94.575 Y76.086 E57.15893
G1 X94.683 Y76.041 E57.16979
G1 X94.808 Y76.025 E57.18142
G1 X106.350 Y76.025 E58.24898
G1 X106.350 Y68.774 E58.91957
G1 X119.650 Y68.774 E60.14970
G1 X119.650 Y75.965 E60.81475
G1 X119.650 Y76.425 F4200.000
G1 X117.938 Y76.595 F4200.000
G1 X111.829 Y70.486 E61.61380 F1260.000
G1 X112.731 Y70.486 E61.69718
G1 X117.938 Y75.694 E62.37832
G1 X117.938 Y74.792 E62.46170
G1 X113.632 Y70.486 E63.02491
G1 X114.534 Y70.486 E63.10829
G1 X117.938 Y73.891 E63.55358
G1 X117.938 Y72.989 E63.63696
G1 X115.435 Y70.486 E63.96432
G1 X116.337 Y70.486 E64.04770
G1 X117.938 Y72.088 E64.25714
G1 X117.938 Y71.186 E64.34052
G1 X117.238 Y70.486 E64.43204
G1 F2400.000 E61.43204
G92 E0
G1 X129.898 Y77.737 F4200.000
G1 E3.00000 F2400.000
G1 X129.938 Y77.777 E3.00523 F1260.000
G1 X129.938 Y78.678 E3.08862
G1 X128.996 Y77.737 E3.21177
G1 X128.095 Y77.737 E3.29516
G1 X129.205 Y78.847 E3.44031
G1 X128.449 Y78.993 E3.51148
G1 X127.193 Y77.737 E3.67574
G1 X126.292 Y77.737 E3.75913
G1 X127.719 Y79.165 E3.94587
G1 X127.013 Y79.360 E4.01365
G1 X125.390 Y77.737 E4.22593
G1 X124.489 Y77.737 E4.30931
G1 X126.336 Y79.584 E4.55093
G1 X125.683 Y79.832 E4.61557
G1 X123.587 Y77.737 E4.88966
G1 X122.686 Y77.737 E4.97305
G1 X125.047 Y80.098 E5.28192
G1 X124.432 Y80.385 E5.34467
G1 X121.784 Y77.737 E5.69104
G1 X120.883 Y77.737 E5.77443
G1 X123.842 Y80.697 E6.16156
G1 X123.267 Y81.023 E6.22274
G1 X119.981 Y77.737 E6.65252
G1 X119.079 Y77.737 E6.73590
G1 X122.709 Y81.366 E7.21065
G1 X122.175 Y81.734 E7.27061
G1 X110.928 Y70.486 E8.74175
G1 X110.026 Y70.486 E8.82514
G1 X121.653 Y82.113 E10.34595
G1 X121.149 Y82.511 E10.40532
G1 X109.124 Y70.486 E11.97818
G1 X108.223 Y70.486 E12.06157
G1 X120.666 Y82.930 E13.68916
G1 X120.195 Y83.360 E13.74819
G1 X108.062 Y71.227 E15.33517
G1 X108.062 Y72.129 E15.41855
G1 X119.744 Y83.811 E16.94656
G1 X119.310 Y84.279 E17.00557
G1 X108.062 Y73.030 E18.47687
G1 X108.062 Y73.932 E18.56026
