; generated by Slic3r 1.1.7 on 2015-04-25 at 16:39:47

; perimeters extrusion width = 0.40mm
; infill extrusion width = 0.67mm
; solid infill extrusion width = 0.67mm
; top infill extrusion width = 0.67mm
; support material extrusion width = 0.40mm

G21 ; set units to millimeters
M107
M190 S60 ; wait for bed temperature to be reached
M104 S210 ; set temperature
G28 ; home all axes
G1 Z5 F5000 ; lift nozzle
M109 S210 ; wait for temperature to be reached
G90 ; use absolute coordinates
G92 E0
M82 ; use absolute distances for extrusion
G1 F2400.000 E-3.00000
G92 E0
G1 Z-4.350 F4200.000
G1 X42.345 Y34.198 F4200.000
G1 E3.00000 F2400.000
G1 X43.843 Y32.707 E3.19551 F1080.000
G1 X45.785 Y31.872 E3.39103
G1 X47.000 Y31.739 E3.50407
G1 X151.000 Y31.739 E13.12313
G1 X153.076 Y32.136 E13.31864
G1 X154.861 Y33.269 E13.51416 F1080.000
G1 X156.102 Y34.981 E13.70967
G1 X156.498 Y36.137 E13.82272
G1 X160.498 Y53.898 E15.50658
G1 X160.636 Y55.136 E15.62181
G1 X160.636 Y92.225 E19.05222
G1 X160.239 Y94.301 E19.24773
G1 X159.106 Y96.086 E19.44325
G1 X157.394 Y97.327 E19.63876
G1 X155.625 Y97.826 E19.80878
G1 X133.500 Y100.261 E21.86752
G1 X63.875 Y100.226 E28.30722
G1 X42.375 Y97.826 E30.30813
G1 X40.355 Y97.201 E30.50364
G1 X38.708 Y95.877 E30.69916
G1 X37.664 Y94.039 E30.89467
G1 X37.364 Y92.225 E31.06469
G1 X37.364 Y55.136 E34.49510
G1 X37.502 Y53.898 E34.61033
G1 X41.502 Y36.137 E36.29420
G1 X42.321 Y34.253 E36.48416
G1 F2400.000 E33.48416
G92 E0
G1 X103.364 Y69.253 F4200.000
G1 E3.00000 F2400.000
G1 X103.276 Y68.552 E3.06535 F360.000
G1 X103.182 Y67.293 E3.18215
G1 X103.150 Y66.025 E3.29945
G1 X103.182 Y64.757 E3.41676
G1 X103.276 Y63.498 E3.53356
G1 X103.433 Y62.247 E3.65013
G1 X103.653 Y61.003 E3.76703
G1 X103.934 Y59.769 E3.88409
G1 X104.276 Y58.554 E4.00082
G1 X104.679 Y57.355 E4.11777
G1 X105.141 Y56.177 E4.23481
G1 X105.660 Y55.027 E4.35152
G1 X106.237 Y53.901 E4.46852
G1 X106.870 Y52.806 E4.58553
G1 X107.554 Y51.746 E4.70224
G1 X108.293 Y50.718 E4.81927
G1 X109.081 Y49.730 E4.93623
G1 X109.916 Y48.783 E5.05296
G1 X110.800 Y47.877 E5.17001
G1 X111.727 Y47.018 E5.28693
G1 X112.694 Y46.206 E5.40369
G1 X113.703 Y45.442 E5.52076
G1 X114.747 Y44.730 E5.63761
G1 X115.824 Y44.072 E5.75442
G1 X116.936 Y43.466 E5.87149
G1 X118.074 Y42.918 E5.98828
G1 X119.238 Y42.428 E6.10517
G1 X120.427 Y41.995 E6.22223
G1 X121.633 Y41.623 E6.33897
G1 X122.859 Y41.311 E6.45591
G1 X124.099 Y41.060 E6.57295
G1 X125.347 Y40.872 E6.68967
G1 X126.605 Y40.746 E6.80666
G1 X127.869 Y40.683 E6.92367
G1 X129.206 Y40.687 E7.04730
G1 X130.395 Y40.746 E7.15739 F360.000
G1 X131.653 Y40.872 E7.27437
G1 X132.901 Y41.060 E7.39109
G1 X134.141 Y41.311 E7.50814
G1 X135.366 Y41.623 E7.62507
G1 X136.573 Y41.995 E7.74182
G1 X137.762 Y42.428 E7.85888
G1 X138.926 Y42.918 E7.97576
G1 X140.064 Y43.466 E8.09256
G1 X141.176 Y44.072 E8.20962
G1 X142.253 Y44.730 E8.32643
G1 X143.297 Y45.442 E8.44330
G1 X144.306 Y46.206 E8.56036
G1 X145.273 Y47.018 E8.67712
G1 X146.200 Y47.878 E8.79404
G1 X147.084 Y48.783 E8.91109
G1 X147.919 Y49.730 E9.02781
G1 X148.707 Y50.718 E9.14478
G1 X149.446 Y51.746 E9.26181
G1 X150.130 Y52.806 E9.37852
G1 X150.763 Y53.901 E9.49553
G1 X151.340 Y55.027 E9.61252
G1 X151.859 Y56.177 E9.72924
G1 X152.321 Y57.355 E9.84628
G1 X152.724 Y58.554 E9.96322
G1 X153.066 Y59.769 E10.07996
G1 X153.347 Y61.003 E10.19702
G1 X153.567 Y62.247 E10.31392
G1 X153.724 Y63.498 E10.43049
G1 X153.818 Y64.757 E10.54729
G1 X153.850 Y66.025 E10.66459
G1 X153.818 Y67.293 E10.78191
G1 X153.724 Y68.552 E10.89870
G1 X153.567 Y69.803 E11.01527
G1 X153.347 Y71.047 E11.13218
G1 X153.066 Y72.281 E11.24923
G1 X152.724 Y73.496 E11.36596
G1 X152.321 Y74.695 E11.48292
G1 X151.859 Y75.873 E11.59996
G1 X151.340 Y77.023 E11.71667
G1 X150.763 Y78.149 E11.83367
G1 X150.130 Y79.244 E11.95067
G1 X149.446 Y80.304 E12.06738
G1 X148.707 Y81.332 E12.18441
G1 X147.919 Y82.320 E12.30138
G1 X147.084 Y83.267 E12.41810
G1 X146.200 Y84.172 E12.53516
G1 X145.273 Y85.032 E12.65207
G1 X144.247 Y85.889 E12.77575
G1 X143.297 Y86.608 E12.88589
G1 X142.253 Y87.320 E13.00275
G1 X141.110 Y88.014 E13.12647
G1 X140.064 Y88.584 E13.23662
G1 X138.927 Y89.132 E13.35341
G1 X137.762 Y89.622 E13.47030
G1 X136.573 Y90.055 E13.58736
G1 X135.367 Y90.427 E13.70410
G1 X134.141 Y90.739 E13.82104
G1 X132.901 Y90.990 E13.93808
G1 X131.653 Y91.178 E14.05480
G1 X130.395 Y91.304 E14.17179
G1 X129.131 Y91.367 E14.28880
G1 X127.869 Y91.367 E14.40551
G1 X126.605 Y91.304 E14.52253
G1 X125.347 Y91.178 E14.63951
G1 X124.099 Y90.990 E14.75623
G1 X122.859 Y90.739 E14.87328
G1 X121.634 Y90.427 E14.99021
G1 X120.427 Y90.055 E15.10696
G1 X119.238 Y89.622 E15.22402
G1 X118.074 Y89.132 E15.34090
G1 X116.870 Y88.548 E15.46460
G1 X115.824 Y87.978 E15.57475
G1 X114.747 Y87.320 E15.69156
G1 X113.703 Y86.608 E15.80842
G1 X112.694 Y85.844 E15.92549
G1 X111.727 Y85.032 E16.04225
G1 X110.800 Y84.172 E16.15917
G1 X109.916 Y83.267 E16.27622
G1 X109.081 Y82.320 E16.39294
G1 X108.293 Y81.332 E16.50991
G1 X107.554 Y80.304 E16.62694
G1 X106.870 Y79.244 E16.74365
G1 X106.237 Y78.149 E16.86066
G1 X105.660 Y77.023 E16.97765
G1 X105.141 Y75.873 E17.09437
G1 X104.679 Y74.695 E17.21140
G1 X104.276 Y73.496 E17.32835
G1 X103.934 Y72.281 E17.44509
G1 X103.653 Y71.047 E17.56215
G1 X103.433 Y69.803 E17.67905
G1 X103.372 Y69.313 E17.72473
G1 F2400.000 E14.72473
G92 E0
G1 X129.314 Y40.302 F4200.000
G1 X125.121 Y92.433 F4200.000
G1 E3.00000 F2400.000
G1 X125.995 Y92.521 E3.08125 F720.000
G1 X125.971 Y93.004 E3.12600
G1 X125.121 Y93.004 E3.20462
G1 X125.121 Y92.493 E3.25184
G1 X131.005 Y92.521 F4200.000
G1 X131.879 Y92.433 E3.33309 F720.000
G1 X131.879 Y93.004 E3.38586
G1 X131.029 Y93.004 E3.46447
G1 X131.008 Y92.581 E3.50367
G1 X132.514 Y91.691 F4200.000
G1 X132.514 Y93.639 E3.68386 F720.000
G1 X124.486 Y93.639 E4.42645
G1 X124.486 Y91.691 E4.60665
G1 X125.268 Y91.809 E4.67982
G1 X126.558 Y91.938 E4.79973
G1 X127.853 Y92.003 E4.91968
G1 X129.147 Y92.003 E5.03933
G1 X130.442 Y91.938 E5.15927
G1 X131.732 Y91.809 E5.27919
G1 X132.455 Y91.700 E5.34681
G1 X139.620 Y90.208 F4200.000
G1 X140.644 Y89.715 E5.45193 F720.000
G1 X141.811 Y89.080 E5.57486
G1 X142.943 Y88.388 E5.69755
G1 X144.040 Y87.640 E5.82026
G1 X145.099 Y86.838 E5.94319
G1 X146.115 Y85.986 E6.06582
G1 X147.088 Y85.083 E6.18860
G1 X148.016 Y84.131 E6.31151
G1 X148.893 Y83.138 E6.43412
G1 X149.721 Y82.099 E6.55693
G1 X150.496 Y81.021 E6.67983
G1 X151.216 Y79.907 E6.80241
G1 X151.880 Y78.757 E6.92527
G1 X152.486 Y77.575 E7.04814
G1 X152.977 Y76.485 E7.15867
G1 X153.379 Y76.572 E7.19666
G1 X153.379 Y90.604 E8.49448
G1 X139.711 Y90.604 E9.75866
G1 X139.634 Y90.267 E9.79062
G1 X136.293 Y90.807 F4200.000
G1 X136.775 Y90.658 E9.83728 F720.000
G1 X137.994 Y90.214 E9.95727
G1 X139.188 Y89.711 E10.07709
G1 X140.354 Y89.149 E10.19681
G1 X141.494 Y88.529 E10.31681
G1 X142.598 Y87.854 E10.43656
G1 X143.668 Y87.124 E10.55634
G1 X144.703 Y86.341 E10.67634
G1 X145.694 Y85.509 E10.79604
G1 X146.644 Y84.628 E10.91588
G1 X147.550 Y83.699 E11.03587
G1 X148.406 Y82.729 E11.15553
G1 X149.214 Y81.715 E11.27542
G1 X149.918 Y80.736 E11.38700
G1 X150.673 Y79.576 E11.51502
G1 X151.321 Y78.453 E11.63496
G1 X151.872 Y77.380 E11.74650
G1 X152.445 Y76.120 E11.87453
G1 X152.919 Y74.912 E11.99449
G1 X153.332 Y73.684 E12.11438
G1 X153.575 Y72.817 E12.19763
G1 X154.014 Y72.878 E12.23862
G1 X154.014 Y91.239 E13.93691
G1 X136.358 Y91.239 E15.56993
G1 X136.302 Y90.866 E15.60485
G1 F2400.000 E12.60485
G92 E0
G1 X117.380 Y90.208 F4200.000
G1 E3.00000 F2400.000
G1 X117.289 Y90.604 E3.03750 F720.000
G1 X103.621 Y90.604 E4.30169
G1 X103.621 Y76.572 E5.59951
G1 X104.023 Y76.485 E5.63750
G1 X104.514 Y77.575 E5.74804
G1 X105.120 Y78.757 E5.87088
G1 X105.785 Y79.907 E5.99377
G1 X106.504 Y81.021 E6.11635
G1 X107.279 Y82.099 E6.23922
G1 X108.041 Y83.054 E6.35220
G1 X108.984 Y84.132 E6.48465
G1 X109.912 Y85.083 E6.60754
G1 X110.885 Y85.986 E6.73034
G1 X111.901 Y86.838 E6.85297
G1 X112.960 Y87.640 E6.97589
G1 X114.057 Y88.388 E7.09862
G1 X115.188 Y89.080 E7.22129
G1 X116.356 Y89.715 E7.34422
G1 X117.326 Y90.182 E7.44379
G1 X120.707 Y90.807 F4200.000
G1 X120.642 Y91.239 E7.48427 F720.000
G1 X102.986 Y91.239 E9.11729
G1 X102.986 Y72.878 E10.81557
G1 X103.425 Y72.817 E10.85656
G1 X103.668 Y73.684 E10.93982
G1 X104.081 Y74.912 E11.05970
G1 X104.555 Y76.120 E11.17967
G1 X105.087 Y77.299 E11.29932
G1 X105.679 Y78.453 E11.41924
G1 X106.327 Y79.576 E11.53919
G1 X107.029 Y80.662 E11.65883
G1 X107.786 Y81.715 E11.77878
G1 X108.538 Y82.658 E11.89029
G1 X109.450 Y83.699 E12.01834
G1 X110.356 Y84.628 E12.13831
G1 X111.306 Y85.509 E12.25817
G1 X112.297 Y86.341 E12.37786
G1 X113.332 Y87.124 E12.49785
G1 X114.402 Y87.854 E12.61765
G1 X115.506 Y88.529 E12.73739
G1 X116.566 Y89.106 E12.84901
G1 X117.812 Y89.711 E12.97712
G1 X119.006 Y90.214 E13.09692
G1 X120.225 Y90.658 E13.21691
G1 X120.650 Y90.789 E13.25802
G1 F2400.000 E10.25802
G92 E0
G1 X105.291 Y52.998 F4200.000
G1 E3.00000 F2400.000
G1 X104.860 Y52.776 E3.04484 F720.000
G1 X107.621 Y46.728 E3.65985
G1 X107.621 Y38.996 E4.37494
G1 X126.472 Y38.996 E6.11842
G1 X126.496 Y39.479 E6.16317
G1 X125.189 Y39.610 E6.28464
G1 X123.878 Y39.808 E6.40723
G1 X122.576 Y40.071 E6.53012
G1 X121.289 Y40.398 E6.65294
G1 X120.022 Y40.789 E6.77555
G1 X118.774 Y41.244 E6.89846
G1 X117.550 Y41.759 E7.02122
G1 X116.356 Y42.335 E7.14387
G1 X115.282 Y42.920 E7.25695
G1 X114.057 Y43.662 E7.38948
G1 X112.960 Y44.410 E7.51219
G1 X111.901 Y45.212 E7.63511
G1 X110.885 Y46.064 E7.75775
G1 X109.912 Y46.967 E7.88052
G1 X108.984 Y47.918 E8.00344
G1 X108.107 Y48.912 E8.12604
G1 X107.279 Y49.951 E8.24886
G1 X106.504 Y51.029 E8.37176
G1 X105.784 Y52.143 E8.49434
G1 X105.320 Y52.947 E8.58018
G1 F2400.000 E5.58018
G92 E0
G1 X130.504 Y39.479 F4200.000
G1 E3.00000 F2400.000
G1 X130.528 Y38.996 E3.04475 F720.000
G1 X149.379 Y38.996 E4.78824
G1 X149.379 Y46.728 E5.50332
G1 X152.140 Y52.776 E6.11832
G1 X151.709 Y52.998 E6.16317
G1 X151.215 Y52.143 E6.25457
G1 X150.496 Y51.029 E6.37714
G1 X149.721 Y49.951 E6.50002
G1 X148.893 Y48.912 E6.62287
G1 X148.016 Y47.918 E6.74546
G1 X147.088 Y46.967 E6.86836
G1 X146.115 Y46.064 E6.99116
G1 X145.099 Y45.212 E7.11378
G1 X144.040 Y44.410 E7.23670
G1 X142.943 Y43.662 E7.35944
G1 X141.812 Y42.970 E7.48210
G1 X140.738 Y42.386 E7.59519
G1 X139.449 Y41.759 E7.72770
G1 X138.227 Y41.244 E7.85043
G1 X136.978 Y40.789 E7.97335
G1 X135.711 Y40.398 E8.09598
G1 X134.424 Y40.071 E8.21876
G1 X133.122 Y39.808 E8.34167
G1 X131.811 Y39.610 E8.46427
G1 X130.564 Y39.485 E8.58019
G1 X150.014 Y38.361 F4200.000
G1 X150.014 Y46.589 E9.34127 F720.000
G1 X154.014 Y55.350 E10.23204
G1 X154.014 Y59.172 E10.58554
G1 X153.575 Y59.233 E10.62653
G1 X153.332 Y58.366 E10.70979
G1 X152.919 Y57.138 E10.82966
G1 X152.445 Y55.930 E10.94963
G1 X151.913 Y54.751 E11.06929
G1 X151.321 Y53.597 E11.18920
G1 X150.673 Y52.474 E11.30915
G1 X149.971 Y51.388 E11.42879
G1 X149.214 Y50.335 E11.54875
G1 X148.406 Y49.321 E11.66865
G1 X147.550 Y48.351 E11.78831
G1 X146.644 Y47.422 E11.90829
G1 X145.694 Y46.541 E12.02815
G1 X144.703 Y45.709 E12.14783
G1 X143.668 Y44.926 E12.26783
G1 X142.598 Y44.196 E12.38763
G1 X141.494 Y43.521 E12.50737
G1 X140.354 Y42.901 E12.62736
G1 X139.188 Y42.339 E12.74710
G1 X137.994 Y41.836 E12.86690
G1 X136.775 Y41.392 E12.98689
G1 X135.625 Y41.037 E13.09818
G1 X134.283 Y40.691 E13.22643
G1 X133.011 Y40.434 E13.34641
G1 X131.732 Y40.241 E13.46607
G1 X130.442 Y40.112 E13.58597
G1 X129.237 Y40.052 E13.69754
G1 X127.853 Y40.047 E13.82556
G1 X126.558 Y40.112 E13.94550
G1 X125.358 Y40.232 E14.05703
G1 X123.989 Y40.434 E14.18507
G1 X122.717 Y40.691 E14.30504
G1 X121.549 Y40.988 E14.41652
G1 X120.225 Y41.392 E14.54458
G1 X119.006 Y41.836 E14.66457
G1 X117.896 Y42.304 E14.77599
G1 X116.646 Y42.901 E14.90410
G1 X115.506 Y43.521 E15.02410
G1 X114.402 Y44.196 E15.14385
G1 X113.332 Y44.926 E15.26363
G1 X112.297 Y45.709 E15.38363
G1 X111.306 Y46.541 E15.50333
G1 X110.356 Y47.422 E15.62317
G1 X109.450 Y48.351 E15.74316
G1 X108.594 Y49.321 E15.86282
G1 X107.786 Y50.335 E15.98271
G1 X107.029 Y51.388 E16.10268
G1 X106.327 Y52.474 E16.22233
G1 X105.679 Y53.597 E16.34226
G1 X105.087 Y54.751 E16.46219
G1 X104.555 Y55.930 E16.58184
G1 X104.081 Y57.138 E16.70180
G1 X103.668 Y58.366 E16.82169
G1 X103.425 Y59.233 E16.90494
G1 X102.986 Y59.172 E16.94593
G1 X102.986 Y55.350 E17.29943
G1 X106.986 Y46.589 E18.19020
G1 X106.986 Y38.361 E18.95128
G1 X149.954 Y38.361 E22.92550
G1 F2400.000 E19.92550
G92 E0
G1 X133.150 Y91.875 F4200.000
G1 E3.00000 F2400.000
G1 X133.150 Y94.275 E3.22198 F360.000
G1 X123.850 Y94.275 E4.08214
G1 X123.850 Y91.875 E4.30412
G1 X102.350 Y91.875 E6.29268
G1 X102.350 Y55.212 E9.68367
G1 X106.350 Y46.451 E10.57444
G1 X106.350 Y37.725 E11.38153
G1 X150.650 Y37.725 E15.47887
G1 X150.650 Y46.451 E16.28596
G1 X154.650 Y55.212 E17.17673
G1 X154.650 Y91.875 E20.56772
G1 X133.210 Y91.875 E22.55073
G1 X132.750 Y91.875 F4200.000
G1 X141.145 Y90.115 F4200.000
G1 X141.193 Y90.163 E22.55697 F1260.000
G1 X141.639 Y89.675 E22.61811
G1 X142.127 Y90.163 E22.68190
G1 X143.061 Y90.163 E22.76829
G1 X142.235 Y89.337 E22.87629
G1 X142.815 Y88.983 E22.93914
G1 X143.995 Y90.163 E23.09347
G1 X144.929 Y90.163 E23.17987
G1 X143.386 Y88.620 E23.38171
G1 X143.941 Y88.241 E23.44388
G1 X145.863 Y90.163 E23.69526
G1 X146.797 Y90.163 E23.78166
G1 X144.488 Y87.854 E24.08370
G1 X145.019 Y87.451 E24.14537
G1 X147.731 Y90.163 E24.50007
G1 X148.665 Y90.163 E24.58646
G1 X145.543 Y87.041 E24.99484
G1 X146.051 Y86.615 E25.05617
G1 X149.599 Y90.163 E25.52029
G1 X150.533 Y90.163 E25.60668
G1 X146.552 Y86.181 E26.12746
G1 X147.036 Y85.732 E26.18860
G1 X151.467 Y90.163 E26.76819
G1 X152.402 Y90.163 E26.85458
G1 X147.515 Y85.276 E27.49377
G1 X147.976 Y84.803 E27.55487
G1 X152.938 Y89.765 E28.20389
G1 X152.938 Y88.831 E28.29028
G1 X148.432 Y84.326 E28.87962
G1 X148.870 Y83.829 E28.94083
G1 X152.938 Y87.897 E29.47289
G1 X152.938 Y86.963 E29.55928
G1 X149.304 Y83.329 E30.03460
G1 X149.718 Y82.809 E30.09608
G1 X152.938 Y86.029 E30.51721
G1 X152.938 Y85.095 E30.60360
G1 X150.129 Y82.286 E30.97098
G1 X150.520 Y81.743 E31.03288
G1 X152.938 Y84.161 E31.34915
G1 X152.938 Y83.227 E31.43554
G1 X150.908 Y81.196 E31.70111
G1 X151.274 Y80.629 E31.76360
G1 X152.938 Y82.293 E31.98122
G1 X152.938 Y81.359 E32.06762
G1 X151.637 Y80.058 E32.23773
G1 X151.979 Y79.466 E32.30097
G1 X152.938 Y80.425 E32.42637
G1 X152.938 Y79.490 E32.51276
G1 X152.891 Y79.443 E32.51892
G1 X152.632 Y78.927 F4200.000
G1 X152.927 Y77.704 E32.58497 F360.000
G1 X154.015 Y70.919 F4200.000
G1 X154.105 Y69.890 E32.63919 F360.000
G1 X154.168 Y68.882 E32.69219
G1 X154.168 Y63.168 F4200.000
G1 X154.105 Y62.160 E32.74519 F360.000
G1 X154.015 Y61.131 E32.79942
G1 X153.412 Y56.744 F4200.000
G1 X153.180 Y55.532 E32.97447 F360.000
G1 X152.656 Y54.379 E33.15414
G1 X152.071 Y53.170 E33.34468
G1 X150.363 Y50.029 F4200.000
G1 X149.685 Y48.903 E33.41370 F360.000
G1 X149.620 Y48.406 F4200.000
G1 X140.651 Y39.437 E34.58688 F1260.000
G1 X139.735 Y39.437 E34.67163
G1 X144.513 Y44.215 E35.29666
G1 X141.896 Y42.515 F4200.000
G1 X138.819 Y39.437 E35.69924 F1260.000
G1 X137.902 Y39.437 E35.78399
G1 X140.004 Y41.539 E36.05892
G1 X138.380 Y40.831 F4200.000
G1 X136.986 Y39.437 E36.24119 F1260.000
G1 X136.953 Y40.321 E36.32296
G1 X136.070 Y39.437 E36.43852
G1 X135.597 Y39.881 E36.49848
G1 X135.643 Y39.926 E36.50444
G1 X148.898 Y39.437 F4200.000
G1 X148.938 Y39.477 E36.50967 F1260.000
G1 X148.938 Y40.393 E36.59442
G1 X147.982 Y39.437 E36.71951
G1 X147.065 Y39.437 E36.80426
G1 X148.938 Y41.310 E37.04920
G1 X148.938 Y42.226 E37.13395
