; generated by Slic3r 1.1.7 on 2015-04-25 at 16:40:42

; perimeters extrusion width = 0.40mm
; infill extrusion width = 0.67mm
; solid infill extrusion width = 0.67mm
; top infill extrusion width = 0.67mm
; support material extrusion width = 0.40mm

G21 ; set units to millimeters
M107
M190 S60 ; wait for bed temperature to be reached
M104 S210 ; set temperature
G28 ; home all axes
G1 Z5 F5000 ; lift nozzle
M109 S210 ; wait for temperature to be reached
G90 ; use absolute coordinates
G92 E0
M82 ; use absolute distances for extrusion
G1 F2400.000 E-3.00000
G92 E0
G1 Z-4.350 F4200.000
G1 X22.106 Y57.223 F4200.000
G1 E3.00000 F2400.000
G1 X24.500 Y56.689 E3.22690 F1080.000
G1 X175.500 Y56.689 E17.19303
G1 X177.576 Y57.086 E17.38855
G1 X179.361 Y58.219 E17.58406 F1080.000
G1 X180.602 Y59.931 E17.77958
G1 X181.136 Y62.325 E18.00647
G1 X181.136 Y132.000 E24.45078
G1 X180.739 Y134.076 E24.64630
G1 X179.606 Y135.861 E24.84181
G1 X177.894 Y137.102 E25.03733
G1 X175.500 Y137.636 E25.26422
G1 X24.500 Y137.636 E39.23036
G1 X22.424 Y137.239 E39.42587
G1 X20.639 Y136.106 E39.62139
G1 X19.398 Y134.394 E39.81690
G1 X18.864 Y132.000 E40.04380
G1 X18.864 Y62.325 E46.48811
G1 X19.261 Y60.249 E46.68362
G1 X20.394 Y58.464 E46.87914
G1 X22.057 Y57.259 E47.06910
G1 F2400.000 E44.06910
G92 E0
G1 X167.350 Y121.360 F4200.000
G1 E3.00000 F2400.000
G1 X173.850 Y121.360 E3.60119 F360.000
G1 X173.850 Y125.454 E3.97986
G1 X167.350 Y125.454 E4.58105
G1 X167.350 Y121.420 E4.95417
G1 X167.350 Y120.960 F4200.000
G1 F2400.000 E1.95417
G92 E0
G1 X46.719 Y90.210 F4200.000
G1 E3.00000 F2400.000
G1 X46.338 Y90.210 E3.03527 F720.000
G1 X48.215 Y87.220 E3.36177
G1 X48.575 Y86.700 E3.42026
G1 X48.959 Y86.196 E3.47894
G1 X49.366 Y85.709 E3.53765
G1 X49.794 Y85.240 E3.59628
G1 X50.240 Y84.794 E3.65472
G1 X50.709 Y84.366 E3.71335
G1 X51.196 Y83.959 E3.77207
G1 X51.700 Y83.575 E3.83074
G1 X52.220 Y83.215 E3.88923
G1 X52.756 Y82.878 E3.94778
G1 X53.308 Y82.565 E4.00648
G1 X53.874 Y82.277 E4.06518
G1 X54.450 Y82.015 E4.12376
G1 X55.037 Y81.779 E4.18223
G1 X55.636 Y81.570 E4.24089
G1 X56.244 Y81.387 E4.29960
G1 X56.859 Y81.232 E4.35825
G1 X57.477 Y81.106 E4.41665
G1 X58.100 Y81.007 E4.47499
G1 X58.728 Y80.936 E4.53343
G1 X59.360 Y80.893 E4.59205
G1 X59.981 Y80.879 E4.64945
G1 X140.019 Y80.879 E12.05227
G1 X140.640 Y80.893 E12.10967
G1 X141.272 Y80.936 E12.16830
G1 X141.900 Y81.007 E12.22673
G1 X142.523 Y81.106 E12.28508
G1 X143.141 Y81.232 E12.34348
G1 X143.756 Y81.387 E12.40212
G1 X144.364 Y81.570 E12.46083
G1 X144.963 Y81.779 E12.51949
G1 X145.550 Y82.015 E12.57796
G1 X146.126 Y82.277 E12.63655
G1 X146.692 Y82.565 E12.69525
G1 X147.244 Y82.878 E12.75394
G1 X147.780 Y83.215 E12.81250
G1 X148.300 Y83.575 E12.87098
G1 X148.804 Y83.959 E12.92966
G1 X149.292 Y84.366 E12.98837
G1 X149.760 Y84.794 E13.04700
G1 X150.206 Y85.240 E13.10545
G1 X150.634 Y85.709 E13.16408
G1 X151.041 Y86.196 E13.22279
G1 X151.425 Y86.700 E13.28146
G1 X151.785 Y87.220 E13.33995
G1 X152.122 Y87.756 E13.39850
G1 X152.435 Y88.308 E13.45720
G1 X152.723 Y88.874 E13.51590
G1 X152.985 Y89.450 E13.57448
G1 X153.221 Y90.037 E13.63295
G1 X153.430 Y90.636 E13.69161
G1 X153.613 Y91.244 E13.75032
G1 X153.768 Y91.859 E13.80897
G1 X153.895 Y92.478 E13.86742
G1 X153.993 Y93.104 E13.92604
G1 X154.064 Y93.734 E13.98474
G1 X154.107 Y94.367 E14.04343
G1 X154.122 Y95.000 E14.10195
G1 X154.107 Y95.633 E14.16047
G1 X154.064 Y96.266 E14.21915
G1 X153.993 Y96.896 E14.27786
G1 X153.895 Y97.522 E14.33647
G1 X153.768 Y98.141 E14.39492
G1 X153.576 Y98.876 E14.46518
G1 X153.430 Y99.364 E14.51227
G1 X153.221 Y99.963 E14.57094
G1 X152.985 Y100.550 E14.62940
G1 X152.723 Y101.126 E14.68799
G1 X152.435 Y101.692 E14.74669
G1 X152.122 Y102.244 E14.80538
G1 X151.785 Y102.780 E14.86393
G1 X151.425 Y103.300 E14.92242
G1 X151.041 Y103.804 E14.98110
G1 X150.634 Y104.291 E15.03981
G1 X150.118 Y104.848 E15.11004
G1 X149.760 Y105.206 E15.15688
G1 X149.291 Y105.634 E15.21551
G1 X148.804 Y106.041 E15.27422
G1 X148.300 Y106.425 E15.33289
G1 X147.780 Y106.785 E15.39138
G1 X147.244 Y107.122 E15.44994
G1 X146.692 Y107.435 E15.50863
G1 X146.126 Y107.723 E15.56733
G1 X145.550 Y107.985 E15.62592
G1 X144.963 Y108.221 E15.68438
G1 X144.364 Y108.430 E15.74304
G1 X143.756 Y108.613 E15.80176
G1 X143.141 Y108.768 E15.86040
G1 X142.523 Y108.894 E15.91880
G1 X141.900 Y108.993 E15.97714
G1 X141.272 Y109.064 E16.03558
G1 X140.640 Y109.107 E16.09421
G1 X140.019 Y109.121 E16.15161
G1 X59.981 Y109.121 E23.55442
G1 X59.360 Y109.107 E23.61183
G1 X58.728 Y109.064 E23.67045
G1 X58.100 Y108.993 E23.72888
G1 X57.477 Y108.894 E23.78723
G1 X56.870 Y108.770 E23.84455
G1 X56.870 Y108.861 E23.85299
G1 X55.037 Y108.221 E24.03257
G1 X54.450 Y107.985 E24.09104
G1 X53.874 Y107.723 E24.14962
G1 X53.308 Y107.435 E24.20832
G1 X52.756 Y107.122 E24.26702
G1 X52.220 Y106.785 E24.32557
G1 X51.700 Y106.425 E24.38406
G1 X51.196 Y106.041 E24.44274
G1 X50.709 Y105.634 E24.50144
G1 X50.240 Y105.206 E24.56008
G1 X49.794 Y104.760 E24.61852
G1 X49.366 Y104.291 E24.67715
G1 X48.959 Y103.804 E24.73586
G1 X48.575 Y103.300 E24.79454
G1 X48.215 Y102.780 E24.85303
G1 X47.878 Y102.244 E24.91158
G1 X47.565 Y101.692 E24.97028
G1 X47.277 Y101.126 E25.02898
G1 X47.015 Y100.550 E25.08756
G1 X46.779 Y99.963 E25.14603
G1 X46.570 Y99.364 E25.20469
G1 X46.387 Y98.756 E25.26340
G1 X46.232 Y98.141 E25.32205
G1 X46.105 Y97.522 E25.38050
G1 X46.007 Y96.896 E25.43911
G1 X45.936 Y96.266 E25.49782
G1 X45.893 Y95.633 E25.55650
G1 X45.878 Y95.000 E25.61503
G1 X45.893 Y94.367 E25.67354
G1 X45.936 Y93.734 E25.73223
G1 X46.007 Y93.104 E25.79094
G1 X46.105 Y92.478 E25.84955
G1 X46.232 Y91.859 E25.90800
G1 X46.387 Y91.244 E25.96665
G1 X46.699 Y90.267 E26.06152
G1 X47.319 Y90.420 F4200.000
G1 X47.650 Y89.574 E26.14548 F720.000
G1 X47.487 Y89.574 E26.16051
G1 X48.745 Y87.570 E26.37935
G1 X49.089 Y87.074 E26.43518
G1 X49.456 Y86.592 E26.49122
G1 X49.845 Y86.127 E26.54732
G1 X50.253 Y85.680 E26.60331
G1 X50.680 Y85.253 E26.65909
G1 X51.127 Y84.845 E26.71508
G1 X51.592 Y84.456 E26.77117
G1 X52.074 Y84.089 E26.82722
G1 X52.570 Y83.745 E26.88305
G1 X53.082 Y83.424 E26.93895
G1 X53.610 Y83.125 E26.99502
G1 X54.150 Y82.849 E27.05110
G1 X54.700 Y82.599 E27.10704
G1 X55.260 Y82.375 E27.16284
G1 X55.832 Y82.175 E27.21887
G1 X56.413 Y82.000 E27.27497
G1 X57.000 Y81.852 E27.33097
G1 X57.591 Y81.731 E27.38672
G1 X58.185 Y81.637 E27.44242
G1 X58.785 Y81.569 E27.49823
G1 X59.389 Y81.529 E27.55425
G1 X59.988 Y81.514 E27.60967
G1 X140.012 Y81.514 E35.01109 F720.000
G1 X140.611 Y81.529 E35.06651
G1 X141.215 Y81.569 E35.12253
G1 X141.815 Y81.637 E35.17834
G1 X142.409 Y81.731 E35.23404
G1 X143.000 Y81.852 E35.28978
G1 X143.587 Y82.000 E35.34579
G1 X144.168 Y82.175 E35.40189
G1 X144.740 Y82.375 E35.45792
G1 X145.300 Y82.599 E35.51372
G1 X145.850 Y82.849 E35.56966
G1 X146.390 Y83.125 E35.62574
G1 X146.918 Y83.424 E35.68181
G1 X147.430 Y83.745 E35.73771
G1 X147.926 Y84.089 E35.79354
G1 X148.408 Y84.456 E35.84959
G1 X148.873 Y84.845 E35.90568
G1 X149.320 Y85.253 E35.96167
G1 X149.747 Y85.680 E36.01745
G1 X150.155 Y86.127 E36.07344
G1 X150.544 Y86.592 E36.12954
G1 X150.911 Y87.074 E36.18558
G1 X151.255 Y87.570 E36.24141
G1 X151.576 Y88.082 E36.29731
G1 X151.875 Y88.610 E36.35338
G1 X152.151 Y89.150 E36.40947
G1 X152.401 Y89.700 E36.46540
G1 X152.625 Y90.260 E36.52120
G1 X152.825 Y90.832 E36.57723
G1 X153.000 Y91.413 E36.63333
G1 X153.148 Y92.000 E36.68934
G1 X153.269 Y92.591 E36.74513
G1 X153.363 Y93.189 E36.80109
G1 X153.431 Y93.791 E36.85718
G1 X153.472 Y94.396 E36.91324
G1 X153.486 Y95.000 E36.96910
G1 X153.472 Y95.604 E37.02497
G1 X153.431 Y96.209 E37.08103
G1 X153.363 Y96.811 E37.13712
G1 X153.269 Y97.409 E37.19308
G1 X153.148 Y98.000 E37.24887
G1 X153.000 Y98.587 E37.30488
G1 X152.825 Y99.168 E37.36098
G1 X152.625 Y99.740 E37.41701
G1 X152.401 Y100.300 E37.47281
G1 X152.151 Y100.850 E37.52875
G1 X151.875 Y101.390 E37.58483
G1 X151.576 Y101.918 E37.64090
G1 X151.255 Y102.430 E37.69680
G1 X150.911 Y102.926 E37.75263
G1 X150.544 Y103.408 E37.80867
G1 X150.155 Y103.873 E37.86477
G1 X149.747 Y104.320 E37.92076
G1 X149.320 Y104.747 E37.97654
G1 X148.873 Y105.155 E38.03253
G1 X148.408 Y105.544 E38.08862
G1 X147.926 Y105.911 E38.14467
G1 X147.430 Y106.255 E38.20050
G1 X146.918 Y106.576 E38.25640
G1 X146.390 Y106.875 E38.31247
G1 X145.850 Y107.151 E38.36855
G1 X145.300 Y107.401 E38.42449
G1 X144.740 Y107.625 E38.48029
G1 X144.168 Y107.825 E38.53632
G1 X143.587 Y108.000 E38.59242
G1 X143.000 Y108.148 E38.64842
G1 X142.409 Y108.269 E38.70417
G1 X141.815 Y108.363 E38.75987
G1 X141.215 Y108.431 E38.81568
G1 X140.611 Y108.471 E38.87170
G1 X140.012 Y108.486 E38.92712
G1 X59.988 Y108.486 E46.32854
G1 X59.389 Y108.471 E46.38396
G1 X58.785 Y108.431 E46.43998
G1 X58.185 Y108.363 E46.49579
G1 X57.591 Y108.269 E46.55149
G1 X56.234 Y107.966 E46.68003
G1 X55.260 Y107.625 E46.77546
G1 X54.700 Y107.401 E46.83126
G1 X54.150 Y107.151 E46.88720
G1 X53.610 Y106.875 E46.94328
G1 X53.082 Y106.576 E46.99935
G1 X52.570 Y106.255 E47.05525
G1 X52.074 Y105.911 E47.11108
G1 X51.592 Y105.544 E47.16713
G1 X51.127 Y105.155 E47.22322
G1 X50.680 Y104.747 E47.27921
G1 X50.253 Y104.320 E47.33499
G1 X49.845 Y103.873 E47.39098
G1 X49.456 Y103.408 E47.44708
G1 X49.089 Y102.926 E47.50312
G1 X48.745 Y102.430 E47.55895
G1 X48.424 Y101.918 E47.61485
G1 X48.125 Y101.390 E47.67093
G1 X47.849 Y100.850 E47.72701
G1 X47.599 Y100.300 E47.78294
G1 X47.375 Y99.740 E47.83875
G1 X47.175 Y99.168 E47.89477
G1 X47.000 Y98.587 E47.95087
G1 X46.852 Y98.000 E48.00688
G1 X46.731 Y97.409 E48.06267
G1 X46.637 Y96.811 E48.11863
G1 X46.569 Y96.209 E48.17472
G1 X46.528 Y95.604 E48.23078
G1 X46.514 Y95.000 E48.28665
G1 X46.528 Y94.396 E48.34251
G1 X46.569 Y93.791 E48.39857
G1 X46.637 Y93.189 E48.45466
G1 X46.731 Y92.591 E48.51062
G1 X46.852 Y92.000 E48.56641
G1 X47.000 Y91.413 E48.62242
G1 X47.299 Y90.476 E48.71338
G1 X47.919 Y90.629 F4200.000
G1 X48.184 Y89.950 E48.78079 F360.000
G1 X48.422 Y89.426 E48.83407
G1 X48.671 Y88.939 E48.88465
G1 X48.637 Y88.939 E48.88778
G1 X49.276 Y87.921 E48.99895
G1 X49.603 Y87.448 E49.05212
G1 X49.953 Y86.989 E49.10554
G1 X50.324 Y86.545 E49.15902
G1 X50.713 Y86.119 E49.21236
G1 X51.119 Y85.713 E49.26548
G1 X51.545 Y85.324 E49.31883
G1 X51.989 Y84.953 E49.37231
G1 X52.448 Y84.603 E49.42573
G1 X52.921 Y84.276 E49.47890
G1 X53.408 Y83.970 E49.53214
G1 X53.911 Y83.685 E49.58559
G1 X54.426 Y83.422 E49.63906
G1 X54.950 Y83.184 E49.69234
G1 X55.484 Y82.970 E49.74548
G1 X56.029 Y82.779 E49.79888
G1 X56.582 Y82.613 E49.85236
G1 X57.142 Y82.472 E49.90573
G1 X57.704 Y82.357 E49.95882
G1 X58.271 Y82.267 E50.01187
G1 X58.842 Y82.203 E50.06506
G1 X59.418 Y82.164 E50.11848
G1 X59.996 Y82.150 E50.17190
G1 X140.098 Y82.152 E57.58065
G1 X141.158 Y82.203 E57.67876 F360.000
G1 X141.729 Y82.267 E57.73195
G1 X142.296 Y82.357 E57.78500
G1 X142.858 Y82.472 E57.83809
G1 X143.418 Y82.613 E57.89147
G1 X143.971 Y82.779 E57.94495
G1 X144.516 Y82.970 E57.99834
G1 X145.050 Y83.184 E58.05149
G1 X145.574 Y83.422 E58.10477
G1 X146.089 Y83.685 E58.15823
G1 X146.592 Y83.970 E58.21168
G1 X147.079 Y84.276 E58.26493
G1 X147.552 Y84.603 E58.31810
G1 X148.011 Y84.953 E58.37152
G1 X148.455 Y85.324 E58.42499
G1 X148.881 Y85.713 E58.47834
G1 X149.287 Y86.119 E58.53146
G1 X149.676 Y86.545 E58.58481
G1 X150.047 Y86.989 E58.63828
G1 X150.397 Y87.448 E58.69170
G1 X150.724 Y87.921 E58.74487
G1 X151.030 Y88.408 E58.79812
G1 X151.315 Y88.911 E58.85157
G1 X151.578 Y89.426 E58.90503
G1 X151.816 Y89.950 E58.95831
G1 X152.030 Y90.484 E59.01146
G1 X152.221 Y91.029 E59.06485
G1 X152.387 Y91.582 E59.11833
G1 X152.528 Y92.142 E59.17171
G1 X152.643 Y92.705 E59.22483
G1 X152.733 Y93.274 E59.27815
G1 X152.798 Y93.848 E59.33162
G1 X152.837 Y94.425 E59.38506
G1 X152.850 Y95.000 E59.43826
G1 X152.837 Y95.575 E59.49147
G1 X152.798 Y96.152 E59.54491
G1 X152.733 Y96.726 E59.59838
G1 X152.643 Y97.295 E59.65169
G1 X152.528 Y97.858 E59.70482
G1 X152.387 Y98.418 E59.75819
G1 X152.221 Y98.971 E59.81167
G1 X152.030 Y99.516 E59.86507
G1 X151.816 Y100.050 E59.91821
G1 X151.578 Y100.574 E59.97150
G1 X151.315 Y101.089 E60.02496
G1 X151.030 Y101.592 E60.07841
G1 X150.724 Y102.079 E60.13166
G1 X150.397 Y102.552 E60.18482
G1 X150.047 Y103.011 E60.23824
G1 X149.676 Y103.455 E60.29172
G1 X149.287 Y103.881 E60.34507
G1 X148.881 Y104.287 E60.39819
G1 X148.455 Y104.676 E60.45153
G1 X148.011 Y105.047 E60.50501
G1 X147.552 Y105.397 E60.55843
G1 X147.079 Y105.724 E60.61160
G1 X146.592 Y106.030 E60.66485
G1 X146.089 Y106.315 E60.71830
G1 X145.574 Y106.578 E60.77176
G1 X145.050 Y106.816 E60.82504
G1 X144.516 Y107.030 E60.87818
G1 X143.971 Y107.221 E60.93158
G1 X143.418 Y107.387 E60.98506
G1 X142.858 Y107.528 E61.03843
G1 X142.296 Y107.643 E61.09153
G1 X141.729 Y107.733 E61.14458
G1 X141.158 Y107.797 E61.19776
G1 X140.582 Y107.836 E61.25118
G1 X140.004 Y107.850 E61.30461
G1 X59.996 Y107.850 E68.70465
G1 X59.418 Y107.836 E68.75808
G1 X58.842 Y107.797 E68.81149
G1 X58.271 Y107.733 E68.86468
G1 X57.704 Y107.643 E68.91773
G1 X57.142 Y107.528 E68.97082
G1 X56.582 Y107.387 E69.02419
G1 X56.029 Y107.221 E69.07768
G1 X55.484 Y107.030 E69.13107
G1 X54.950 Y106.816 E69.18421
G1 X54.426 Y106.578 E69.23750
G1 X53.911 Y106.315 E69.29096
G1 X53.408 Y106.030 E69.34441
G1 X52.921 Y105.724 E69.39766
G1 X52.448 Y105.397 E69.45083
G1 X51.989 Y105.047 E69.50424
G1 X51.545 Y104.676 E69.55772
G1 X51.119 Y104.287 E69.61107
G1 X50.713 Y103.881 E69.66419
G1 X50.324 Y103.455 E69.71754
G1 X49.953 Y103.011 E69.77101
G1 X49.603 Y102.552 E69.82443
G1 X49.276 Y102.079 E69.87760
G1 X48.970 Y101.592 E69.93085
G1 X48.685 Y101.089 E69.98430
G1 X48.422 Y100.574 E70.03776
G1 X48.184 Y100.050 E70.09104
G1 X47.970 Y99.516 E70.14419
G1 X47.779 Y98.971 E70.19758
G1 X47.613 Y98.418 E70.25106
G1 X47.472 Y97.858 E70.30444
G1 X47.357 Y97.295 E70.35756
G1 X47.267 Y96.726 E70.41088
G1 X47.202 Y96.152 E70.46435
G1 X47.163 Y95.575 E70.51779
G1 X47.150 Y95.000 E70.57099
G1 X47.163 Y94.425 E70.62420
G1 X47.202 Y93.848 E70.67763
G1 X47.267 Y93.274 E70.73111
G1 X47.357 Y92.705 E70.78442
G1 X47.472 Y92.142 E70.83755
G1 X47.613 Y91.582 E70.89092
G1 X47.899 Y90.686 E70.97795
G1 F2400.000 E67.97795
G92 E0
G1 X140.298 Y81.805 F4200.000
G1 X32.650 Y121.360 F4200.000
G1 E3.00000 F2400.000
G1 X32.650 Y125.454 E3.37867 F360.000
G1 X26.150 Y125.454 E3.97986
G1 X26.150 Y121.360 E4.35853
G1 X32.590 Y121.360 E4.95417
G1 X33.050 Y121.360 F4200.000
G1 X33.921 Y120.089 F4200.000
G1 X26.121 Y120.089 E5.67560 F720.000
G1 X26.121 Y63.946 E10.86826
G1 X173.879 Y63.946 E24.53449
G1 X173.879 Y120.089 E29.72715
G1 X166.079 Y120.089 E30.44858
G1 X166.079 Y126.725 E31.06240
G1 X173.879 Y126.725 E31.78383
G1 X173.879 Y130.379 E32.12176
G1 X26.121 Y130.379 E45.78799
G1 X26.121 Y126.725 E46.12591
G1 X33.921 Y126.725 E46.84734
G1 X33.921 Y120.149 E47.45562
G1 X33.286 Y120.724 F4200.000
G1 X25.486 Y120.724 E48.17705 F720.000
G1 X25.486 Y63.311 E53.48729
G1 X174.514 Y63.311 E67.27110
G1 X174.514 Y120.724 E72.58133
G1 X166.714 Y120.724 E73.30276
G1 X166.714 Y126.090 E73.79901
G1 X174.514 Y126.090 E74.52044
G1 X174.514 Y131.014 E74.97594
G1 X25.486 Y131.014 E88.75975
G1 X25.486 Y126.090 E89.21525
G1 X33.286 Y126.090 E89.93668
G1 X33.286 Y120.784 E90.42738
G1 F2400.000 E87.42738
G92 E0
G1 X24.850 Y131.650 F4200.000
G1 E3.00000 F2400.000
G1 X24.850 Y62.675 E9.37956 F360.000
G1 X175.150 Y62.675 E23.28095
G1 X175.150 Y131.650 E29.66052
G1 X24.910 Y131.650 E43.55636
G1 X25.050 Y131.304 F4200.000
G1 X26.602 Y129.938 F4200.000
G1 X26.562 Y129.898 E43.56159 F1260.000
G1 X26.562 Y128.998 E43.64481
