; generated by Slic3r 1.1.7 on 2015-04-26 at 00:40:03

; perimeters extrusion width = 0.40mm
; infill extrusion width = 0.67mm
; solid infill extrusion width = 0.67mm
; top infill extrusion width = 0.67mm
; support material extrusion width = 0.40mm

G21 ; set units to millimeters
M107
M190 S60 ; wait for bed temperature to be reached
M104 S210 ; set temperature
G28 ; home all axes
G1 Z5 F5000 ; lift nozzle
M109 S210 ; wait for temperature to be reached
G90 ; use absolute coordinates
G92 E0
M82 ; use absolute distances for extrusion
G1 F2400.000 E-3.00000
G92 E0
G1 Z-4.350 F4200.000
G1 X27.396 Y47.513 F4200.000
G1 E3.00000 F2400.000
G1 X29.006 Y46.699 E3.16683 F1080.000
G1 X30.674 Y46.031 E3.33302
G1 X32.398 Y45.510 E3.49957
G1 X34.158 Y45.141 E3.66594
G1 X35.698 Y44.944 E3.80949
G1 X94.053 Y39.880 E9.22707
G1 X94.500 Y39.865 E9.26847
G1 X103.770 Y39.871 E10.12582
G1 X164.549 Y44.971 E15.76716 F1080.000
G1 X166.328 Y45.227 E15.93338
G1 X167.558 Y45.500 E16.04987
G1 X168.075 Y45.637 E16.09934
G1 X169.789 Y46.199 E16.26616
G1 X170.952 Y46.681 E16.38265
G1 X171.440 Y46.907 E16.43238
G1 X172.563 Y47.491 E16.54947
G1 X173.028 Y47.757 E16.59900
G1 X174.091 Y48.434 E16.71555
G1 X174.534 Y48.742 E16.76551
G1 X175.948 Y49.854 E16.93182
G1 X176.879 Y50.707 E17.04861
G1 X177.263 Y51.088 E17.09866
G1 X178.116 Y52.019 E17.21545
G1 X178.460 Y52.426 E17.26477
G1 X179.542 Y53.871 E17.43170
G1 X180.219 Y54.934 E17.54825
G1 X180.488 Y55.397 E17.59774
G1 X181.073 Y56.520 E17.71486
G1 X181.302 Y57.006 E17.76459
G1 X181.784 Y58.170 E17.88113
G1 X181.970 Y58.674 E17.93083
G1 X182.490 Y60.398 E18.09736
G1 X182.859 Y62.159 E18.26374
G1 X183.072 Y63.936 E18.42932
G1 X183.136 Y65.500 E18.57411
G1 X183.130 Y126.750 E24.23916
G1 X183.033 Y128.462 E24.39776
G1 X182.880 Y129.626 E24.50634
G1 X182.789 Y130.155 E24.55597
G1 X182.534 Y131.303 E24.66479
G1 X182.398 Y131.817 E24.71387
G1 X181.862 Y133.447 E24.87262
G1 X181.411 Y134.534 E24.98140
G1 X181.187 Y135.018 E25.03080
G1 X180.642 Y136.066 E25.14008
G1 X180.377 Y136.528 E25.18931
G1 X179.745 Y137.521 E25.29814
G1 X179.439 Y137.961 E25.34778
G1 X178.380 Y139.305 E25.50601
G1 X177.205 Y140.556 E25.66475
G1 X176.336 Y141.352 E25.77375
G1 X175.931 Y141.694 E25.82279
G1 X174.556 Y142.723 E25.98165
G1 X173.104 Y143.622 E26.13962
G1 X171.572 Y144.396 E26.29836
G1 X169.984 Y145.030 E26.45650
G1 X168.344 Y145.525 E26.61496
G1 X166.668 Y145.875 E26.77328
G1 X164.977 Y146.076 E26.93083
G1 X163.501 Y146.136 E27.06746
G1 X36.250 Y146.131 E38.83695
G1 X35.066 Y146.078 E38.94657
G1 X34.538 Y146.033 E38.99559
G1 X32.846 Y145.789 E39.15377
G1 X31.184 Y145.398 E39.31165
G1 X29.554 Y144.862 E39.47039
G1 X28.468 Y144.412 E39.57909
G1 X27.982 Y144.188 E39.62856
G1 X26.934 Y143.642 E39.73786
G1 X26.472 Y143.378 E39.78708
G1 X25.480 Y142.746 E39.89589
G1 X25.039 Y142.439 E39.94555
G1 X24.103 Y141.720 E40.05473
G1 X23.695 Y141.381 E40.10380
G1 X22.826 Y140.585 E40.21277
G1 X22.444 Y140.206 E40.26258
G1 X21.306 Y138.932 E40.42059
G1 X20.587 Y137.995 E40.52980
G1 X20.277 Y137.556 E40.57947
G1 X19.378 Y136.104 E40.73744
G1 X18.605 Y134.572 E40.89618
G1 X18.155 Y133.486 E41.00490
G1 X17.970 Y132.984 E41.05435
G1 X17.615 Y131.857 E41.16365
G1 X17.475 Y131.344 E41.21284
G1 X17.126 Y129.668 E41.37117
G1 X16.972 Y128.504 E41.47975
G1 X16.924 Y127.977 E41.52873
G1 X16.864 Y126.500 E41.66541
G1 X16.870 Y65.251 E47.33046
G1 X16.926 Y63.982 E47.44790
G1 X16.971 Y63.451 E47.49721
G1 X17.135 Y62.204 E47.61356
G1 X17.227 Y61.672 E47.66345
G1 X17.636 Y59.926 E47.82938
G1 X18.199 Y58.212 E47.99621
G1 X18.906 Y56.560 E48.16240
G1 X19.491 Y55.437 E48.27948
G1 X19.757 Y54.973 E48.32900
G1 X20.434 Y53.910 E48.44554
G1 X20.742 Y53.466 E48.49552
G1 X21.854 Y52.053 E48.66183
G1 X22.706 Y51.122 E48.77858
G1 X23.088 Y50.737 E48.82867
G1 X24.426 Y49.540 E48.99475
G1 X25.429 Y48.770 E49.11172
G1 X25.871 Y48.459 E49.16171
G1 X27.345 Y47.544 E49.32218
G1 F2400.000 E46.32218
G92 E0
G1 X135.679 Y63.879 F4200.000
G1 E3.00000 F2400.000
G1 X169.121 Y63.879 E6.09313 F720.000
G1 X169.121 Y78.879 E7.48049
G1 X169.296 Y78.879 E7.49668
G1 X169.296 Y112.122 E10.57131
G1 X169.121 Y112.122 E10.58749
G1 X169.121 Y127.322 E11.99335
G1 X135.679 Y127.322 E15.08648
G1 X135.679 Y112.122 E16.49234
G1 X135.504 Y112.122 E16.50853
G1 X135.504 Y78.879 E19.58316
G1 X135.679 Y78.879 E19.59934
G1 X135.679 Y63.939 E20.98116
G1 X136.314 Y64.515 F4200.000
G1 X168.486 Y64.515 E23.95671 F720.000
G1 X168.486 Y79.515 E25.34407
G1 X168.661 Y79.515 E25.36026
G1 X168.661 Y111.486 E28.31731
G1 X168.486 Y111.486 E28.33350
G1 X168.486 Y126.686 E29.73936
G1 X136.314 Y126.686 E32.71491
G1 X136.314 Y111.486 E34.12077
G1 X136.139 Y111.486 E34.13695
G1 X136.139 Y79.515 E37.09400
G1 X136.314 Y79.515 E37.11019
G1 X136.314 Y64.575 E38.49201
G1 X136.950 Y65.150 F4200.000
G1 X167.850 Y65.150 E41.34998 F360.000
G1 X167.850 Y80.150 E42.73734
G1 X168.025 Y80.150 E42.75353
G1 X168.025 Y110.850 E45.59300
G1 X167.850 Y110.850 E45.60919
G1 X167.850 Y126.050 E47.01505
G1 X136.950 Y126.050 E49.87302
G1 X136.950 Y110.850 E51.27888
G1 X136.775 Y110.850 E51.29507
G1 X136.775 Y80.150 E54.13454
G1 X136.950 Y80.150 E54.15072
G1 X136.950 Y65.210 E55.53254
G1 X136.950 Y64.750 F4200.000
G1 X103.879 Y52.122 F4200.000
G1 X162.464 Y52.122 E60.95115 F720.000
G1 X163.673 Y52.175 E61.06303
G1 X164.825 Y52.327 E61.17052
G1 X165.961 Y52.579 E61.27814
G1 X167.077 Y52.931 E61.38640
G1 X168.152 Y53.376 E61.49398
G1 X169.190 Y53.917 E61.60223
G1 X170.172 Y54.542 E61.70989
G1 X171.099 Y55.254 E61.81802
G1 X171.959 Y56.041 E61.92590
G1 X172.747 Y56.902 E62.03378
G1 X173.459 Y57.829 E62.14191
G1 X174.084 Y58.811 E62.24956
G1 X174.624 Y59.849 E62.35782
G1 X175.070 Y60.923 E62.46539
G1 X175.421 Y62.040 E62.57366
G1 X175.674 Y63.176 E62.68128
G1 X175.825 Y64.328 E62.78876
G1 X175.879 Y65.536 E62.90066
G1 X175.879 Y126.464 E68.53595
G1 X175.829 Y127.585 E68.63972
G1 X175.689 Y128.651 E68.73917
G1 X175.456 Y129.702 E68.83873
G1 X175.130 Y130.735 E68.93891
G1 X174.718 Y131.729 E69.03844
G1 X174.218 Y132.690 E69.13861
G1 X173.640 Y133.598 E69.23821
G1 X172.981 Y134.457 E69.33827
G1 X172.252 Y135.252 E69.43808
G1 X171.456 Y135.981 E69.53789
G1 X170.598 Y136.640 E69.63795
G1 X169.690 Y137.218 E69.73755
G1 X168.729 Y137.719 E69.83772
G1 X167.735 Y138.130 E69.93725
G1 X166.702 Y138.456 E70.03742
G1 X165.651 Y138.689 E70.13699
G1 X164.585 Y138.829 E70.23644
G1 X163.464 Y138.879 E70.34021
G1 X36.536 Y138.879 E82.07991
G1 X35.415 Y138.829 E82.18369
G1 X34.349 Y138.689 E82.28314
G1 X33.298 Y138.456 E82.38271
G1 X32.265 Y138.130 E82.48288
G1 X31.271 Y137.719 E82.58241
G1 X30.310 Y137.218 E82.68257
G1 X29.402 Y136.640 E82.78218
G1 X28.544 Y135.981 E82.88223
G1 X27.748 Y135.252 E82.98205
G1 X27.019 Y134.456 E83.08186
G1 X26.360 Y133.599 E83.18190
G1 X25.782 Y132.690 E83.28152
G1 X25.282 Y131.730 E83.38168
G1 X24.870 Y130.735 E83.48121
G1 X24.544 Y129.702 E83.58138
G1 X24.311 Y128.651 E83.68095
G1 X24.171 Y127.585 E83.78040
G1 X24.121 Y126.465 E83.88417
G1 X24.121 Y65.536 E89.51948
G1 X24.175 Y64.328 E89.63136
G1 X24.326 Y63.176 E89.73885
G1 X24.579 Y62.040 E89.84647
G1 X24.930 Y60.923 E89.95472
G1 X25.376 Y59.849 E90.06231
G1 X25.916 Y58.811 E90.17056
G1 X26.541 Y57.829 E90.27822
G1 X27.253 Y56.902 E90.38634
G1 X28.041 Y56.041 E90.49422
G1 X28.901 Y55.254 E90.60211
G1 X29.828 Y54.542 E90.71023
G1 X30.810 Y53.917 E90.81789
G1 X31.848 Y53.376 E90.92615
G1 X32.923 Y52.931 E91.03373
G1 X34.039 Y52.579 E91.14199
G1 X35.175 Y52.327 E91.24960
G1 X36.327 Y52.175 E91.35709
G1 X37.536 Y52.122 E91.46897
G1 X94.121 Y52.122 E96.70260
G1 X94.125 Y47.468 E97.13304
G1 X94.158 Y47.343 E97.14501
G1 X94.234 Y47.234 E97.15727
G1 X94.342 Y47.158 E97.16953
G1 X94.468 Y47.125 E97.18151
G1 X103.461 Y47.122 E98.01335
G1 X103.599 Y47.137 E98.02620
G1 X103.690 Y47.175 E98.03535
G1 X103.791 Y47.260 E98.04749
G1 X103.842 Y47.343 E98.05650
G1 X103.879 Y47.539 E98.07499
G1 X103.879 Y52.062 E98.49328
G1 X104.514 Y51.486 F4200.000
G1 X162.478 Y51.486 E103.85440 F720.000
G1 X163.728 Y51.541 E103.97013
G1 X164.935 Y51.700 E104.08274
G1 X166.125 Y51.964 E104.19549
G1 X167.295 Y52.333 E104.30887
G1 X168.421 Y52.799 E104.42160
G1 X169.508 Y53.366 E104.53497
G1 X170.536 Y54.020 E104.64777
G1 X171.508 Y54.766 E104.76103
G1 X172.409 Y55.591 E104.87404
G1 X173.234 Y56.493 E104.98706
G1 X173.980 Y57.464 E105.10032
G1 X174.635 Y58.493 E105.21312
G1 X175.201 Y59.580 E105.32649
G1 X175.667 Y60.706 E105.43921
G1 X176.036 Y61.875 E105.55261
G1 X176.300 Y63.065 E105.66535
G1 X176.459 Y64.272 E105.77796
G1 X176.514 Y65.522 E105.89370
G1 X176.514 Y126.479 E111.53160
G1 X176.463 Y127.641 E111.63922
G1 X176.315 Y128.762 E111.74379
G1 X176.070 Y129.867 E111.84849
G1 X175.728 Y130.953 E111.95379
G1 X175.295 Y131.998 E112.05846
G1 X174.769 Y133.008 E112.16375
G1 X174.161 Y133.963 E112.26849
G1 X173.468 Y134.865 E112.37369
G1 X172.702 Y135.702 E112.47863
G1 X171.865 Y136.469 E112.58358
G1 X170.963 Y137.161 E112.68876
G1 X170.008 Y137.769 E112.79351
G1 X168.998 Y138.295 E112.89880
G1 X167.952 Y138.728 E113.00347
G1 X166.867 Y139.070 E113.10877
G1 X165.762 Y139.316 E113.21347
G1 X164.641 Y139.463 E113.31804
G1 X163.234 Y139.526 E113.44828
G1 X36.522 Y139.515 E125.16799
G1 X35.359 Y139.463 E125.27561
G1 X34.238 Y139.316 E125.38018
G1 X33.133 Y139.070 E125.48488
G1 X32.048 Y138.728 E125.59018
G1 X31.002 Y138.295 E125.69485
G1 X29.992 Y137.769 E125.80014
G1 X29.037 Y137.161 E125.90489
G1 X28.135 Y136.469 E126.01007
G1 X27.298 Y135.702 E126.11502
G1 X26.532 Y134.865 E126.21997
G1 X25.839 Y133.963 E126.32514
G1 X25.231 Y133.008 E126.42990
G1 X24.705 Y131.998 E126.53518
G1 X24.272 Y130.953 E126.63986
G1 X23.930 Y129.867 E126.74515
G1 X23.685 Y128.762 E126.84985
G1 X23.537 Y127.641 E126.95442
G1 X23.486 Y126.479 E127.06205
G1 X23.486 Y65.522 E132.69995
G1 X23.541 Y64.272 E132.81569
G1 X23.700 Y63.065 E132.92830
G1 X23.964 Y61.875 E133.04105
G1 X24.333 Y60.706 E133.15443
G1 X24.799 Y59.580 E133.26715
G1 X25.365 Y58.493 E133.38053
G1 X26.020 Y57.464 E133.49333
G1 X26.766 Y56.493 E133.60658
G1 X27.591 Y55.591 E133.71960
G1 X28.492 Y54.766 E133.83262
G1 X29.463 Y54.021 E133.94588
G1 X30.492 Y53.366 E134.05867
G1 X31.579 Y52.799 E134.17205
G1 X32.705 Y52.333 E134.28477
G1 X33.875 Y51.964 E134.39816
G1 X35.065 Y51.700 E134.51090
G1 X36.272 Y51.541 E134.62351
G1 X37.522 Y51.486 E134.73925
G1 X93.486 Y51.486 E139.91539
G1 X93.486 Y47.524 E140.28184
G1 X93.503 Y47.321 E140.30069
G1 X93.547 Y47.155 E140.31654
G1 X93.623 Y46.992 E140.33318
G1 X93.723 Y46.851 E140.34918
G1 X93.850 Y46.723 E140.36589
G1 X93.992 Y46.624 E140.38188
G1 X94.155 Y46.548 E140.39853
G1 X94.411 Y46.491 E140.42273
G1 X103.476 Y46.486 E141.26124
G1 X103.679 Y46.503 E141.28009
G1 X103.927 Y46.582 E141.30410
G1 X104.150 Y46.723 E141.32849
G1 X104.330 Y46.919 E141.35307
G1 X104.453 Y47.155 E141.37777
G1 X104.509 Y47.411 E141.40197
G1 X104.514 Y51.426 E141.77332
G1 X105.150 Y50.850 F4200.000
G1 X162.492 Y50.850 E147.07696 F360.000
G1 X163.784 Y50.908 E147.19654
G1 X165.046 Y51.074 E147.31427
G1 X166.290 Y51.350 E147.43216
G1 X167.512 Y51.735 E147.55066
G1 X168.689 Y52.223 E147.66852
G1 X169.826 Y52.815 E147.78703
G1 X170.901 Y53.499 E147.90496
G1 X171.917 Y54.279 E148.02335
G1 X172.859 Y55.142 E148.14151
G1 X173.722 Y56.084 E148.25966
G1 X174.501 Y57.099 E148.37805
G1 X175.186 Y58.175 E148.49598
G1 X175.778 Y59.311 E148.61449
G1 X176.265 Y60.488 E148.73235
G1 X176.650 Y61.710 E148.85086
G1 X176.927 Y62.955 E148.96874
G1 X177.093 Y64.217 E149.08647
G1 X177.150 Y65.508 E149.20605
G1 X177.150 Y126.493 E154.84656
G1 X177.097 Y127.697 E154.95803
G1 X176.942 Y128.873 E155.06773
G1 X176.685 Y130.032 E155.17756
G1 X176.326 Y131.170 E155.28798
G1 X175.871 Y132.267 E155.39779
G1 X175.320 Y133.326 E155.50821
G1 X174.682 Y134.328 E155.61809
G1 X173.956 Y135.274 E155.72840
G1 X173.152 Y136.152 E155.83849
G1 X172.274 Y136.956 E155.94858
G1 X171.328 Y137.682 E156.05889
G1 X170.326 Y138.320 E156.16877
G1 X169.267 Y138.872 E156.27919
G1 X168.170 Y139.326 E156.38900
G1 X167.031 Y139.685 E156.49942
G1 X165.872 Y139.942 E156.60926
G1 X164.696 Y140.097 E156.71895
G1 X163.492 Y140.150 E156.83042
G1 X36.508 Y140.150 E168.57533
G1 X35.304 Y140.097 E168.68680
G1 X34.128 Y139.942 E168.79649
G1 X32.969 Y139.685 E168.90633
G1 X31.830 Y139.326 E169.01675
G1 X30.733 Y138.872 E169.12656
G1 X29.674 Y138.320 E169.23698
G1 X28.672 Y137.682 E169.34686
G1 X27.726 Y136.956 E169.45717
G1 X26.848 Y136.152 E169.56726
G1 X26.044 Y135.274 E169.67735
G1 X25.318 Y134.328 E169.78765
G1 X24.680 Y133.326 E169.89754
G1 X24.129 Y132.267 E170.00796
G1 X23.674 Y131.170 E170.11777
G1 X23.315 Y130.032 E170.22819
G1 X23.058 Y128.873 E170.33802
G1 X22.903 Y127.697 E170.44772
G1 X22.850 Y126.493 E170.55918
G1 X22.850 Y65.508 E176.19970
G1 X22.907 Y64.217 E176.31928
G1 X23.073 Y62.955 E176.43701
G1 X23.350 Y61.710 E176.55489
G1 X23.735 Y60.488 E176.67340
G1 X24.222 Y59.311 E176.79126
G1 X24.814 Y58.175 E176.90977
G1 X25.558 Y57.007 E177.03780
G1 X26.278 Y56.084 E177.14613
G1 X27.141 Y55.142 E177.26429
G1 X28.083 Y54.279 E177.38244
G1 X29.099 Y53.499 E177.50083
G1 X30.174 Y52.815 E177.61876
G1 X31.311 Y52.223 E177.73727
G1 X32.488 Y51.735 E177.85513
G1 X33.710 Y51.350 E177.97364
G1 X34.954 Y51.074 E178.09152
G1 X36.216 Y50.908 E178.20925
G1 X37.508 Y50.850 E178.32883
G1 X92.850 Y50.850 E183.44749
G1 X92.850 Y47.509 E183.75656
G1 X92.857 Y47.354 E183.77089
G1 X92.907 Y47.072 E183.79739
G1 X93.005 Y46.804 E183.82375
G1 X93.149 Y46.554 E183.85047
G1 X93.441 Y46.236 E183.89037
G1 X93.674 Y46.073 E183.91674
G1 X93.937 Y45.950 E183.94353
G1 X94.354 Y45.858 E183.98301
G1 X103.492 Y45.850 E184.82819
G1 X103.790 Y45.877 E184.85589
G1 X104.063 Y45.950 E184.88205
G1 X104.196 Y46.005 E184.89539
G1 X104.447 Y46.149 E184.92211
G1 X104.764 Y46.441 E184.96201
G1 X104.851 Y46.554 E184.97514
G1 X104.995 Y46.804 E185.00186
G1 X105.051 Y46.937 E185.01520
G1 X105.124 Y47.210 E185.04135
G1 X105.150 Y47.509 E185.06905
G1 X105.150 Y50.790 E185.37257
G1 X105.150 Y51.250 F4200.000
G1 X104.880 Y52.562 F4200.000
G1 X135.063 Y82.746 E189.32061 F1260.000
G1 X135.063 Y81.847 E189.40378
G1 X105.779 Y52.562 E193.23420
G1 X106.678 Y52.562 E193.31737
G1 X135.063 Y80.947 E197.03016
G1 X135.063 Y80.048 E197.11333
G1 X107.577 Y52.562 E200.70849
G1 X108.477 Y52.562 E200.79166
G1 X135.063 Y79.149 E204.26920
G1 X135.238 Y78.424 E204.33811
G1 X109.376 Y52.562 E207.72091
G1 X110.275 Y52.562 E207.80409
G1 X135.238 Y77.525 E211.06926
G1 X135.238 Y76.626 E211.15244
G1 X111.174 Y52.562 E214.29999
G1 X112.074 Y52.562 E214.38316
G1 X135.238 Y75.727 E217.41309
G1 X135.238 Y74.827 E217.49626
G1 X112.973 Y52.562 E220.40856
G1 X113.872 Y52.562 E220.49173
G1 X135.238 Y73.928 E223.28641
G1 X135.238 Y73.029 E223.36958
G1 X114.772 Y52.562 E226.04663
G1 X115.671 Y52.562 E226.12981
G1 X135.238 Y72.130 E228.68923
G1 X135.238 Y71.230 E228.77240
G1 X116.570 Y52.562 E231.21420
G1 X117.469 Y52.562 E231.29738
G1 X135.238 Y70.331 E233.62155
G1 X135.238 Y69.432 E233.70473
G1 X118.369 Y52.562 E235.91127
G1 X119.268 Y52.562 E235.99445
G1 X135.238 Y68.533 E238.08337
G1 X135.238 Y67.633 E238.16655
G1 X120.167 Y52.562 E240.13784
G1 X121.066 Y52.562 E240.22102
G1 X135.238 Y66.734 E242.07469
G1 X135.238 Y65.835 E242.15787
G1 X121.966 Y52.562 E243.89391
G1 X122.865 Y52.562 E243.97709
G1 X135.238 Y64.936 E245.59551
G1 X135.238 Y64.036 E245.67868
G1 X123.764 Y52.562 E247.17948
G1 X124.663 Y52.562 E247.26266
G1 X135.539 Y63.438 E248.68525
G1 X136.439 Y63.438 E248.76842
G1 X125.563 Y52.562 E250.19101
G1 X126.462 Y52.562 E250.27419
G1 X137.338 Y63.438 E251.69678
