; generated by Slic3r 1.1.7 on 2015-04-26 at 00:39:12

; perimeters extrusion width = 0.40mm
; infill extrusion width = 0.67mm
; solid infill extrusion width = 0.67mm
; top infill extrusion width = 0.67mm
; support material extrusion width = 0.40mm

G21 ; set units to millimeters
M107
M190 S60 ; wait for bed temperature to be reached
M104 S210 ; set temperature
G28 ; home all axes
G1 Z5 F5000 ; lift nozzle
M109 S210 ; wait for temperature to be reached
G90 ; use absolute coordinates
G92 E0
M82 ; use absolute distances for extrusion
G1 F2400.000 E-3.00000
G92 E0
G1 Z-4.350 F4200.000
G1 X80.940 Y61.092 F4200.000
G1 E3.00000 F2400.000
G1 X82.665 Y59.871 E3.19551 F1080.000
G1 X85.000 Y59.364 E3.41649
G1 X115.000 Y59.364 E6.19122
G1 X117.076 Y59.761 E6.38674
G1 X118.861 Y60.894 E6.58225 F1080.000
G1 X120.102 Y62.606 E6.77777
G1 X120.635 Y64.934 E6.99875
G1 X120.811 Y80.050 E8.39689
G1 X120.810 Y110.016 E11.16843
G1 X120.635 Y125.066 E12.56051
G1 X120.215 Y127.137 E12.75603
G1 X119.060 Y128.908 E12.95154
G1 X117.335 Y130.129 E13.14706
G1 X115.000 Y130.636 E13.36804
G1 X85.000 Y130.636 E16.14276
G1 X82.924 Y130.239 E16.33828
G1 X81.139 Y129.106 E16.53379
G1 X79.898 Y127.394 E16.72931
G1 X79.365 Y125.066 E16.95029
G1 X79.189 Y109.950 E18.34843
G1 X79.190 Y79.984 E21.11997
G1 X79.365 Y64.934 E22.51205
G1 X79.785 Y62.863 E22.70757
G1 X80.907 Y61.142 E22.89754
G1 F2400.000 E19.89754
G92 E0
G1 X113.379 Y123.379 F4200.000
G1 E3.00000 F2400.000
G1 X86.621 Y123.379 E5.47483 F720.000
G1 X86.621 Y108.329 E6.86682
G1 X86.446 Y108.329 E6.88300
G1 X86.446 Y81.671 E9.34858
G1 X86.621 Y81.671 E9.36477
G1 X86.621 Y66.621 E10.75676
G1 X113.379 Y66.621 E13.23159
G1 X113.379 Y81.671 E14.62358
G1 X113.554 Y81.671 E14.63976
G1 X113.554 Y108.329 E17.10534
G1 X113.379 Y108.329 E17.12153
G1 X113.379 Y123.319 E18.50797
G1 X114.014 Y124.014 F4200.000
G1 X85.986 Y124.014 E21.10037 F720.000
G1 X85.986 Y108.964 E22.49236
G1 X85.811 Y108.964 E22.50855
G1 X85.811 Y81.036 E25.09170
G1 X85.986 Y81.036 E25.10789
G1 X85.986 Y65.986 E26.49988
G1 X114.014 Y65.986 E29.09229
G1 X114.014 Y81.036 E30.48428
G1 X114.189 Y81.036 E30.50046
G1 X114.189 Y108.964 E33.08362
G1 X114.014 Y108.964 E33.09980
G1 X114.014 Y123.954 E34.48624
G1 X114.650 Y124.650 F4200.000
G1 X85.350 Y124.650 E37.19623 F360.000
G1 X85.350 Y109.600 E38.58822
G1 X85.175 Y109.600 E38.60440
G1 X85.175 Y80.400 E41.30514
G1 X85.350 Y80.400 E41.32132
G1 X85.350 Y65.350 E42.71331
G1 X114.650 Y65.350 E45.42330
G1 X114.650 Y80.400 E46.81529
G1 X114.825 Y80.400 E46.83147
G1 X114.825 Y109.600 E49.53221
G1 X114.650 Y109.600 E49.54839
G1 X114.650 Y124.590 E50.93483
G1 X114.304 Y124.450 F4200.000
G1 X87.102 Y122.938 F4200.000
G1 X87.062 Y122.898 E50.94007 F1260.000
G1 X87.062 Y121.990 E51.02400
G1 X88.010 Y122.938 E51.14793
G1 X88.917 Y122.938 E51.23186
G1 X87.062 Y121.083 E51.47449
G1 X87.062 Y120.176 E51.55842
G1 X89.824 Y122.938 E51.91975
G1 X90.732 Y122.938 E52.00368
G1 X87.062 Y119.268 E52.48370
G1 X87.062 Y118.361 E52.56764
G1 X91.639 Y122.938 E53.16636
G1 X92.547 Y122.938 E53.25029
G1 X87.062 Y117.453 E53.96771
G1 X87.062 Y116.546 E54.05165
G1 X93.454 Y122.938 E54.88776
G1 X94.362 Y122.938 E54.97170
G1 X87.062 Y115.638 E55.92651
G1 X87.062 Y114.731 E56.01045
G1 X95.269 Y122.938 E57.08396
G1 X96.177 Y122.938 E57.16789
G1 X87.062 Y113.823 E58.36011
G1 X87.062 Y112.916 E58.44404
G1 X97.084 Y122.938 E59.75495
G1 X97.992 Y122.938 E59.83888
G1 X87.062 Y112.008 E61.26849
G1 X87.062 Y111.101 E61.35243
G1 X98.899 Y122.938 E62.90074
G1 X99.807 Y122.938 E62.98467
G1 X87.062 Y110.193 E64.65167
G1 X87.062 Y109.286 E64.73561
G1 X100.714 Y122.938 E66.52131
G1 X101.621 Y122.938 E66.60524
G1 X87.062 Y108.379 E68.50965
G1 X86.887 Y107.296 E68.61106
G1 X102.529 Y122.938 E70.65706
G1 X103.436 Y122.938 E70.74099
G1 X86.887 Y106.389 E72.90568
G1 X86.887 Y105.481 E72.98961
G1 X104.344 Y122.938 E75.27300
G1 X105.251 Y122.938 E75.35693
G1 X86.887 Y104.574 E77.75901
G1 X86.887 Y103.666 E77.84295
G1 X106.159 Y122.938 E80.36373
G1 X107.066 Y122.938 E80.44766
G1 X86.887 Y102.759 E83.08715
G1 X86.887 Y101.851 E83.17108
G1 X107.974 Y122.938 E85.92926
G1 X108.881 Y122.938 E86.01319
G1 X86.887 Y100.944 E88.89007
G1 X86.887 Y100.036 E88.97400
G1 X109.789 Y122.938 E91.96958
G1 X110.696 Y122.938 E92.05351
G1 X86.887 Y99.129 E95.16778
G1 X86.887 Y98.221 E95.25172
G1 X111.604 Y122.938 E98.48469
G1 X112.511 Y122.938 E98.56862
G1 X86.887 Y97.314 E101.92029
G1 X86.887 Y96.406 E102.00423
G1 X112.938 Y122.457 E105.41174
G1 X112.938 Y121.550 E105.49567
G1 X86.887 Y95.499 E108.90318
G1 X86.887 Y94.592 E108.98711
G1 X112.938 Y120.642 E112.39462
G1 X112.938 Y119.735 E112.47855
G1 X86.887 Y93.684 E115.88606
G1 X86.887 Y92.777 E115.97000
G1 X112.938 Y118.828 E119.37751
G1 X112.938 Y117.920 E119.46144
G1 X86.887 Y91.869 E122.86895
G1 X86.887 Y90.962 E122.95288
G1 X112.938 Y117.013 E126.36039
G1 X112.938 Y116.105 E126.44432
G1 X86.887 Y90.054 E129.85183
G1 X86.887 Y89.147 E129.93577
G1 X112.938 Y115.198 E133.34328
G1 X112.938 Y114.290 E133.42721
G1 X86.887 Y88.239 E136.83472
G1 X86.887 Y87.332 E136.91865
G1 X112.938 Y113.383 E140.32616
G1 X112.938 Y112.475 E140.41010
G1 X86.887 Y86.424 E143.81761
G1 X86.887 Y85.517 E143.90154
G1 X112.938 Y111.568 E147.30905
G1 X112.938 Y110.660 E147.39298
G1 X86.887 Y84.609 E150.80049
G1 X86.887 Y83.702 E150.88442
G1 X112.938 Y109.753 E154.29193
G1 X112.938 Y108.845 E154.37587
G1 X86.887 Y82.795 E157.78338
G1 X87.062 Y82.062 E157.85303
G1 X112.938 Y107.938 E161.23765
G1 X113.113 Y107.205 E161.30730
G1 X87.062 Y81.155 E164.71481
G1 X87.062 Y80.247 E164.79875
G1 X113.113 Y106.298 E168.20626
G1 X113.113 Y105.391 E168.29019
G1 X87.062 Y79.340 E171.69770
G1 X87.062 Y78.432 E171.78163
G1 X113.113 Y104.483 E175.18914
G1 X113.113 Y103.576 E175.27307
G1 X87.062 Y77.525 E178.68059
G1 X87.062 Y76.617 E178.76452
G1 X113.113 Y102.668 E182.17203
G1 X113.113 Y101.761 E182.25596
G1 X87.062 Y75.710 E185.66347
G1 X87.062 Y74.802 E185.74740
G1 X113.113 Y100.853 E189.15491
G1 X113.113 Y99.946 E189.23885
G1 X87.062 Y73.895 E192.64636
G1 X87.062 Y72.987 E192.73029
G1 X113.113 Y99.038 E196.13780
G1 X113.113 Y98.131 E196.22173
G1 X87.062 Y72.080 E199.62924
G1 X87.062 Y71.172 E199.71318
G1 X113.113 Y97.223 E203.12069
G1 X113.113 Y96.316 E203.20462
G1 X87.062 Y70.265 E206.61213
G1 X87.062 Y69.358 E206.69606
G1 X113.113 Y95.408 E210.10357
G1 X113.113 Y94.501 E210.18750
G1 X87.062 Y68.450 E213.59501
G1 X87.062 Y67.543 E213.67895
G1 X113.113 Y93.594 E217.08646
G1 X113.113 Y92.686 E217.17039
G1 X87.489 Y67.062 E220.52206
G1 X88.396 Y67.062 E220.60599
G1 X113.113 Y91.779 E223.83897
G1 X113.113 Y90.871 E223.92290
G1 X89.304 Y67.062 E227.03717
G1 X90.211 Y67.062 E227.12111
G1 X113.113 Y89.964 E230.11668
G1 X113.113 Y89.056 E230.20061
G1 X91.119 Y67.062 E233.07749
G1 X92.026 Y67.062 E233.16143
G1 X113.113 Y88.149 E235.91961
G1 X113.113 Y87.241 E236.00354
G1 X92.934 Y67.062 E238.64302
G1 X93.841 Y67.062 E238.72695
G1 X113.113 Y86.334 E241.24774
G1 X113.113 Y85.426 E241.33167
G1 X94.749 Y67.062 E243.73375
G1 X95.656 Y67.062 E243.81769
G1 X113.113 Y84.519 E246.10107
G1 X113.113 Y83.611 E246.18501
G1 X96.564 Y67.062 E248.34970
G1 X97.471 Y67.062 E248.43363
G1 X113.113 Y82.704 E250.47962
G1 X112.938 Y81.621 E250.58104
G1 X98.379 Y67.062 E252.48544
G1 X99.286 Y67.062 E252.56937
G1 X112.938 Y80.714 E254.35508
G1 X112.938 Y79.807 E254.43901
G1 X100.193 Y67.062 E256.10602
G1 X101.101 Y67.062 E256.18995
G1 X112.938 Y78.899 E257.73826
G1 X112.938 Y77.992 E257.82219
G1 X102.008 Y67.062 E259.25180
G1 X102.916 Y67.062 E259.33573
G1 X112.938 Y77.084 E260.64664
G1 X112.938 Y76.177 E260.73058
G1 X103.823 Y67.062 E261.92279
G1 X104.731 Y67.062 E262.00672
G1 X112.938 Y75.269 E263.08024
G1 X112.938 Y74.362 E263.16417
G1 X105.638 Y67.062 E264.11899
G1 X106.546 Y67.062 E264.20292
G1 X112.938 Y73.454 E265.03904
G1 X112.938 Y72.547 E265.12297
G1 X107.453 Y67.062 E265.84039
G1 X108.361 Y67.062 E265.92433
G1 X112.938 Y71.639 E266.52305
G1 X112.938 Y70.732 E266.60698
G1 X109.268 Y67.062 E267.08701
G1 X110.176 Y67.062 E267.17094
G1 X112.938 Y69.824 E267.53226
G1 X112.938 Y68.917 E267.61620
G1 X111.083 Y67.062 E267.85882
G1 X111.990 Y67.062 E267.94276
G1 X112.938 Y68.010 E268.06669
G1 X112.938 Y67.102 E268.15062
G1 X112.898 Y67.062 E268.15585
M104 S200 ; set temperature
M140 S50 ; set bed temperature
G1 F2400.000 E265.15585
G92 E0
G1 Z-4.150 F4200.000
G1 X114.000 Y108.950 F4200.000
G1 E3.00000 F2400.000
G1 X114.000 Y124.000 E3.50057 F2400.000
G1 X86.000 Y124.000 E4.43185
G1 X86.000 Y108.950 E4.93241
G1 X85.550 Y108.950 E4.94738
G1 X85.550 Y81.050 E5.87534
G1 X86.000 Y81.050 E5.89031
G1 X86.000 Y66.000 E6.39087
G1 X114.000 Y66.000 E7.32215
G1 X114.000 Y81.050 E7.82272
G1 X114.450 Y81.050 E7.83769
G1 X114.450 Y108.950 E8.76564
G1 X114.060 Y108.950 E8.77862
G1 X114.400 Y109.350 F4200.000
G1 X114.400 Y124.400 E9.27918 F2400.000
G1 X85.600 Y124.400 E10.23707
G1 X85.600 Y109.350 E10.73764
G1 X85.150 Y109.350 E10.75261
G1 X85.150 Y80.650 E11.70717
G1 X85.600 Y80.650 E11.72214
G1 X85.600 Y65.600 E12.22270
G1 X114.400 Y65.600 E13.18060
G1 X114.400 Y80.650 E13.68116
G1 X114.850 Y80.650 E13.69613
G1 X114.850 Y109.350 E14.65069
G1 X114.460 Y109.350 E14.66366
G1 X114.800 Y109.750 F4200.000
G1 X114.800 Y124.800 E15.16423 F1200.000
G1 X85.200 Y124.800 E16.14873
G1 X85.200 Y109.750 E16.64930
G1 X84.750 Y109.750 E16.66426
G1 X84.750 Y80.250 E17.64544
G1 X85.200 Y80.250 E17.66040
G1 X85.200 Y65.200 E18.16097
G1 X114.800 Y65.200 E19.14547
G1 X114.800 Y80.250 E19.64603
G1 X115.250 Y80.250 E19.66100
G1 X115.250 Y109.750 E20.64217
G1 X114.860 Y109.750 E20.65515
G1 X114.400 Y109.750 F4200.000
G1 X113.679 Y123.639 F4200.000
G1 X113.639 Y123.679 E20.65810 F4200.000
G1 X112.748 Y123.679 E20.70465
G1 X113.679 Y122.748 E20.77343
G1 X113.679 Y121.857 E20.81997
G1 X111.857 Y123.679 E20.95457
G1 X110.966 Y123.679 E21.00112
G1 X113.679 Y120.966 E21.20154
G1 X113.679 Y120.075 E21.24809
G1 X110.075 Y123.679 E21.51434
G1 X109.184 Y123.679 E21.56088
G1 X113.679 Y119.184 E21.89296
G1 X113.679 Y118.293 E21.93950
G1 X108.293 Y123.679 E22.33740
G1 X107.402 Y123.679 E22.38395
G1 X113.679 Y117.402 E22.84767
G1 X113.679 Y116.512 E22.89421
G1 X106.512 Y123.679 E23.42376
G1 X105.621 Y123.679 E23.47030
G1 X113.679 Y115.621 E24.06567
G1 X113.679 Y114.730 E24.11222
G1 X104.730 Y123.679 E24.77341
G1 X103.839 Y123.679 E24.81996
G1 X113.679 Y113.839 E25.54698
G1 X113.679 Y112.948 E25.59352
G1 X102.948 Y123.679 E26.38636
G1 X102.057 Y123.679 E26.43291
G1 X113.679 Y112.057 E27.29157
G1 X113.679 Y111.166 E27.33812
G1 X101.166 Y123.679 E28.26261
G1 X100.275 Y123.679 E28.30915
G1 X113.679 Y110.275 E29.29946
G1 X113.679 Y109.384 E29.34601
G1 X99.384 Y123.679 E30.40214
G1 X98.494 Y123.679 E30.44869
G1 X114.129 Y108.043 E31.60390
G1 X114.129 Y107.153 E31.65044
G1 X97.603 Y123.679 E32.87148
G1 X96.712 Y123.679 E32.91802
G1 X114.129 Y106.262 E34.20488
G1 X114.129 Y105.371 E34.25142
G1 X95.821 Y123.679 E35.60411
G1 X94.930 Y123.679 E35.65065
G1 X114.129 Y104.480 E37.06916
G1 X114.129 Y103.589 E37.11570
G1 X94.039 Y123.679 E38.60003
G1 X93.148 Y123.679 E38.64657
G1 X114.129 Y102.698 E40.19673
G1 X114.129 Y101.807 E40.24327
G1 X92.257 Y123.679 E41.85925
G1 X91.366 Y123.679 E41.90579
G1 X114.129 Y100.916 E43.58759
G1 X114.129 Y100.025 E43.63414
G1 X90.475 Y123.679 E45.38176
G1 X89.585 Y123.679 E45.42831
G1 X114.129 Y99.135 E47.24176
G1 X114.129 Y98.244 E47.28830
G1 X88.694 Y123.679 E49.16757
G1 X87.803 Y123.679 E49.21412
G1 X114.129 Y97.353 E51.15921
G1 X114.129 Y96.462 E51.20576
G1 X86.912 Y123.679 E53.21668
G1 X86.321 Y123.378 E53.25129
G1 X114.129 Y95.571 E55.30585
G1 X114.129 Y94.680 E55.35239
G1 X86.321 Y122.487 E57.40695
G1 X86.321 Y121.597 E57.45349
G1 X114.129 Y93.789 E59.50805
G1 X114.129 Y92.898 E59.55459
G1 X86.321 Y120.706 E61.60915
G1 X86.321 Y119.815 E61.65569
G1 X114.129 Y92.007 E63.71025
G1 X114.129 Y91.117 E63.75679
G1 X86.321 Y118.924 E65.81135
G1 X86.321 Y118.033 E65.85789
G1 X114.129 Y90.226 E67.91245
G1 X114.129 Y89.335 E67.95899
G1 X86.321 Y117.142 E70.01355
G1 X86.321 Y116.251 E70.06009
G1 X114.129 Y88.444 E72.11465
G1 X114.129 Y87.553 E72.16119
G1 X86.321 Y115.360 E74.21575
G1 X86.321 Y114.469 E74.26229
G1 X114.129 Y86.662 E76.31685
G1 X114.129 Y85.771 E76.36339
G1 X86.321 Y113.579 E78.41795
G1 X86.321 Y112.688 E78.46449
G1 X114.129 Y84.880 E80.51905
G1 X114.129 Y83.989 E80.56559
G1 X86.321 Y111.797 E82.62015
G1 X86.321 Y110.906 E82.66669
G1 X114.129 Y83.099 E84.72125
G1 X114.129 Y82.208 E84.76779
G1 X86.321 Y110.015 E86.82235
G1 X86.321 Y109.124 E86.86889
G1 X114.074 Y81.371 E88.91942
G1 X113.679 Y80.876 E88.95253
G1 X85.926 Y108.629 E91.00306
G1 X85.871 Y107.792 E91.04684
G1 X113.679 Y79.985 E93.10140
G1 X113.679 Y79.094 E93.14794
G1 X85.871 Y106.901 E95.20250
G1 X85.871 Y106.011 E95.24904
G1 X113.679 Y78.203 E97.30360
G1 X113.679 Y77.312 E97.35014
G1 X85.871 Y105.120 E99.40470
G1 X85.871 Y104.229 E99.45124
G1 X113.679 Y76.421 E101.50580
G1 X113.679 Y75.531 E101.55234
G1 X85.871 Y103.338 E103.60690
G1 X85.871 Y102.447 E103.65344
G1 X113.679 Y74.640 E105.70800
G1 X113.679 Y73.749 E105.75454
G1 X85.871 Y101.556 E107.80910
G1 X85.871 Y100.665 E107.85564
G1 X113.679 Y72.858 E109.91020
G1 X113.679 Y71.967 E109.95674
G1 X85.871 Y99.774 E112.01130
G1 X85.871 Y98.883 E112.05784
G1 X113.679 Y71.076 E114.11240
G1 X113.679 Y70.185 E114.15894
G1 X85.871 Y97.993 E116.21350
G1 X85.871 Y97.102 E116.26004
G1 X113.679 Y69.294 E118.31460
G1 X113.679 Y68.403 E118.36114
G1 X85.871 Y96.211 E120.41570
G1 X85.871 Y95.320 E120.46224
G1 X113.679 Y67.513 E122.51680
G1 X113.679 Y66.622 E122.56334
G1 X85.871 Y94.429 E124.61790
G1 X85.871 Y93.538 E124.66444
G1 X113.088 Y66.321 E126.67536
G1 X112.197 Y66.321 E126.72191
G1 X85.871 Y92.647 E128.66701
G1 X85.871 Y91.756 E128.71355
G1 X111.306 Y66.321 E130.59282
G1 X110.415 Y66.321 E130.63937
G1 X85.871 Y90.865 E132.45281
G1 X85.871 Y89.975 E132.49936
G1 X109.525 Y66.321 E134.24698
G1 X108.634 Y66.321 E134.29353
G1 X85.871 Y89.084 E135.97533
G1 X85.871 Y88.193 E136.02187
G1 X107.743 Y66.321 E137.63785
G1 X106.852 Y66.321 E137.68440
G1 X85.871 Y87.302 E139.23455
G1 X85.871 Y86.411 E139.28109
G1 X105.961 Y66.321 E140.76542
G1 X105.070 Y66.321 E140.81197
G1 X85.871 Y85.520 E142.23047
G1 X85.871 Y84.629 E142.27702
G1 X104.179 Y66.321 E143.62970
G1 X103.288 Y66.321 E143.67624
G1 X85.871 Y83.738 E144.96310
G1 X85.871 Y82.847 E145.00964
G1 X102.397 Y66.321 E146.23068
G1 X101.506 Y66.321 E146.27722
G1 X85.871 Y81.956 E147.43243
G1 X86.321 Y80.616 F4200.000
G1 X100.616 Y66.321 E148.48857 F4200.000
G1 X99.725 Y66.321 E148.53511
G1 X86.321 Y79.725 E149.52543
G1 X86.321 Y78.834 E149.57197
G1 X98.834 Y66.321 E150.49646
G1 X97.943 Y66.321 E150.54301
G1 X86.321 Y77.943 E151.40167
G1 X86.321 Y77.052 E151.44822
G1 X97.052 Y66.321 E152.24106
G1 X96.161 Y66.321 E152.28760
G1 X86.321 Y76.161 E153.01462
G1 X86.321 Y75.270 E153.06116
G1 X95.270 Y66.321 E153.72236
G1 X94.379 Y66.321 E153.76890
G1 X86.321 Y74.379 E154.36427
G1 X86.321 Y73.488 E154.41082
G1 X93.488 Y66.321 E154.94036
G1 X92.598 Y66.321 E154.98691
G1 X86.321 Y72.598 E155.45063
G1 X86.321 Y71.707 E155.49717
G1 X91.707 Y66.321 E155.89507
G1 X90.816 Y66.321 E155.94162
G1 X86.321 Y70.816 E156.27369
G1 X86.321 Y69.925 E156.32024
G1 X89.925 Y66.321 E156.58649
G1 X89.034 Y66.321 E156.63303
G1 X86.321 Y69.034 E156.83346
G1 X86.321 Y68.143 E156.88000
G1 X88.143 Y66.321 E157.01461
G1 X87.252 Y66.321 E157.06115
G1 X86.321 Y67.252 E157.12993
G1 X86.321 Y66.361 E157.17647
G1 X86.361 Y66.321 E157.17943
G1 F2400.000 E154.17943
G92 E0
