; generated by Slic3r 1.1.7 on 2015-04-25 at 18:51:46

; perimeters extrusion width = 0.40mm
; infill extrusion width = 0.67mm
; solid infill extrusion width = 0.67mm
; top infill extrusion width = 0.67mm
; support material extrusion width = 0.40mm

G21 ; set units to millimeters
M107
M190 S60 ; wait for bed temperature to be reached
M104 S210 ; set temperature
G28 ; home all axes
G1 Z5 F5000 ; lift nozzle
M109 S210 ; wait for temperature to be reached
G90 ; use absolute coordinates
G92 E0
M82 ; use absolute distances for extrusion
G1 F2400.000 E-3.00000
G92 E0
G1 Z-4.350 F4200.000
G1 X35.606 Y64.608 F4200.000
G1 E3.00000 F2400.000
G1 X38.000 Y64.075 E3.22690 F1080.000
G1 X162.000 Y64.075 E14.69578
G1 X164.076 Y64.471 E14.89129
G1 X165.861 Y65.605 E15.08681 F1080.000
G1 X167.102 Y67.316 E15.28232
G1 X167.636 Y69.710 E15.50922
G1 X167.636 Y113.545 E19.56355
G1 X167.239 Y115.621 E19.75906
G1 X166.106 Y117.406 E19.95458
G1 X164.394 Y118.647 E20.15009
G1 X162.510 Y119.158 E20.33068
G1 X109.827 Y123.923 E25.22328
G1 X89.561 Y123.975 E27.09771
G1 X37.481 Y119.157 E31.93520
G1 X35.450 Y118.571 E32.13072
G1 X33.778 Y117.278 E32.32623
G1 X32.699 Y115.459 E32.52175
G1 X32.364 Y113.545 E32.70149
G1 X32.364 Y69.710 E36.75582
G1 X32.761 Y67.634 E36.95133
G1 X33.894 Y65.850 E37.14685
G1 X35.557 Y64.644 E37.33681
G1 F2400.000 E34.33681
G92 E0
G1 X87.879 Y102.089 F4200.000
G1 E3.00000 F2400.000
G1 X87.879 Y111.924 E3.90964 F720.000
G1 X39.621 Y111.924 E8.37302
G1 X39.621 Y71.331 E12.12745
G1 X160.379 Y71.331 E23.29643
G1 X160.379 Y111.924 E27.05086
G1 X112.121 Y111.924 E31.51424
G1 X112.121 Y102.089 E32.42388
G1 X87.939 Y102.089 E34.66054
G1 X88.514 Y102.725 F4200.000
G1 X88.514 Y112.559 E35.57018 F720.000
G1 X38.986 Y112.559 E40.15114
G1 X38.986 Y70.696 E44.02315
G1 X161.014 Y70.696 E55.30970
G1 X161.014 Y112.559 E59.18171
G1 X111.486 Y112.559 E63.76267
G1 X111.486 Y102.725 E64.67231
G1 X88.574 Y102.725 E66.79139
G1 X89.150 Y103.360 F4200.000
G1 X89.150 Y113.195 E67.70103 F360.000
G1 X38.350 Y113.195 E72.39957
G1 X38.350 Y70.060 E76.38915
G1 X161.650 Y70.060 E87.79329
G1 X161.650 Y113.195 E91.78287
G1 X110.850 Y113.195 E96.48141
G1 X110.850 Y103.360 E97.39105
G1 X89.210 Y103.360 E99.39255
G1 X88.750 Y103.360 F4200.000
G1 X111.372 Y101.648 F4200.000
G1 X81.496 Y71.772 E103.30038 F1260.000
G1 X80.595 Y71.772 E103.38373
G1 X110.471 Y101.648 E107.29156
G1 X109.570 Y101.648 E107.37491
G1 X79.694 Y71.772 E111.28274
G1 X78.793 Y71.772 E111.36609
G1 X108.669 Y101.648 E115.27392
G1 X107.768 Y101.648 E115.35727
G1 X77.892 Y71.772 E119.26509
G1 X76.991 Y71.772 E119.34844
G1 X106.866 Y101.648 E123.25627
G1 X105.965 Y101.648 E123.33962
G1 X76.089 Y71.772 E127.24745
G1 X75.188 Y71.772 E127.33080
G1 X105.064 Y101.648 E131.23863
G1 X104.163 Y101.648 E131.32198
G1 X74.287 Y71.772 E135.22980
G1 X73.386 Y71.772 E135.31315
G1 X103.262 Y101.648 E139.22098
G1 X102.361 Y101.648 E139.30433
G1 X72.485 Y71.772 E143.21216
G1 X71.584 Y71.772 E143.29551
G1 X101.459 Y101.648 E147.20334
G1 X100.558 Y101.648 E147.28669
G1 X70.682 Y71.772 E151.19452
G1 X69.781 Y71.772 E151.27787
G1 X99.657 Y101.648 E155.18569
G1 X98.756 Y101.648 E155.26904
G1 X68.880 Y71.772 E159.17687
G1 X67.979 Y71.772 E159.26022
G1 X97.855 Y101.648 E163.16805
G1 X96.954 Y101.648 E163.25140
G1 X67.078 Y71.772 E167.15923
G1 X66.177 Y71.772 E167.24258
G1 X96.052 Y101.648 E171.15041
G1 X95.151 Y101.648 E171.23376
G1 X65.275 Y71.772 E175.14158
G1 X64.374 Y71.772 E175.22493
G1 X94.250 Y101.648 E179.13276
G1 X93.349 Y101.648 E179.21611
G1 X63.473 Y71.772 E183.12394
G1 X62.572 Y71.772 E183.20729
G1 X92.448 Y101.648 E187.11512
G1 X91.547 Y101.648 E187.19847
G1 X61.671 Y71.772 E191.10630
G1 X60.769 Y71.772 E191.18964
G1 X90.645 Y101.648 E195.09747
G1 X89.744 Y101.648 E195.18082
G1 X59.868 Y71.772 E199.08865
G1 X58.967 Y71.772 E199.17200
G1 X88.843 Y101.648 E203.07983
G1 X87.942 Y101.648 E203.16318
G1 X58.066 Y71.772 E207.07101
G1 X57.165 Y71.772 E207.15436
G1 X87.438 Y102.045 E211.11414
G1 X87.438 Y102.947 E211.19749
G1 X56.264 Y71.772 E215.27515
G1 X55.362 Y71.772 E215.35850
G1 X87.438 Y103.848 E219.55403
G1 X87.438 Y104.749 E219.63738
G1 X54.461 Y71.772 E223.95079
G1 X53.560 Y71.772 E224.03414
G1 X87.438 Y105.650 E228.46543
G1 X87.438 Y106.551 E228.54878
G1 X52.659 Y71.772 E233.09793
G1 X51.758 Y71.772 E233.18128
G1 X87.438 Y107.452 E237.84832
G1 X87.438 Y108.354 E237.93166
G1 X50.857 Y71.772 E242.71657
G1 X49.955 Y71.772 E242.79992
G1 X87.438 Y109.255 E247.70270
G1 X87.438 Y110.156 E247.78605
G1 X49.054 Y71.772 E252.80671
G1 X48.153 Y71.772 E252.89006
G1 X87.438 Y111.057 E258.02859
G1 X86.963 Y111.483 E258.08761
G1 X47.252 Y71.772 E263.28186
G1 X46.351 Y71.772 E263.36521
G1 X86.062 Y111.483 E268.55946
G1 X85.160 Y111.483 E268.64281
G1 X45.450 Y71.772 E273.83706
G1 X44.548 Y71.772 E273.92041
G1 X84.259 Y111.483 E279.11466
G1 X83.358 Y111.483 E279.19801
G1 X43.647 Y71.772 E284.39226
G1 X42.746 Y71.772 E284.47561
G1 X82.457 Y111.483 E289.66986
G1 X81.556 Y111.483 E289.75321
G1 X41.845 Y71.772 E294.94745
G1 X40.944 Y71.772 E295.03080
G1 X80.655 Y111.483 E300.22505
G1 X79.753 Y111.483 E300.30840
G1 X40.072 Y71.802 E305.49877
G1 X40.062 Y72.693 E305.58117
G1 X78.852 Y111.483 E310.65501
G1 X77.951 Y111.483 E310.73836
G1 X40.062 Y73.594 E315.69432
G1 X40.062 Y74.495 E315.77767
G1 X77.050 Y111.483 E320.61575
G1 X76.149 Y111.483 E320.69910
G1 X40.062 Y75.396 E325.41932
G1 X40.062 Y76.297 E325.50267
G1 X75.248 Y111.483 E330.10501
G1 X74.346 Y111.483 E330.18835
G1 X40.062 Y77.199 E334.67282
G1 X40.062 Y78.100 E334.75617
G1 X73.445 Y111.483 E339.12276
G1 X72.544 Y111.483 E339.20611
G1 X40.062 Y79.001 E343.45482
G1 X40.062 Y79.902 E343.53817
G1 X71.643 Y111.483 E347.66901
G1 X70.742 Y111.483 E347.75236
G1 X40.062 Y80.803 E351.76533
G1 X40.062 Y81.704 E351.84868
G1 X69.841 Y111.483 E355.74377
G1 X68.939 Y111.483 E355.82712
G1 X40.062 Y82.606 E359.60433
G1 X40.062 Y83.507 E359.68768
G1 X68.038 Y111.483 E363.34703
G1 X67.137 Y111.483 E363.43038
G1 X40.062 Y84.408 E366.97184
G1 X40.062 Y85.309 E367.05519
G1 X66.236 Y111.483 E370.47879
G1 X65.335 Y111.483 E370.56214
G1 X40.062 Y86.210 E373.86785
G1 X40.062 Y87.111 E373.95120
G1 X64.434 Y111.483 E377.13905
G1 X63.532 Y111.483 E377.22240
G1 X40.062 Y88.013 E380.29237
G1 X40.062 Y88.914 E380.37572
G1 X62.631 Y111.483 E383.32781
G1 X61.730 Y111.483 E383.41116
G1 X40.062 Y89.815 E386.24538
G1 X40.062 Y90.716 E386.32873
G1 X60.829 Y111.483 E389.04508
G1 X59.928 Y111.483 E389.12843
G1 X40.062 Y91.617 E391.72690
G1 X40.062 Y92.518 E391.81025
G1 X59.027 Y111.483 E394.29085
G1 X58.125 Y111.483 E394.37420
G1 X40.062 Y93.420 E396.73692
G1 X40.062 Y94.321 E396.82027
G1 X57.224 Y111.483 E399.06512
G1 X56.323 Y111.483 E399.14847
G1 X40.062 Y95.222 E401.27544
G1 X40.062 Y96.123 E401.35879
G1 X55.422 Y111.483 E403.36789
G1 X54.521 Y111.483 E403.45124
G1 X40.062 Y97.024 E405.34246
G1 X40.062 Y97.925 E405.42581
G1 X53.620 Y111.483 E407.19916
G1 X52.718 Y111.483 E407.28251
G1 X40.062 Y98.827 E408.93799
G1 X40.062 Y99.728 E409.02134
G1 X51.817 Y111.483 E410.55894
G1 X50.916 Y111.483 E410.64229
G1 X40.062 Y100.629 E412.06201
G1 X40.062 Y101.530 E412.14536
G1 X50.015 Y111.483 E413.44721
G1 X49.114 Y111.483 E413.53056
G1 X40.062 Y102.431 E414.71454
G1 X40.062 Y103.332 E414.79789
G1 X48.213 Y111.483 E415.86399
G1 X47.311 Y111.483 E415.94734
G1 X40.062 Y104.234 E416.89557
G1 X40.062 Y105.135 E416.97892
G1 X46.410 Y111.483 E417.80928
G1 X45.509 Y111.483 E417.89263
G1 X40.062 Y106.036 E418.60510
G1 X40.062 Y106.937 E418.68845
G1 X44.608 Y111.483 E419.28306
G1 X43.707 Y111.483 E419.36641
G1 X40.062 Y107.838 E419.84314
G1 X40.062 Y108.739 E419.92649
G1 X42.806 Y111.483 E420.28534
G1 X41.904 Y111.483 E420.36869
G1 X40.062 Y109.641 E420.60968
G1 X40.062 Y110.542 E420.69303
G1 X41.003 Y111.483 E420.81613
G1 X40.102 Y111.483 E420.89948
G1 X40.062 Y111.443 E420.90471
G1 F2400.000 E417.90471
G92 E0
G1 X113.097 Y111.483 F4200.000
G1 E3.00000 F2400.000
G1 X112.562 Y110.948 E3.06993 F1260.000
G1 X112.562 Y110.047 E3.15328
G1 X113.998 Y111.483 E3.34108
G1 X114.899 Y111.483 E3.42443
G1 X112.562 Y109.146 E3.73010
G1 X112.562 Y108.245 E3.81345
G1 X115.800 Y111.483 E4.23700
G1 X116.701 Y111.483 E4.32035
G1 X112.562 Y107.344 E4.86177
G1 X112.562 Y106.443 E4.94512
G1 X117.602 Y111.483 E5.60442
G1 X118.504 Y111.483 E5.68777
G1 X112.562 Y105.541 E6.46495
G1 X112.562 Y104.640 E6.54830
G1 X119.405 Y111.483 E7.44334
G1 X120.306 Y111.483 E7.52669
G1 X112.562 Y103.739 E8.53961
G1 X112.562 Y102.838 E8.62296
G1 X121.207 Y111.483 E9.75376
G1 X122.108 Y111.483 E9.83711
G1 X82.398 Y71.772 E15.03136
G1 X83.299 Y71.772 E15.11471
G1 X123.009 Y111.483 E20.30896
G1 X123.911 Y111.483 E20.39231
G1 X84.200 Y71.772 E25.58656
G1 X85.101 Y71.772 E25.66991
G1 X124.812 Y111.483 E30.86416
G1 X125.713 Y111.483 E30.94751
G1 X86.002 Y71.772 E36.14176
G1 X86.903 Y71.772 E36.22511
G1 X126.614 Y111.483 E41.41935
G1 X127.515 Y111.483 E41.50270
G1 X87.805 Y71.772 E46.69695
G1 X88.706 Y71.772 E46.78030
G1 X128.416 Y111.483 E51.97455
G1 X129.318 Y111.483 E52.05790
G1 X89.607 Y71.772 E57.25215
G1 X90.508 Y71.772 E57.33550
G1 X130.219 Y111.483 E62.52975
G1 X131.120 Y111.483 E62.61310
G1 X91.409 Y71.772 E67.80735
G1 X92.310 Y71.772 E67.89070
G1 X132.021 Y111.483 E73.08495
G1 X132.922 Y111.483 E73.16830
G1 X93.212 Y71.772 E78.36255
G1 X94.113 Y71.772 E78.44590
G1 X133.823 Y111.483 E83.64015
G1 X134.725 Y111.483 E83.72350
G1 X95.014 Y71.772 E88.91774
G1 X95.915 Y71.772 E89.00109
G1 X135.626 Y111.483 E94.19534
G1 X136.527 Y111.483 E94.27869
G1 X96.816 Y71.772 E99.47294
G1 X97.717 Y71.772 E99.55629
G1 X137.428 Y111.483 E104.75054
G1 X138.329 Y111.483 E104.83389
G1 X98.619 Y71.772 E110.02814
G1 X99.520 Y71.772 E110.11149
G1 X139.231 Y111.483 E115.30574
G1 X140.132 Y111.483 E115.38909
G1 X100.421 Y71.772 E120.58334
G1 X101.322 Y71.772 E120.66669
G1 X141.033 Y111.483 E125.86094
G1 X141.934 Y111.483 E125.94429
G1 X102.223 Y71.772 E131.13853
G1 X103.124 Y71.772 E131.22188
G1 X142.835 Y111.483 E136.41613
G1 X143.736 Y111.483 E136.49948
G1 X104.026 Y71.772 E141.69373
G1 X104.927 Y71.772 E141.77708
G1 X144.638 Y111.483 E146.97133
G1 X145.539 Y111.483 E147.05468
G1 X105.828 Y71.772 E152.24893
G1 X106.729 Y71.772 E152.33228
G1 X146.440 Y111.483 E157.52653
G1 X147.341 Y111.483 E157.60988
G1 X107.630 Y71.772 E162.80413
G1 X108.531 Y71.772 E162.88748
G1 X148.242 Y111.483 E168.08173
G1 X149.143 Y111.483 E168.16508
G1 X109.433 Y71.772 E173.35933
G1 X110.334 Y71.772 E173.44268
G1 X150.045 Y111.483 E178.63692
G1 X150.946 Y111.483 E178.72027
G1 X111.235 Y71.772 E183.91452
G1 X112.136 Y71.772 E183.99787
G1 X151.847 Y111.483 E189.19212
G1 X152.748 Y111.483 E189.27547
G1 X113.037 Y71.772 E194.46972
G1 X113.938 Y71.772 E194.55307
G1 X153.649 Y111.483 E199.74732
G1 X154.550 Y111.483 E199.83067
G1 X114.840 Y71.772 E205.02492
G1 X115.741 Y71.772 E205.10827
G1 X155.452 Y111.483 E210.30252
G1 X156.353 Y111.483 E210.38587
G1 X116.642 Y71.772 E215.58012
G1 X117.543 Y71.772 E215.66347
G1 X157.254 Y111.483 E220.85772
G1 X158.155 Y111.483 E220.94106
G1 X118.444 Y71.772 E226.13531
G1 X119.345 Y71.772 E226.21866
G1 X159.056 Y111.483 E231.41291
G1 X159.928 Y111.453 E231.49356
G1 X120.247 Y71.772 E236.68393
G1 X121.148 Y71.772 E236.76728
G1 X159.938 Y110.562 E241.84111
G1 X159.938 Y109.661 E241.92446
G1 X122.049 Y71.772 E246.88042
G1 X122.950 Y71.772 E246.96377
G1 X159.938 Y108.760 E251.80186
G1 X159.938 Y107.859 E251.88521
G1 X123.851 Y71.772 E256.60542
G1 X124.752 Y71.772 E256.68877
G1 X159.938 Y106.958 E261.29111
G1 X159.938 Y106.057 E261.37446
G1 X125.654 Y71.772 E265.85893
G1 X126.555 Y71.772 E265.94228
G1 X159.938 Y105.155 E270.30886
G1 X159.938 Y104.254 E270.39221
G1 X127.456 Y71.772 E274.64093
G1 X128.357 Y71.772 E274.72428
G1 X159.938 Y103.353 E278.85512
G1 X159.938 Y102.452 E278.93847
G1 X129.258 Y71.772 E282.95144
G1 X130.159 Y71.772 E283.03478
G1 X159.938 Y101.551 E286.92988
G1 X159.938 Y100.650 E287.01323
G1 X131.061 Y71.772 E290.79044
G1 X131.962 Y71.772 E290.87379
G1 X159.938 Y99.748 E294.53313
G1 X159.938 Y98.847 E294.61648
G1 X132.863 Y71.772 E298.15795
G1 X133.764 Y71.772 E298.24130
G1 X159.938 Y97.946 E301.66490
G1 X159.938 Y97.045 E301.74824
G1 X134.665 Y71.772 E305.05396
G1 X135.566 Y71.772 E305.13731
G1 X159.938 Y96.144 E308.32516
G1 X159.938 Y95.243 E308.40851
G1 X136.468 Y71.772 E311.47848
G1 X137.369 Y71.772 E311.56183
G1 X159.938 Y94.341 E314.51392
G1 X159.938 Y93.440 E314.59727
G1 X138.270 Y71.772 E317.43149
G1 X139.171 Y71.772 E317.51484
G1 X159.938 Y92.539 E320.23119
G1 X159.938 Y91.638 E320.31454
G1 X140.072 Y71.772 E322.91301
G1 X140.973 Y71.772 E322.99636
G1 X159.938 Y90.737 E325.47696
G1 X159.938 Y89.836 E325.56031
G1 X141.875 Y71.772 E327.92303
G1 X142.776 Y71.772 E328.00638
G1 X159.938 Y88.934 E330.25123
G1 X159.938 Y88.033 E330.33458
G1 X143.677 Y71.772 E332.46155
G1 X144.578 Y71.772 E332.54490
G1 X159.938 Y87.132 E334.55400
G1 X159.938 Y86.231 E334.63735
G1 X145.479 Y71.772 E336.52857
G1 X146.380 Y71.772 E336.61192
G1 X159.938 Y85.330 E338.38527
G1 X159.938 Y84.429 E338.46862
G1 X147.282 Y71.772 E340.12410
G1 X148.183 Y71.772 E340.20745
G1 X159.938 Y83.527 E341.74505
G1 X159.938 Y82.626 E341.82840
G1 X149.084 Y71.772 E343.24813
G1 X149.985 Y71.772 E343.33148
G1 X159.938 Y81.725 E344.63333
G1 X159.938 Y80.824 E344.71668
G1 X150.886 Y71.772 E345.90065
G1 X151.787 Y71.772 E345.98400
G1 X159.938 Y79.923 E347.05011
G1 X159.938 Y79.022 E347.13346
G1 X152.689 Y71.772 E348.08169
G1 X153.590 Y71.772 E348.16504
G1 X159.938 Y78.120 E348.99539
G1 X159.938 Y77.219 E349.07874
G1 X154.491 Y71.772 E349.79122
G1 X155.392 Y71.772 E349.87457
G1 X159.938 Y76.318 E350.46917
G1 X159.938 Y75.417 E350.55252
G1 X156.293 Y71.772 E351.02925
G1 X157.194 Y71.772 E351.11260
G1 X159.938 Y74.516 E351.47146
G1 X159.938 Y73.615 E351.55481
G1 X158.096 Y71.772 E351.79579
G1 X158.997 Y71.772 E351.87914
G1 X159.938 Y72.713 E352.00225
G1 X159.938 Y71.812 E352.08560
G1 X159.898 Y71.772 E352.09083
G1 F2400.000 E349.09083
G92 E0
G1 X109.920 Y116.272 F4200.000
G1 E3.00000 F2400.000
G1 X109.805 Y116.502 E3.01494 F1080.000
G1 X109.805 Y118.287 E3.11886
G1 X109.920 Y118.058 E3.13379
G1 F2400.000 E0.13379
G92 E0
G1 X90.195 Y118.134 F4200.000
G1 E3.00000 F2400.000
G1 X90.080 Y118.363 E3.01494 F1080.000
G1 X90.080 Y116.578 E3.11886
G1 X90.195 Y116.348 E3.13379
M104 S200 ; set temperature
M140 S50 ; set bed temperature
G1 F2400.000 E0.13379
G92 E0
G1 Z-4.300 F4200.000
G1 X90.175 Y118.415 F4200.000
G1 E3.00000 F2400.000
G1 X90.175 Y116.165 E3.01871 F3600.000
G1 X90.100 Y116.165 E3.01933
G1 X90.100 Y118.415 E3.03805
G1 X90.175 Y118.415 E3.03867
G1 F2400.000 E0.03867
G92 E0
G1 X109.900 Y116.365 F4200.000
G1 E3.00000 F2400.000
G1 X109.900 Y116.165 E3.00166 F3600.000
G1 X109.825 Y116.165 E3.00229
G1 X109.825 Y118.415 E3.02100
G1 X109.900 Y118.415 E3.02162
G1 X109.900 Y116.365 E3.03867
G1 F2400.000 E0.03867
G92 E0
G1 Z-4.150 F4200.000
G1 X88.500 Y102.710 F4200.000
G1 E3.00000 F2400.000
G1 X88.500 Y113.022 E3.34297 F2400.000
G1 X39.000 Y113.022 E4.98935
G1 X39.000 Y70.710 E6.39664
G1 X161.000 Y70.710 E10.45438
G1 X161.000 Y113.022 E11.86168
G1 X111.500 Y113.022 E13.50805
G1 X111.500 Y102.710 E13.85103
G1 X88.560 Y102.710 E14.61401
G1 X88.900 Y103.110 F4200.000
G1 X88.900 Y113.422 E14.95699 F2400.000
G1 X38.600 Y113.422 E16.62997
G1 X38.600 Y70.310 E18.06388
G1 X161.400 Y70.310 E22.14822
G1 X161.400 Y113.422 E23.58212
G1 X111.100 Y113.422 E25.25511
G1 X111.100 Y103.110 E25.59808
G1 X88.960 Y103.110 E26.33446
G1 X89.300 Y103.510 F4200.000
G1 X89.300 Y113.745 E26.67487 F1200.000
