; generated by Slic3r 1.1.7 on 2015-04-04 at 18:37:27

; perimeters extrusion width = 0.40mm
; infill extrusion width = 0.67mm
; solid infill extrusion width = 0.67mm
; top infill extrusion width = 0.67mm
; support material extrusion width = 0.40mm

G21 ; set units to millimeters
M107
M190 S65 ; wait for bed temperature to be reached
M104 S240 ; set temperature
G28 ; home all axes
G1 Z5 F5000 ; lift nozzle
M109 S240 ; wait for temperature to be reached
G90 ; use absolute coordinates
G92 E0
M82 ; use absolute distances for extrusion
G1 F2400.000 E-3.00000
G92 E0
G1 Z-4.350 F6000.000
G1 X33.886 Y61.076 F6000.000
G1 E3.00000 F2400.000
G1 X166.114 Y61.076 E15.22998 F1080.000
G1 X170.024 Y64.986 E15.74135
G1 X170.024 Y125.014 E21.29348 F1080.000
G1 X166.114 Y128.924 E21.80486
G1 X33.886 Y128.924 E34.03484
G1 X29.976 Y125.014 E34.54621
G1 X29.976 Y64.986 E40.09834
G1 X33.843 Y61.118 E40.60417
G1 X34.149 Y61.712 F6000.000
G1 X165.851 Y61.712 E52.78544 F1080.000
G1 X169.388 Y65.249 E53.24812 F1080.000
G1 X169.388 Y124.751 E58.75155
G1 X165.851 Y128.288 E59.21422
G1 X34.149 Y128.288 E71.39549
G1 X30.612 Y124.751 E71.85817
G1 X30.612 Y65.249 E77.36160
G1 X34.106 Y61.754 E77.81872
G1 X34.412 Y62.347 F6000.000
G1 X165.588 Y62.347 E89.95129 F1080.000
G1 X168.753 Y65.512 E90.36526
G1 X168.753 Y124.488 E95.81999 F1080.000
G1 X165.588 Y127.653 E96.23396
G1 X34.412 Y127.653 E108.36653
G1 X31.247 Y124.488 E108.78050
G1 X31.247 Y65.512 E114.23523
G1 X34.370 Y62.390 E114.64365
G1 X34.675 Y62.983 F6000.000
G1 X165.325 Y62.983 E126.72752 F1080.000
G1 X168.117 Y65.775 E127.09279 F1080.000
G1 X168.117 Y124.225 E132.49881
G1 X165.325 Y127.017 E132.86408
G1 X34.675 Y127.017 E144.94795
G1 X31.883 Y124.225 E145.31322
G1 X31.883 Y65.775 E150.71924
G1 X34.633 Y63.025 E151.07896
G1 X34.939 Y63.618 F6000.000
G1 X165.061 Y63.618 E163.11413 F1080.000
G1 X167.482 Y66.039 E163.43070
G1 X167.482 Y123.961 E168.78802 F1080.000
G1 X165.061 Y126.382 E169.10458
G1 X34.939 Y126.382 E181.13975
G1 X32.518 Y123.961 E181.45632
G1 X32.518 Y66.039 E186.81364
G1 X34.896 Y63.661 E187.12466
G1 X35.202 Y64.254 F6000.000
G1 X164.798 Y64.254 E199.11112 F1080.000
G1 X166.846 Y66.302 E199.37898 F1080.000
G1 X166.846 Y123.698 E204.68760
G1 X164.798 Y125.746 E204.95547
G1 X35.202 Y125.746 E216.94193
G1 X33.154 Y123.698 E217.20980
G1 X33.154 Y66.302 E222.51842
G1 X35.160 Y64.297 E222.78073
G1 X35.465 Y64.890 F6000.000
G1 X164.535 Y64.890 E234.71849 F1080.000
G1 X166.210 Y66.565 E234.93765
G1 X166.210 Y123.435 E240.19757 F1080.000
G1 X164.535 Y125.110 E240.41673
G1 X35.465 Y125.110 E252.35449
G1 X33.790 Y123.435 E252.57365
G1 X33.790 Y66.565 E257.83357
G1 X35.423 Y64.932 E258.04718
G1 X35.729 Y65.525 F6000.000
G1 X164.271 Y65.525 E269.93624 F1080.000
G1 X165.575 Y66.829 E270.10670 F1080.000
G1 X165.575 Y123.171 E275.31792
G1 X164.271 Y124.475 E275.48838
G1 X35.729 Y124.475 E287.37744
G1 X34.425 Y123.171 E287.54789
G1 X34.425 Y66.829 E292.75911
G1 X35.686 Y65.568 E292.92402
G1 X35.992 Y66.161 F6000.000
G1 X164.008 Y66.161 E304.76438 F1080.000
G1 X164.939 Y67.092 E304.88613
G1 X164.939 Y122.908 E310.04864 F1080.000
G1 X164.008 Y123.839 E310.17040
G1 X35.992 Y123.839 E322.01076
G1 X35.061 Y122.908 E322.13251
G1 X35.061 Y67.092 E327.29503
G1 X35.949 Y66.203 E327.41123
G1 X36.255 Y66.797 F6000.000
G1 X163.745 Y66.797 E339.20289 F1080.000
G1 X164.303 Y67.355 E339.27594 F1080.000
G1 X164.303 Y122.645 E344.38975
G1 X163.745 Y123.203 E344.46281
G1 X36.255 Y123.203 E356.25446
G1 X35.697 Y122.645 E356.32752
G1 X35.697 Y67.355 E361.44133
G1 X36.213 Y66.839 E361.50883
G1 X36.518 Y67.432 F6000.000
G1 X163.482 Y67.432 E373.25178 F1080.000
G1 X163.668 Y67.618 E373.27613
G1 X163.668 Y122.382 E378.34124
G1 X163.482 Y122.568 E378.36559
G1 X36.518 Y122.568 E390.10855
G1 X36.332 Y122.382 E390.13290
G1 X36.332 Y67.618 E395.19801
G1 X36.476 Y67.475 E395.21681
G1 F2400.000 E392.21681
G92 E0
G1 X74.482 Y121.176 F6000.000
G1 E3.00000 F2400.000
G1 X74.029 Y121.744 E3.06722 F360.000
G1 X72.553 Y121.839 E3.20407
G1 X70.864 Y121.893 E3.36031
G1 X69.159 Y121.893 E3.51806
G1 X67.447 Y121.839 E3.67642
G1 X65.971 Y121.744 E3.81327
G1 X65.519 Y121.158 E3.88174
G1 F2400.000 E0.88174
G92 E0
G1 X134.482 Y121.176 F6000.000
G1 E3.00000 F2400.000
G1 X134.029 Y121.744 E3.06722 F360.000
G1 X132.553 Y121.839 E3.20407
G1 X130.864 Y121.893 E3.36031
G1 X129.159 Y121.893 E3.51806
G1 X127.447 Y121.839 E3.67643
G1 X125.971 Y121.744 E3.81328
G1 X125.519 Y121.158 E3.88174
G1 F2400.000 E0.88174
G92 E0
G1 X74.904 Y121.900 F6000.000
G1 E3.00000 F2400.000
G1 X74.860 Y121.440 E3.04271 F360.000
G1 X75.930 Y121.232 E3.14354
G1 X77.584 Y120.798 E3.30174
G1 X79.202 Y120.261 E3.45946
G1 X80.788 Y119.619 E3.61772
G1 X82.326 Y118.878 E3.77554
G1 X83.815 Y118.040 E3.93360
G1 X85.248 Y117.107 E4.09176
G1 X86.615 Y116.087 E4.24950
G1 X87.918 Y114.977 E4.40777
G1 X89.143 Y113.791 E4.56554
G1 X90.292 Y112.525 E4.72367
G1 X91.358 Y111.189 E4.88176
G1 X92.334 Y109.790 E5.03956
G1 X93.221 Y108.326 E5.19782
G1 X94.010 Y106.814 E5.35555
G1 X94.702 Y105.250 E5.51373
G1 X95.293 Y103.647 E5.67176
G1 X95.778 Y102.011 E5.82961
G1 X96.159 Y100.343 E5.98786
G1 X96.431 Y98.661 E6.14544
G1 X96.595 Y96.964 E6.30312
G1 X96.650 Y95.250 E6.46173
G1 X96.595 Y93.536 E6.62035
G1 X96.431 Y91.839 E6.77802
G1 X96.159 Y90.157 E6.93560
G1 X95.778 Y88.489 E7.09385
G1 X95.293 Y86.853 E7.25171
G1 X94.863 Y85.685 E7.36678
G1 X94.895 Y85.685 E7.36978
G1 X94.010 Y83.686 E7.57203
G1 X93.221 Y82.174 E7.72976
G1 X92.334 Y80.711 E7.88802
G1 X91.358 Y79.311 E8.04581
G1 X90.292 Y77.975 E8.20391
G1 X89.143 Y76.709 E8.36204
G1 X87.918 Y75.523 E8.51980
G1 X86.615 Y74.413 E8.67807
G1 X85.248 Y73.393 E8.83582
G1 X83.815 Y72.461 E8.99397
G1 X82.326 Y71.622 E9.15204
G1 X80.789 Y70.882 E9.30986
G1 X79.203 Y70.239 E9.46812
G1 X77.584 Y69.702 E9.62583
G1 X75.930 Y69.268 E9.78404
G1 X74.253 Y68.941 E9.94202
G1 X72.560 Y68.723 E10.09992
G1 X70.853 Y68.614 E10.25815
G1 X69.148 Y68.614 E10.41586
G1 X67.440 Y68.723 E10.57410
G1 X65.747 Y68.941 E10.73200
G1 X64.070 Y69.268 E10.88998
G1 X62.416 Y69.702 E11.04818
G1 X60.798 Y70.239 E11.20590
G1 X59.212 Y70.881 E11.36416
G1 X57.674 Y71.622 E11.52198
G1 X56.185 Y72.460 E11.68004
G1 X54.752 Y73.393 E11.83820
G1 X53.385 Y74.413 E11.99595
G1 X52.082 Y75.523 E12.15422
G1 X50.857 Y76.709 E12.31198
G1 X49.708 Y77.975 E12.47011
G1 X48.642 Y79.311 E12.62821
G1 X47.666 Y80.710 E12.78600
G1 X46.779 Y82.174 E12.94426
G1 X45.990 Y83.686 E13.10199
G1 X45.298 Y85.250 E13.26018
G1 X44.707 Y86.853 E13.41820
G1 X44.222 Y88.489 E13.57606
G1 X43.841 Y90.157 E13.73431
G1 X43.569 Y91.839 E13.89189
G1 X43.405 Y93.536 E14.04956
G1 X43.350 Y95.250 E14.20818
G1 X43.405 Y96.964 E14.36679
G1 X43.569 Y98.661 E14.52447
G1 X43.841 Y100.343 E14.68205
G1 X44.222 Y102.011 E14.84030
G1 X44.707 Y103.647 E14.99816
G1 X45.298 Y105.250 E15.15618
G1 X45.990 Y106.814 E15.31436
G1 X46.779 Y108.326 E15.47209
G1 X47.666 Y109.790 E15.63036
G1 X48.642 Y111.189 E15.78815
G1 X49.708 Y112.525 E15.94624
G1 X50.857 Y113.791 E16.10437
G1 X52.082 Y114.977 E16.26214
G1 X53.385 Y116.087 E16.42041
G1 X54.752 Y117.107 E16.57815
G1 X56.185 Y118.040 E16.73631
G1 X57.674 Y118.878 E16.89437
G1 X59.661 Y119.835 E17.09833
G1 X59.661 Y119.801 E17.10151
G1 X60.798 Y120.261 E17.21492
G1 X62.416 Y120.798 E17.37264
G1 X64.070 Y121.232 E17.53084
G1 X65.140 Y121.440 E17.63167
G1 X65.096 Y121.900 E17.67438
G1 X37.000 Y121.900 E20.27301
G1 X37.000 Y68.100 E25.24902
G1 X163.000 Y68.100 E36.90288
G1 X163.000 Y121.900 E41.87889
G1 X134.904 Y121.900 E44.47752
G1 X134.860 Y121.440 E44.52023
G1 X135.930 Y121.232 E44.62106
G1 X137.584 Y120.798 E44.77927
G1 X139.202 Y120.261 E44.93698
G1 X140.788 Y119.619 E45.09524
G1 X142.326 Y118.878 E45.25306
G1 X143.815 Y118.040 E45.41112
G1 X145.248 Y117.107 E45.56928
G1 X146.615 Y116.087 E45.72703
G1 X147.918 Y114.977 E45.88530
G1 X149.143 Y113.791 E46.04306
G1 X150.292 Y112.525 E46.20119
G1 X151.358 Y111.189 E46.35929
G1 X152.334 Y109.790 E46.51708
G1 X153.221 Y108.326 E46.67534
G1 X154.010 Y106.814 E46.83307
G1 X154.702 Y105.250 E46.99125
G1 X155.293 Y103.647 E47.14928
G1 X155.778 Y102.011 E47.30713
G1 X156.159 Y100.343 E47.46538
G1 X156.431 Y98.661 E47.62296
G1 X156.595 Y96.964 E47.78064
G1 X156.650 Y95.250 E47.93926
G1 X156.595 Y93.536 E48.09787
G1 X156.431 Y91.839 E48.25555
G1 X156.159 Y90.157 E48.41313
G1 X155.778 Y88.489 E48.57138
G1 X155.293 Y86.853 E48.72923
G1 X154.702 Y85.250 E48.88725
G1 X154.010 Y83.686 E49.04543
G1 X153.221 Y82.174 E49.20316
G1 X152.334 Y80.711 E49.36143
G1 X151.358 Y79.311 E49.51922
G1 X150.292 Y77.975 E49.67731
G1 X149.143 Y76.709 E49.83544
G1 X147.918 Y75.523 E49.99321
G1 X146.615 Y74.413 E50.15148
G1 X145.248 Y73.393 E50.30922
G1 X143.815 Y72.461 E50.46738
G1 X142.326 Y71.622 E50.62544
G1 X140.789 Y70.882 E50.78326
G1 X139.203 Y70.239 E50.94152
G1 X137.584 Y69.702 E51.09924
G1 X135.930 Y69.268 E51.25744
G1 X134.253 Y68.941 E51.41543
G1 X132.560 Y68.723 E51.57332
G1 X130.715 Y68.614 E51.74425
G1 X129.148 Y68.614 E51.88924
G1 X127.440 Y68.723 E52.04748
G1 X125.747 Y68.941 E52.20538
G1 X124.070 Y69.268 E52.36336
G1 X122.416 Y69.702 E52.52156
G1 X120.798 Y70.239 E52.67928
G1 X119.212 Y70.881 E52.83754
G1 X117.674 Y71.622 E52.99536
G1 X116.185 Y72.460 E53.15342
G1 X114.752 Y73.393 E53.31158
G1 X113.385 Y74.413 E53.46933
G1 X112.082 Y75.523 E53.62760
G1 X110.857 Y76.709 E53.78536
G1 X109.708 Y77.975 E53.94349
G1 X108.642 Y79.311 E54.10159
G1 X107.666 Y80.710 E54.25938
G1 X106.779 Y82.174 E54.41765
G1 X105.990 Y83.686 E54.57537
G1 X105.298 Y85.250 E54.73356
G1 X104.707 Y86.853 E54.89158
G1 X104.222 Y88.489 E55.04944
G1 X103.841 Y90.157 E55.20769
G1 X103.569 Y91.839 E55.36527
G1 X103.405 Y93.536 E55.52295
G1 X103.350 Y95.250 E55.68156
G1 X103.405 Y96.964 E55.84017
G1 X103.569 Y98.661 E55.99785
G1 X103.841 Y100.343 E56.15543
G1 X104.222 Y102.011 E56.31368
G1 X104.707 Y103.647 E56.47154
G1 X105.298 Y105.250 E56.62956
G1 X105.990 Y106.814 E56.78774
G1 X106.779 Y108.326 E56.94547
G1 X107.666 Y109.790 E57.10374
G1 X108.642 Y111.189 E57.26153
G1 X109.708 Y112.525 E57.41963
G1 X110.857 Y113.791 E57.57775
G1 X112.082 Y114.977 E57.73552
G1 X113.385 Y116.087 E57.89379
G1 X114.752 Y117.107 E58.05153
G1 X116.185 Y118.040 E58.20969
G1 X117.674 Y118.878 E58.36775
G1 X119.661 Y119.835 E58.57171
G1 X119.661 Y119.801 E58.57489
G1 X120.798 Y120.261 E58.68830
G1 X122.416 Y120.798 E58.84602
G1 X124.070 Y121.232 E59.00422
G1 X125.140 Y121.440 E59.10505
G1 X125.096 Y121.900 E59.14776
G1 X74.964 Y121.900 E63.78453
G1 X75.081 Y121.541 F6000.000
G1 F2400.000 E60.78453
G92 E0
G1 X60.344 Y120.869 F6000.000
G1 E3.00000 F2400.000
G1 X60.254 Y121.264 E3.03751 F720.000
G1 X37.636 Y121.264 E5.12947
G1 X37.636 Y68.736 E9.98790
G1 X50.799 Y68.736 E11.20538
G1 X50.913 Y69.086 E11.23950
G1 X50.628 Y69.314 E11.27330
G1 X50.392 Y69.584 E11.30641
G1 X50.210 Y69.888 E11.33920
G1 X50.085 Y70.221 E11.37208
G1 X50.030 Y70.511 E11.39940
G1 X50.013 Y70.751 E11.42161
G1 X50.022 Y70.934 E11.43859
G1 X50.085 Y71.280 E11.47108
G1 X50.211 Y71.613 E11.50400
G1 X50.392 Y71.917 E11.53678
G1 X50.504 Y72.057 E11.55336
G1 X50.761 Y72.303 E11.58625
G1 X51.059 Y72.500 E11.61925
G1 X51.220 Y72.577 E11.63578
G1 X51.557 Y72.687 E11.66860
G1 X51.911 Y72.734 E11.70164
G1 X52.266 Y72.719 E11.73448
G1 X52.443 Y72.687 E11.75106
G1 X52.780 Y72.577 E11.78387
G1 X53.095 Y72.408 E11.81695
G1 X53.372 Y72.186 E11.84975
G1 X53.608 Y71.917 E11.88284
G1 X53.789 Y71.613 E11.91561
G1 X53.915 Y71.280 E11.94854
G1 X53.978 Y70.934 E11.98103
G1 X53.987 Y70.750 E11.99806
G1 X53.978 Y70.566 E12.01509
G1 X53.915 Y70.220 E12.04759
G1 X53.789 Y69.887 E12.08052
G1 X53.607 Y69.583 E12.11331
G1 X53.372 Y69.314 E12.14640
G1 X53.087 Y69.087 E12.18011
G1 X53.201 Y68.736 E12.21425
G1 X61.953 Y68.736 E13.02370
G1 X62.022 Y69.163 E13.06373
G1 X60.578 Y69.642 E13.20446
G1 X58.954 Y70.300 E13.36648
G1 X57.380 Y71.058 E13.52808
G1 X55.856 Y71.917 E13.68991
G1 X54.388 Y72.871 E13.85184
G1 X52.868 Y74.019 E14.02797
G1 X51.655 Y75.052 E14.17536
G1 X50.400 Y76.267 E14.33691
G1 X49.223 Y77.563 E14.49880
G1 X48.132 Y78.931 E14.66067
G1 X47.133 Y80.364 E14.82224
G1 X46.225 Y81.862 E14.98427
G1 X45.417 Y83.410 E15.14577
G1 X44.708 Y85.011 E15.30772
G1 X44.104 Y86.652 E15.46952
G1 X43.607 Y88.328 E15.63115
G1 X43.217 Y90.036 E15.79316
G1 X42.938 Y91.758 E15.95451
G1 X42.771 Y93.495 E16.11595
G1 X42.714 Y95.250 E16.27835
G1 X42.771 Y97.005 E16.44074
G1 X42.938 Y98.742 E16.60218
G1 X43.217 Y100.464 E16.76354
G1 X43.607 Y102.172 E16.92555
G1 X44.104 Y103.848 E17.08718
G1 X44.708 Y105.489 E17.24897
G1 X45.417 Y107.090 E17.41092
G1 X46.225 Y108.638 E17.57243
G1 X47.133 Y110.136 E17.73446
G1 X48.132 Y111.569 E17.89602
G1 X49.223 Y112.937 E18.05789
G1 X50.400 Y114.233 E18.21979
G1 X51.655 Y115.448 E18.38133
G1 X52.989 Y116.584 E18.54336
G1 X54.388 Y117.628 E18.70488
G1 X55.855 Y118.583 E18.86681
G1 X57.380 Y119.442 E19.02864
G1 X60.290 Y120.843 E19.32733
G1 F2400.000 E16.32733
G92 E0
G1 X54.292 Y72.176 F6000.000
G1 E3.00000 F2400.000
G1 X54.528 Y71.449 E3.07071 F720.000
G1 X54.611 Y70.993 E3.11353
G1 X54.623 Y70.750 E3.13605
G1 X54.611 Y70.507 E3.15856
G1 X54.528 Y70.051 E3.20138
G1 X54.455 Y69.827 E3.22320
G1 X54.259 Y69.371 E3.26909
G1 X58.506 Y69.371 E3.66191
G1 X58.597 Y69.767 E3.69942
G1 X57.086 Y70.494 E3.85451
G1 X55.526 Y71.373 E4.02011
G1 X54.342 Y72.143 E4.15073
G1 X52.650 Y73.370 F6000.000
G1 X51.227 Y74.581 E4.32352 F720.000
G1 X49.943 Y75.824 E4.48883
G1 X48.739 Y77.150 E4.65450
G1 X47.622 Y78.550 E4.82014
G1 X46.600 Y80.017 E4.98548
G1 X45.670 Y81.550 E5.15127
G1 X44.844 Y83.134 E5.31655
G1 X44.119 Y84.772 E5.48227
G1 X43.500 Y86.452 E5.64784
G1 X42.992 Y88.167 E5.81324
G1 X42.593 Y89.914 E5.97902
G1 X42.308 Y91.676 E6.14414
G1 X42.136 Y93.454 E6.30935
G1 X42.078 Y95.250 E6.47552
G1 X42.136 Y97.046 E6.64170
G1 X42.308 Y98.824 E6.80690
G1 X42.593 Y100.586 E6.97203
G1 X42.992 Y102.333 E7.13780
G1 X43.500 Y104.048 E7.30321
G1 X44.119 Y105.728 E7.46877
G1 X44.844 Y107.366 E7.63449
G1 X45.670 Y108.950 E7.79977
G1 X46.600 Y110.483 E7.96556
G1 X47.622 Y111.950 E8.13090
G1 X48.739 Y113.350 E8.29654
G1 X49.943 Y114.676 E8.46220
G1 X51.227 Y115.919 E8.62752
G1 X52.592 Y117.081 E8.79332
G1 X54.024 Y118.150 E8.95861
G1 X55.526 Y119.127 E9.12431
G1 X57.086 Y120.006 E9.28991
G1 X57.558 Y120.233 E9.33838
G1 X57.468 Y120.629 E9.37589
G1 X42.294 Y120.629 E10.77929
G1 X42.904 Y120.051 E10.85692
G1 X43.147 Y119.755 E10.89235
G1 X43.269 Y119.564 E10.91331
G1 X43.375 Y119.362 E10.93445
G1 X43.487 Y119.076 E10.96283
G1 X43.582 Y118.708 E10.99799
G1 X43.612 Y118.483 E11.01904
G1 X43.623 Y118.253 E11.04034
G1 X43.592 Y117.867 E11.07612
G1 X43.533 Y117.569 E11.10422
G1 X43.463 Y117.350 E11.12547
G1 X43.305 Y117.003 E11.16075
G1 X43.147 Y116.744 E11.18878
G1 X43.008 Y116.564 E11.20986
G1 X42.741 Y116.291 E11.24517
G1 X42.494 Y116.096 E11.27423
G1 X42.298 Y115.973 E11.29567
G1 X42.090 Y115.866 E11.31727
G1 X41.740 Y115.735 E11.35189
G1 X41.514 Y115.680 E11.37340
G1 X41.198 Y115.636 E11.40290
G1 X40.823 Y115.635 E11.43755
G1 X40.592 Y115.660 E11.45906
G1 X40.365 Y115.706 E11.48049
G1 X40.063 Y115.802 E11.50981
G1 X39.721 Y115.961 E11.54474
G1 X39.523 Y116.083 E11.56618
G1 X39.274 Y116.278 E11.59543
G1 X39.007 Y116.546 E11.63044
G1 X38.864 Y116.729 E11.65194
G1 X38.637 Y117.082 E11.69070
G1 X38.271 Y116.975 E11.72596
G1 X38.271 Y69.371 E16.12885
G1 X49.741 Y69.371 E17.18968
G1 X49.545 Y69.828 E17.23565
G1 X49.472 Y70.052 E17.25745
G1 X49.400 Y70.425 E17.29260
G1 X49.377 Y70.751 E17.32279
G1 X49.420 Y71.221 E17.36647
G1 X49.545 Y71.673 E17.40981
