; generated by Slic3r 1.0.0RC3 on 2015-03-08 at 23:51:34

; layer_height = 0.2
; perimeters = 3
; top_solid_layers = 8
; bottom_solid_layers = 8
; fill_density = 0.2
; perimeter_speed = 40
; infill_speed = 70
; travel_speed = 150
; nozzle_diameter = 0.4
; filament_diameter = 1.75
; extrusion_multiplier = 1
; perimeters extrusion width = 0.40mm
; infill extrusion width = 0.67mm
; solid infill extrusion width = 0.67mm
; top infill extrusion width = 0.67mm
; support material extrusion width = 0.40mm
; first layer extrusion width = 0.70mm

G21 ; set units to millimeters
M107
M190 S65 ; wait for bed temperature to be reached
M104 S220 ; set temperature
G28 ; home all axes
G1 Z5 F5000 ; lift nozzle
M109 S220 ; wait for temperature to be reached
G90 ; use absolute coordinates
G92 E0
M82 ; use absolute distances for extrusion
G1 F2400.000 E-3.00000
G92 E0
G1 Z-4.050 F9000.000
G1 X19.386 Y16.076 F9000.000
G1 E3.00000 F2400.000
G1 X174.614 Y16.076 E17.35727 F1200
G1 X178.524 Y19.986 E17.86865
G1 X178.524 Y88.214 E24.17920
G1 X174.614 Y92.124 E24.69058
G1 X34.572 Y92.124 E37.64321
G1 X34.247 Y92.909 E37.72178
G1 X90.808 Y149.469 E45.12003
G1 X91.824 Y151.922 E45.36560
G1 X91.824 Y162.014 E46.29902
G1 X87.914 Y165.924 E46.81040
G1 X21.386 Y165.924 E52.96372
G1 X17.476 Y162.014 E53.47510
G1 X17.476 Y155.151 E54.10987
G1 X17.379 Y154.918 E54.13326
G1 X15.476 Y153.014 E54.38221
G1 X15.476 Y88.986 E60.30430
G1 X15.598 Y88.863 E60.32030
G1 X15.598 Y88.337 E60.36900
G1 X15.476 Y88.214 E60.38499
G1 X15.476 Y19.986 E66.69555
G1 X19.318 Y16.143 E67.19811
G1 X19.649 Y16.712 F9000.000
G1 X174.351 Y16.712 E81.50667 F1200
G1 X177.888 Y20.249 E81.96935
G1 X177.888 Y87.951 E88.23120
G1 X174.351 Y91.488 E88.69388
G1 X33.038 Y91.488 E101.76409
G1 X32.713 Y92.273 E101.84265
G1 X90.269 Y149.830 E109.37114
G1 X91.188 Y152.049 E109.59332
G1 X91.188 Y161.751 E110.49070
G1 X87.651 Y165.288 E110.95337
G1 X21.649 Y165.288 E117.05799
G1 X18.112 Y161.751 E117.52066
G1 X18.112 Y154.888 E118.15544
G1 X18.015 Y154.654 E118.17883
G1 X16.112 Y152.751 E118.42778
G1 X16.112 Y89.249 E124.30117
G1 X16.497 Y88.863 E124.35160
G1 X16.497 Y88.337 E124.40030
G1 X16.112 Y87.951 E124.45073
G1 X16.112 Y20.249 E130.71259
G1 X19.581 Y16.779 E131.16644
G1 X19.912 Y17.347 F9000.000
G1 X174.088 Y17.347 E145.42631 F1200
G1 X177.253 Y20.512 E145.84028
G1 X177.253 Y87.688 E152.05343
G1 X174.088 Y90.853 E152.46740
G1 X31.503 Y90.853 E165.65519
G1 X31.178 Y91.638 E165.73376
G1 X89.730 Y150.190 E173.39248
G1 X90.553 Y152.175 E173.59127
G1 X90.553 Y161.488 E174.45260
G1 X87.388 Y164.653 E174.86657
G1 X21.912 Y164.653 E180.92249
G1 X18.747 Y161.488 E181.33646
G1 X18.747 Y154.625 E181.97124
G1 X18.650 Y154.391 E181.99463
G1 X16.747 Y152.488 E182.24358
G1 X16.747 Y89.512 E188.06827
G1 X17.396 Y88.863 E188.15314
G1 X17.396 Y88.337 E188.20184
G1 X16.747 Y87.688 E188.28670
G1 X16.747 Y20.512 E194.49986
G1 X19.845 Y17.415 E194.90501
G1 X20.175 Y17.983 F9000.000
G1 X173.825 Y17.983 E209.11617 F1200
G1 X176.617 Y20.775 E209.48144
G1 X176.617 Y87.425 E215.64589
G1 X173.825 Y90.217 E216.01116
G1 X29.969 Y90.217 E229.31653
G1 X29.644 Y91.002 E229.39509
G1 X89.191 Y150.550 E237.18405
G1 X89.917 Y152.302 E237.35946
G1 X89.917 Y161.225 E238.18474
G1 X87.125 Y164.017 E238.55001
G1 X22.175 Y164.017 E244.55723
G1 X19.383 Y161.225 E244.92250
G1 X19.383 Y154.361 E245.55728
G1 X19.286 Y154.128 E245.58066
G1 X17.383 Y152.225 E245.82961
G1 X17.383 Y89.775 E251.60560
G1 X18.295 Y88.863 E251.72490
G1 X18.295 Y88.337 E251.77361
G1 X17.383 Y87.425 E251.89291
G1 X17.383 Y20.775 E258.05736
G1 X20.108 Y18.050 E258.41381
G1 X20.439 Y18.618 F9000.000
G1 X173.561 Y18.618 E272.57627 F1200
G1 X175.982 Y21.039 E272.89284
G1 X175.982 Y87.161 E279.00859
G1 X173.561 Y89.582 E279.32515
G1 X28.654 Y89.582 E292.72778
G1 X28.282 Y89.954 E292.77649
G1 X28.282 Y90.402 E292.81792
G1 X28.378 Y90.635 E292.84130
G1 X88.653 Y150.910 E300.72529
G1 X89.282 Y152.428 E300.87731
G1 X89.282 Y160.961 E301.66655
G1 X86.861 Y163.382 E301.98312
G1 X22.439 Y163.382 E307.94163
G1 X20.018 Y160.961 E308.25820
G1 X20.018 Y154.098 E308.89298
G1 X19.922 Y153.865 E308.91637
G1 X18.018 Y151.961 E309.16531
G1 X18.018 Y90.039 E314.89260
G1 X19.194 Y88.863 E315.04634
G1 X19.194 Y88.337 E315.09504
G1 X18.018 Y87.161 E315.24879
G1 X18.018 Y21.039 E321.36453
G1 X20.371 Y18.686 E321.67228
G1 X20.702 Y19.254 F9000.000
G1 X173.298 Y19.254 E335.78604 F1200
G1 X175.346 Y21.302 E336.05390
G1 X175.346 Y86.898 E342.12095
G1 X173.298 Y88.946 E342.38881
G1 X27.400 Y88.946 E355.88309
G1 X27.075 Y89.731 E355.96166
G1 X27.646 Y90.302 E356.03638
G1 X27.646 Y90.665 E356.06997
G1 X27.743 Y90.899 E356.09336
G1 X88.114 Y151.270 E363.99000
G1 X88.646 Y152.555 E364.11863
G1 X88.646 Y160.698 E364.87183
G1 X86.598 Y162.746 E365.13969
G1 X22.702 Y162.746 E371.04950
G1 X20.654 Y160.698 E371.31737
G1 X20.654 Y153.835 E371.95215
G1 X20.557 Y153.601 E371.97553
G1 X18.654 Y151.698 E372.22448
G1 X18.654 Y90.302 E377.90306
G1 X20.093 Y88.863 E378.09124
G1 X20.093 Y88.337 E378.13995
G1 X18.654 Y86.898 E378.32813
G1 X18.654 Y21.302 E384.39517
G1 X20.635 Y19.322 E384.65422
G1 X20.965 Y19.890 F9000.000
G1 X173.035 Y19.890 E398.71927 F1200
G1 X174.710 Y21.565 E398.93844
G1 X174.710 Y86.635 E404.95678
G1 X173.035 Y88.310 E405.17594
G1 X25.865 Y88.310 E418.78780
G1 X25.540 Y89.095 E418.86636
G1 X27.010 Y90.565 E419.05866
G1 X27.010 Y90.928 E419.09225
G1 X27.107 Y91.162 E419.11564
G1 X87.575 Y151.630 E427.02494
G1 X88.010 Y152.681 E427.13019
G1 X88.010 Y160.435 E427.84734
G1 X86.335 Y162.110 E428.06650
G1 X22.965 Y162.110 E433.92761
G1 X21.290 Y160.435 E434.14677
G1 X21.290 Y153.572 E434.78155
G1 X21.193 Y153.338 E434.80493
G1 X19.290 Y151.435 E435.05388
G1 X19.290 Y90.565 E440.68376
G1 X20.992 Y88.863 E440.90638
G1 X20.992 Y88.337 E440.95508
G1 X19.290 Y86.635 E441.17770
G1 X19.290 Y21.565 E447.19604
G1 X20.898 Y19.957 E447.40639
G1 X21.229 Y20.525 F9000.000
G1 X172.771 Y20.525 E461.42274 F1200
G1 X174.075 Y21.829 E461.59320
G1 X174.075 Y86.371 E467.56284
G1 X172.771 Y87.675 E467.73330
G1 X21.229 Y87.675 E481.74965
G1 X19.925 Y86.371 E481.92011
G1 X19.925 Y21.829 E487.88975
G1 X21.161 Y20.593 E488.05139
G1 X21.492 Y21.161 F9000.000
G1 X172.508 Y21.161 E502.01904 F1200
G1 X173.439 Y22.092 E502.14080
G1 X173.439 Y86.108 E508.06174
G1 X172.508 Y87.039 E508.18350
G1 X21.492 Y87.039 E522.15115
G1 X20.561 Y86.108 E522.27290
G1 X20.561 Y22.092 E528.19384
G1 X21.424 Y21.228 E528.30678
G1 X21.755 Y21.797 F9000.000
G1 X172.245 Y21.797 E542.22573 F1200
G1 X172.803 Y22.355 E542.29878
G1 X172.803 Y85.845 E548.17102
G1 X172.245 Y86.403 E548.24407
G1 X21.755 Y86.403 E562.16302
G1 X21.197 Y85.845 E562.23608
G1 X21.197 Y22.355 E568.10831
G1 X21.688 Y21.864 E568.17255
G1 X22.018 Y22.432 F9000.000
G1 X171.982 Y22.432 E582.04279 F1200
G1 X172.168 Y22.618 E582.06715
G1 X172.168 Y85.582 E587.89068
G1 X171.982 Y85.768 E587.91503
G1 X22.018 Y85.768 E601.78528
G1 X21.832 Y85.582 E601.80963
G1 X21.832 Y22.618 E607.63316
G1 X21.951 Y22.500 E607.64870
G1 F2400.000 E604.64870
G92 E0
G1 X21.229 Y89.525 F9000.000
G1 E3.00000 F2400.000
G1 X25.071 Y89.525 E3.35544 F1200
G1 X26.375 Y90.829 E3.52590
G1 X26.375 Y91.192 E3.55949
G1 X26.471 Y91.425 E3.58287
G1 X87.036 Y151.990 E11.50484
G1 X87.375 Y152.807 E11.58669
G1 X87.375 Y160.171 E12.26780
G1 X86.071 Y161.475 E12.43826
G1 X23.229 Y161.475 E18.25066
G1 X21.925 Y160.171 E18.42112
G1 X21.925 Y152.847 E19.09857
G1 X21.553 Y152.475 E19.14727
G1 X21.229 Y152.475 E19.17728
G1 X19.925 Y151.171 E19.34774
G1 X19.925 Y90.829 E24.92892
G1 X21.161 Y89.593 E25.09056
G1 X21.492 Y90.161 F9000.000
G1 X24.808 Y90.161 E25.39730 F1200
G1 X25.739 Y91.092 E25.51905
G1 X25.739 Y91.455 E25.55264
G1 X25.836 Y91.689 E25.57603
G1 X86.497 Y152.350 E33.51065
G1 X86.739 Y152.934 E33.56912
G1 X86.739 Y159.908 E34.21418
G1 X85.808 Y160.839 E34.33593
G1 X23.492 Y160.839 E40.09964
G1 X22.561 Y159.908 E40.22139
G1 X22.561 Y152.211 E40.93328
G1 X22.189 Y151.839 E40.98198
G1 X21.492 Y151.839 E41.04643
G1 X20.561 Y150.908 E41.16819
G1 X20.561 Y91.092 E46.70066
G1 X21.424 Y90.228 E46.81360
G1 X21.755 Y90.797 F9000.000
G1 X24.545 Y90.797 E47.07164 F1200
G1 X25.103 Y91.355 E47.14469
G1 X25.103 Y91.718 E47.17828
G1 X25.200 Y91.952 E47.20167
G1 X85.958 Y152.710 E55.14894
G1 X86.103 Y153.060 E55.18402
G1 X86.103 Y159.645 E55.79304
G1 X85.545 Y160.203 E55.86609
G1 X23.755 Y160.203 E61.58109
G1 X23.197 Y159.645 E61.65415
G1 X23.197 Y151.576 E62.40047
G1 X22.824 Y151.203 E62.44917
G1 X21.755 Y151.203 E62.54806
G1 X21.197 Y150.645 E62.62111
G1 X21.197 Y91.355 E68.10489
G1 X21.688 Y90.864 E68.16912
G1 X22.018 Y91.432 F9000.000
G1 X24.282 Y91.432 E68.37846 F1200
G1 X24.468 Y91.618 E68.40281
G1 X24.468 Y91.982 E68.43640
G1 X24.565 Y92.215 E68.45978
G1 X85.419 Y153.070 E76.41972
G1 X85.468 Y153.187 E76.43141
G1 X85.468 Y159.382 E77.00438
G1 X85.282 Y159.568 E77.02873
G1 X24.018 Y159.568 E82.69503
G1 X23.832 Y159.382 E82.71938
G1 X23.832 Y150.940 E83.50014
G1 X23.460 Y150.568 E83.54885
G1 X22.018 Y150.568 E83.68217
G1 X21.832 Y150.382 E83.70652
G1 X21.832 Y91.618 E89.14159
G1 X21.951 Y91.500 E89.15713
G1 F2400.000 E86.15713
G92 E0
G1 X22.500 Y85.100 F9000.000
G1 E3.00000 F2400.000
G1 X22.500 Y23.100 E8.73444 F1200
G1 X171.500 Y23.100 E22.51559
G1 X171.500 Y85.100 E28.25003
G1 X22.595 Y85.100 E42.02236
G1 X22.818 Y84.550 F9000.000
G1 X23.136 Y84.464 F9000.000
G1 X23.136 Y23.736 E47.63922 F1200
G1 X170.864 Y23.736 E61.30280
G1 X170.864 Y84.464 E66.91966
G1 X23.231 Y84.464 E80.57441
G1 X23.771 Y83.829 F9000.000
G1 X23.771 Y24.371 E86.07370 F1200
G1 X170.229 Y24.371 E99.61969
G1 X170.229 Y83.829 E105.11898
G1 X23.867 Y83.829 E118.65615
G1 X27.300 Y80.800 F9000.000
G1 X27.300 Y27.600 E123.57667 F1200
G1 X95.000 Y27.600 E129.83831
G1 X95.000 Y80.800 E134.75883
G1 X27.395 Y80.800 E141.01165
G1 X26.664 Y80.800 F9000.000
G1 X26.664 Y81.436 F9000.000
G1 X26.664 Y26.964 E146.04974 F1200
G1 X95.636 Y26.964 E152.42896
G1 X95.636 Y81.436 E157.46706
G1 X26.760 Y81.436 E163.83745
G1 X26.029 Y82.071 F9000.000
G1 X26.029 Y26.329 E168.99313 F1200
G1 X96.271 Y26.329 E175.48992
G1 X96.271 Y82.071 E180.64560
G1 X26.124 Y82.071 E187.13357
G1 X99.300 Y80.800 F9000.000
G1 X99.300 Y27.600 E192.05409 F1200
G1 X167.000 Y27.600 E198.31573
G1 X167.000 Y80.800 E203.23625
G1 X99.395 Y80.800 E209.48907
G1 X98.664 Y80.800 F9000.000
G1 X98.664 Y81.436 F9000.000
G1 X98.664 Y26.964 E214.52717 F1200
G1 X167.636 Y26.964 E220.90638
G1 X167.636 Y81.436 E225.94448
G1 X98.760 Y81.436 E232.31488
G1 X98.029 Y82.071 F9000.000
G1 X98.029 Y26.329 E237.47055 F1200
G1 X168.271 Y26.329 E243.96735
G1 X168.271 Y82.071 E249.12302
G1 X98.124 Y82.071 E255.61100
G1 F2400.000 E252.61100
G92 E0
G1 X84.800 Y153.395 F9000.000
G1 E3.00000 F2400.000
G1 X84.800 Y158.900 E3.50916 F1200
G1 X24.500 Y158.900 E9.08637
G1 X24.500 Y149.900 E9.91879
G1 X22.500 Y149.900 E10.10377
G1 X22.500 Y92.100 E15.44975
G1 X23.800 Y92.100 E15.56998
G1 X23.800 Y92.395 E15.59727
G1 X84.733 Y153.328 E23.56737
G1 X84.351 Y153.844 F9000.000
G1 X84.164 Y153.658 F9000.000
G1 X84.164 Y158.264 E23.99339 F1200
G1 X25.136 Y158.264 E29.45302
G1 X25.136 Y149.264 E30.28544
G1 X23.136 Y149.264 E30.47042
G1 X23.136 Y92.629 E35.70863
G1 X84.097 Y153.591 E43.68250
G1 X83.529 Y153.922 F9000.000
G1 X83.529 Y157.629 E44.02538 F1200
G1 X25.771 Y157.629 E49.36743
G1 X25.771 Y148.629 E50.19985
G1 X23.771 Y148.629 E50.38483
G1 X23.771 Y94.164 E55.42232
G1 X83.461 Y153.854 E63.22991
G1 X26.242 Y157.178 F9000.000
G1 X26.222 Y157.158 E63.23255 F1200
G1 X26.222 Y156.251 E63.31728
G1 X27.149 Y157.178 E63.43974
G1 X28.057 Y157.178 E63.52447
G1 X26.222 Y155.343 E63.76676
G1 X26.222 Y154.436 E63.85149
G1 X28.964 Y157.178 E64.21360
G1 X29.872 Y157.178 E64.29833
G1 X26.222 Y153.528 E64.78027
G1 X26.222 Y152.621 E64.86500
G1 X30.779 Y157.178 E65.46676
G1 X31.687 Y157.178 E65.55149
G1 X26.222 Y151.713 E66.27307
G1 X26.222 Y150.806 E66.35780
G1 X32.594 Y157.178 E67.19921
G1 X33.502 Y157.178 E67.28394
G1 X26.222 Y149.898 E68.24518
G1 X26.222 Y148.991 E68.32991
G1 X34.409 Y157.178 E69.41096
G1 X35.317 Y157.178 E69.49569
G1 X24.222 Y146.083 E70.96067
G1 X24.222 Y145.176 E71.04540
G1 X36.224 Y157.178 E72.63019
G1 X37.131 Y157.178 E72.71492
G1 X24.222 Y144.269 E74.41955
G1 X24.222 Y143.361 E74.50427
G1 X38.039 Y157.178 E76.32872
G1 X38.946 Y157.178 E76.41345
G1 X24.222 Y142.454 E78.35772
G1 X24.222 Y141.546 E78.44245
G1 X39.854 Y157.178 E80.50654
G1 X40.761 Y157.178 E80.59127
G1 X24.222 Y140.639 E82.77519
G1 X24.222 Y139.731 E82.85992
G1 X41.669 Y157.178 E85.16366
G1 X42.576 Y157.178 E85.24839
G1 X24.222 Y138.824 E87.67196
G1 X24.222 Y137.916 E87.75669
G1 X43.484 Y157.178 E90.30008
G1 X44.391 Y157.178 E90.38481
G1 X24.222 Y137.009 E93.04802
G1 X24.222 Y136.102 E93.13275
G1 X45.298 Y157.178 E95.91579
G1 X46.206 Y157.178 E96.00052
G1 X24.222 Y135.194 E98.90339
G1 X24.222 Y134.287 E98.98812
G1 X47.113 Y157.178 E102.01080
G1 X48.021 Y157.178 E102.09553
G1 X24.222 Y133.379 E105.23805
G1 X24.222 Y132.472 E105.32277
G1 X48.928 Y157.178 E108.58511
G1 X49.836 Y157.178 E108.66984
G1 X24.222 Y131.564 E112.05200
G1 X24.222 Y130.657 E112.13673
G1 X50.743 Y157.178 E115.63872
G1 X51.651 Y157.178 E115.72344
G1 X24.222 Y129.749 E119.34525
G1 X24.222 Y128.842 E119.42998
G1 X52.558 Y157.178 E123.17162
G1 X53.465 Y157.178 E123.25635
G1 X24.222 Y127.935 E127.11780
G1 X24.222 Y127.027 E127.20253
G1 X54.373 Y157.178 E131.18382
G1 X55.280 Y157.178 E131.26854
G1 X24.222 Y126.120 E135.36965
G1 X24.222 Y125.212 E135.45438
G1 X56.188 Y157.178 E139.67531
G1 X57.095 Y157.178 E139.76004
G1 X24.222 Y124.305 E144.10079
G1 X24.222 Y123.397 E144.18552
G1 X58.003 Y157.178 E148.64610
G1 X58.910 Y157.178 E148.73083
G1 X24.222 Y122.490 E153.31124
G1 X24.222 Y121.582 E153.39596
G1 X59.818 Y157.178 E158.09619
G1 X60.725 Y157.178 E158.18092
G1 X24.222 Y120.675 E163.00097
G1 X24.222 Y119.768 E163.08570
G1 X61.632 Y157.178 E168.02558
G1 X62.540 Y157.178 E168.11031
G1 X24.222 Y118.860 E173.17001
G1 X24.222 Y117.953 E173.25474
G1 X63.447 Y157.178 E178.43426
G1 X64.355 Y157.178 E178.51899
G1 X24.222 Y117.045 E183.81834
G1 X24.222 Y116.138 E183.90307
G1 X65.262 Y157.178 E189.32224
G1 X66.170 Y157.178 E189.40697
G1 X24.222 Y115.230 E194.94597
G1 X24.222 Y114.323 E195.03069
G1 X67.077 Y157.178 E200.68952
G1 X67.985 Y157.178 E200.77424
G1 X24.222 Y113.415 E206.55289
G1 X24.222 Y112.508 E206.63762
G1 X68.892 Y157.178 E212.53609
G1 X69.799 Y157.178 E212.62082
G1 X24.222 Y111.600 E218.63911
G1 X24.222 Y110.693 E218.72384
G1 X70.707 Y157.178 E224.86196
G1 X71.614 Y157.178 E224.94669
G1 X24.222 Y109.786 E231.20463
G1 X24.222 Y108.878 E231.28936
G1 X72.522 Y157.178 E237.66713
G1 X73.429 Y157.178 E237.75185
G1 X24.222 Y107.971 E244.24945
G1 X24.222 Y107.063 E244.33417
G1 X74.337 Y157.178 E250.95159
G1 X75.244 Y157.178 E251.03632
G1 X24.222 Y106.156 E257.77356
G1 X24.222 Y105.248 E257.85829
G1 X76.152 Y157.178 E264.71535
G1 X77.059 Y157.178 E264.80008
G1 X24.222 Y104.341 E271.77697
G1 X24.222 Y103.433 E271.86170
G1 X77.967 Y157.178 E278.95841
G1 X78.874 Y157.178 E279.04314
G1 X24.222 Y102.526 E286.25967
G1 X24.222 Y101.619 E286.34440
G1 X79.781 Y157.178 E293.68076
G1 X80.689 Y157.178 E293.76549
G1 X24.222 Y100.711 E301.22168
G1 X24.222 Y99.804 E301.30641
G1 X81.596 Y157.178 E308.88242
G1 X82.504 Y157.178 E308.96714
G1 X24.222 Y98.896 E316.66298
G1 X24.222 Y97.989 E316.74771
G1 X83.078 Y156.845 E324.51936
G1 X83.078 Y155.937 E324.60409
G1 X24.222 Y97.081 E332.37574
G1 X24.222 Y96.174 E332.46047
G1 X83.078 Y155.030 E340.23212
G1 X83.078 Y154.122 E340.31685
