; generated by Slic3r 1.0.0RC3 on 2015-03-09 at 23:33:10

; layer_height = 0.2
; perimeters = 3
; top_solid_layers = 8
; bottom_solid_layers = 8
; fill_density = 0.2
; perimeter_speed = 40
; infill_speed = 70
; travel_speed = 100
; nozzle_diameter = 0.4
; filament_diameter = 1.75
; extrusion_multiplier = 1
; perimeters extrusion width = 0.40mm
; infill extrusion width = 0.67mm
; solid infill extrusion width = 0.67mm
; top infill extrusion width = 0.67mm
; support material extrusion width = 0.40mm
; first layer extrusion width = 0.70mm

G21 ; set units to millimeters
M107
M190 S65 ; wait for bed temperature to be reached
M104 S220 ; set temperature
G28 ; home all axes
G1 Z5 F5000 ; lift nozzle
M109 S220 ; wait for temperature to be reached
G90 ; use absolute coordinates
G92 E0
M82 ; use absolute distances for extrusion
G1 F2400.000 E-3.00000
G92 E0
G1 Z-4.050 F6000.000
G1 X22.550 Y46.497 F6000.000
G1 E3.00000 F2400.000
G1 X23.750 Y46.087 E3.11729 F720.000
G1 X25.000 Y45.937 E3.23373
G1 X175.000 Y45.937 E17.10737
G1 X176.250 Y46.087 E17.22382
G1 X177.450 Y46.497 E17.34111
G1 X178.510 Y47.167 E17.45709
G1 X179.410 Y48.067 E17.57481
G1 X180.080 Y49.127 E17.69079
G1 X180.490 Y50.327 E17.80808
G1 X180.640 Y51.577 E17.92453
G1 X180.640 Y137.927 E25.91112
G1 X180.490 Y139.177 E26.02756
G1 X180.080 Y140.377 E26.14485
G1 X179.410 Y141.437 E26.26083
G1 X178.510 Y142.337 E26.37856
G1 X177.450 Y143.007 E26.49454
G1 X176.250 Y143.417 E26.61183
G1 X175.000 Y143.567 E26.72827
G1 X25.000 Y143.567 E40.60191
G1 X23.750 Y143.417 E40.71836
G1 X22.550 Y143.007 E40.83564
G1 X21.490 Y142.337 E40.95163
G1 X20.590 Y141.437 E41.06935
G1 X19.920 Y140.377 E41.18533
G1 X19.510 Y139.177 E41.30262
G1 X19.360 Y137.927 E41.41906
G1 X19.360 Y51.577 E49.40566
G1 X19.510 Y50.327 E49.52210
G1 X19.920 Y49.127 E49.63939
G1 X20.590 Y48.067 E49.75537
G1 X21.490 Y47.167 E49.87309
G1 X22.469 Y46.548 E49.98026
G1 F2400.000 E46.98026
G92 E0
G1 X167.541 Y62.523 F6000.000
G1 E3.00000 F2400.000
G1 X167.650 Y61.934 E3.05546 F540.000
G1 X167.779 Y61.552 E3.09273
G1 X167.931 Y61.223 E3.12622
G1 X168.230 Y60.766 E3.17678
G1 X168.382 Y60.591 E3.19820
G1 X168.632 Y60.357 E3.22986
G1 X168.919 Y60.156 E3.26233
G1 X169.075 Y60.071 E3.27873
G1 X169.260 Y59.992 E3.29735
G1 X169.575 Y59.899 E3.32772
G1 X169.919 Y59.855 E3.35974
G1 X170.099 Y59.856 E3.37644
G1 X170.291 Y59.875 E3.39423
G1 X170.611 Y59.947 E3.42463
G1 X170.931 Y60.075 E3.45651
G1 X171.099 Y60.167 E3.47418
G1 X171.376 Y60.364 E3.50567
G1 X171.523 Y60.493 E3.52374
G1 X171.753 Y60.745 E3.55531
G1 X171.890 Y60.928 E3.57641
G1 X172.071 Y61.226 E3.60867
G1 X172.223 Y61.557 E3.64232
G1 X172.399 Y62.140 E3.69865
G1 X172.459 Y62.525 E3.73472
G1 X172.486 Y62.960 E3.77504
G1 X172.435 Y63.582 E3.83274
G1 X172.291 Y64.184 E3.89000
G1 X172.069 Y64.701 E3.94203
G1 X171.770 Y65.158 E3.99260
G1 X171.513 Y65.440 E4.02788
G1 X171.242 Y65.662 E4.06029
G1 X171.081 Y65.768 E4.07813
G1 X170.925 Y65.853 E4.09450
G1 X170.594 Y65.982 E4.12736
G1 X170.230 Y66.056 E4.16173
G1 X170.035 Y66.069 E4.17981
G1 X169.755 Y66.054 E4.20574
G1 X169.389 Y65.977 E4.24036
G1 X169.068 Y65.849 E4.27227
G1 X168.901 Y65.757 E4.28991
G1 X168.594 Y65.535 E4.32495
G1 X168.349 Y65.300 E4.35639
G1 X168.225 Y65.152 E4.37423
G1 X167.929 Y64.698 E4.42434
G1 X167.708 Y64.179 E4.47652
G1 X167.601 Y63.784 E4.51435
G1 X167.523 Y63.187 E4.57007
G1 X167.514 Y62.964 E4.59072
G1 X167.533 Y62.618 E4.62272
G1 X168.171 Y62.608 F6000.000
G1 X168.264 Y62.101 E4.67043 F540.000
G1 X168.431 Y61.646 E4.71522
G1 X168.569 Y61.388 E4.74229
G1 X168.731 Y61.157 E4.76841
G1 X169.030 Y60.853 E4.80780
G1 X169.355 Y60.642 E4.84368
G1 X169.588 Y60.551 E4.86680
G1 X169.817 Y60.502 E4.88844
G1 X170.195 Y60.504 E4.92340
G1 X170.424 Y60.555 E4.94511
G1 X170.652 Y60.646 E4.96786
G1 X170.879 Y60.784 E4.99240
G1 X171.083 Y60.953 E5.01690
G1 X171.352 Y61.268 E5.05526
G1 X171.577 Y61.663 E5.09728
G1 X171.737 Y62.104 E5.14062
G1 X171.828 Y62.597 E5.18698
G1 X171.850 Y62.961 E5.22077
G1 X171.843 Y63.150 E5.23825
G1 X171.773 Y63.672 E5.28699
G1 X171.688 Y63.981 E5.31657
G1 X171.575 Y64.265 E5.34489
G1 X171.431 Y64.536 E5.37322
G1 X171.176 Y64.877 E5.41265
G1 X170.971 Y65.070 E5.43871
G1 X170.645 Y65.281 E5.47461
G1 X170.293 Y65.403 E5.50907
G1 X170.037 Y65.433 E5.53291
G1 X169.696 Y65.400 E5.56459
G1 X169.347 Y65.277 E5.59875
G1 X169.022 Y65.065 E5.63468
G1 X168.820 Y64.872 E5.66055
G1 X168.565 Y64.529 E5.70003
G1 X168.423 Y64.261 E5.72812
G1 X168.263 Y63.820 E5.77148
G1 X168.195 Y63.501 E5.80167
G1 X168.157 Y63.149 E5.83443
G1 X168.163 Y62.703 E5.87565
G1 X167.761 Y62.295 F6000.000
G1 X32.486 Y62.960 F6000.000
G1 X32.435 Y63.582 E5.93335 F540.000
G1 X32.291 Y64.184 E5.99062
G1 X32.069 Y64.701 E6.04263
G1 X31.770 Y65.158 E6.09321
G1 X31.619 Y65.333 E6.11452
G1 X31.368 Y65.566 E6.14623
G1 X31.081 Y65.768 E6.17873
G1 X30.925 Y65.853 E6.19511
G1 X30.553 Y65.992 E6.23188
G1 X30.275 Y66.051 E6.25810
G1 X30.081 Y66.069 E6.27614
G1 X29.901 Y66.068 E6.29281
G1 X29.560 Y66.022 E6.32465
G1 X29.389 Y65.977 E6.34101
G1 X29.068 Y65.849 E6.37292
G1 X28.901 Y65.757 E6.39056
G1 X28.623 Y65.559 E6.42210
G1 X28.477 Y65.431 E6.44013
G1 X28.246 Y65.178 E6.47176
G1 X28.111 Y64.996 E6.49276
G1 X27.929 Y64.698 E6.52504
G1 X27.708 Y64.179 E6.57721
G1 X27.564 Y63.580 E6.63421
G1 X27.514 Y62.964 E6.69136
G1 X27.565 Y62.342 E6.74907
G1 X27.709 Y61.740 E6.80634
G1 X27.931 Y61.223 E6.85836
G1 X28.230 Y60.766 E6.90889
G1 X28.382 Y60.591 E6.93033
G1 X28.632 Y60.357 E6.96198
G1 X28.919 Y60.156 E6.99444
G1 X29.075 Y60.071 E7.01085
G1 X29.448 Y59.931 E7.04767
G1 X29.724 Y59.873 E7.07376
G1 X29.919 Y59.855 E7.09184
G1 X30.099 Y59.856 E7.10854
G1 X30.440 Y59.902 E7.14034
G1 X30.794 Y60.013 E7.17470
G1 X31.099 Y60.167 E7.20624
G1 X31.251 Y60.268 E7.22319
G1 X31.523 Y60.493 E7.25580
G1 X31.651 Y60.624 E7.27277
G1 X31.979 Y61.064 E7.32348
G1 X32.234 Y61.586 E7.37719
G1 X32.399 Y62.140 E7.43064
G1 X32.459 Y62.525 E7.46670
G1 X32.483 Y62.865 E7.49822
G1 X31.850 Y62.961 F6000.000
G1 X31.806 Y63.490 E7.54727 F540.000
G1 X31.736 Y63.823 E7.57880
G1 X31.575 Y64.265 E7.62231
G1 X31.349 Y64.661 E7.66445
G1 X31.076 Y64.978 E7.70310
G1 X30.757 Y65.220 E7.74016
G1 X30.412 Y65.372 E7.77511
G1 X30.055 Y65.433 E7.80857
G1 X29.696 Y65.400 E7.84194
G1 X29.347 Y65.277 E7.87609
G1 X29.022 Y65.065 E7.91202
G1 X28.727 Y64.762 E7.95116
G1 X28.491 Y64.400 E7.99109
G1 X28.311 Y63.977 E8.03362
G1 X28.193 Y63.488 E8.08015
G1 X28.150 Y62.963 E8.12890
G1 X28.194 Y62.434 E8.17795
G1 X28.264 Y62.101 E8.20947
G1 X28.425 Y61.659 E8.25297
G1 X28.651 Y61.263 E8.29515
G1 X28.924 Y60.946 E8.33380
G1 X29.243 Y60.704 E8.37084
G1 X29.588 Y60.551 E8.40577
G1 X29.945 Y60.491 E8.43924
G1 X30.304 Y60.524 E8.47260
G1 X30.652 Y60.646 E8.50675
G1 X30.977 Y60.859 E8.54266
G1 X31.273 Y61.163 E8.58188
G1 X31.509 Y61.524 E8.62178
G1 X31.689 Y61.947 E8.66430
G1 X31.804 Y62.423 E8.70960
G1 X31.846 Y62.866 E8.75077
G1 X32.302 Y63.239 F6000.000
G1 X167.555 Y87.305 F6000.000
G1 X167.672 Y86.878 E8.79167 F540.000
G1 X167.760 Y86.673 E8.81231
G1 X167.988 Y86.291 E8.85343
G1 X168.282 Y85.955 E8.89476
G1 X168.630 Y85.678 E8.93590
G1 X169.023 Y85.466 E8.97721
G1 X169.446 Y85.328 E9.01837
G1 X169.666 Y85.288 E9.03904
G1 X170.111 Y85.269 E9.08021
G1 X170.554 Y85.328 E9.12151
G1 X170.977 Y85.466 E9.16266
G1 X171.370 Y85.678 E9.20397
G1 X171.718 Y85.955 E9.24511
G1 X172.012 Y86.291 E9.28644
G1 X172.240 Y86.673 E9.32757
G1 X172.328 Y86.878 E9.34821
G1 X172.445 Y87.305 E9.38911
G1 X172.487 Y87.753 E9.43072
G1 X172.445 Y88.201 E9.47233
G1 X172.328 Y88.627 E9.51323
G1 X172.240 Y88.832 E9.53386
G1 X172.012 Y89.214 E9.57499
G1 X171.718 Y89.550 E9.61633
G1 X171.370 Y89.827 E9.65746
G1 X170.977 Y90.039 E9.69876
G1 X170.553 Y90.177 E9.73993
G1 X170.111 Y90.236 E9.78122
G1 X169.666 Y90.217 E9.82239
G1 X169.231 Y90.117 E9.86366
G1 X168.822 Y89.942 E9.90485
G1 X168.630 Y89.827 E9.92553
G1 X168.282 Y89.550 E9.96666
G1 X167.988 Y89.214 E10.00799
G1 X167.760 Y88.832 E10.04912
G1 X167.604 Y88.416 E10.09024
G1 X167.525 Y87.982 E10.13098
G1 X167.513 Y87.753 E10.15226
G1 X167.542 Y87.399 E10.18507
G1 X168.181 Y87.418 F6000.000
G1 X168.268 Y87.102 E10.21538 F540.000
G1 X168.333 Y86.950 E10.23070
G1 X168.503 Y86.665 E10.26145
G1 X168.721 Y86.416 E10.29206
G1 X168.981 Y86.208 E10.32281
G1 X169.273 Y86.052 E10.35341
G1 X169.589 Y85.949 E10.38417
G1 X169.751 Y85.919 E10.39943
G1 X170.083 Y85.904 E10.43018
G1 X170.411 Y85.949 E10.46078
G1 X170.727 Y86.052 E10.49154
G1 X171.019 Y86.208 E10.52214
G1 X171.279 Y86.416 E10.55289
G1 X171.497 Y86.665 E10.58349
G1 X171.667 Y86.950 E10.61425
G1 X171.732 Y87.102 E10.62957
G1 X171.819 Y87.418 E10.65988
G1 X171.850 Y87.753 E10.69093
G1 X171.819 Y88.087 E10.72197
G1 X171.732 Y88.403 E10.75229
G1 X171.667 Y88.555 E10.76760
G1 X171.497 Y88.840 E10.79836
G1 X171.279 Y89.089 E10.82896
G1 X171.019 Y89.297 E10.85972
G1 X170.727 Y89.453 E10.89032
G1 X170.411 Y89.556 E10.92108
G1 X170.083 Y89.601 E10.95168
G1 X169.751 Y89.586 E10.98242
G1 X169.429 Y89.512 E11.01304
G1 X169.123 Y89.382 E11.04377
G1 X168.981 Y89.297 E11.05904
G1 X168.721 Y89.089 E11.08980
G1 X168.503 Y88.840 E11.12040
G1 X168.333 Y88.555 E11.15116
G1 X168.217 Y88.247 E11.18160
G1 X168.158 Y87.923 E11.21204
G1 X168.150 Y87.753 E11.22783
G1 X168.168 Y87.513 E11.25007
G1 X167.937 Y87.199 F6000.000
G1 X32.487 Y87.753 F6000.000
G1 X32.445 Y88.201 E11.29168 F540.000
G1 X32.328 Y88.627 E11.33259
G1 X32.134 Y89.027 E11.37373
G1 X31.873 Y89.389 E11.41498
G1 X31.550 Y89.696 E11.45619
G1 X31.178 Y89.942 E11.49744
G1 X30.977 Y90.039 E11.51812
G1 X30.554 Y90.177 E11.55928
G1 X30.111 Y90.236 E11.60057
G1 X29.666 Y90.217 E11.64174
G1 X29.446 Y90.177 E11.66241
G1 X29.023 Y90.039 E11.70357
G1 X28.630 Y89.827 E11.74488
G1 X28.282 Y89.550 E11.78602
G1 X27.988 Y89.214 E11.82734
G1 X27.760 Y88.832 E11.86847
G1 X27.672 Y88.627 E11.88910
G1 X27.555 Y88.201 E11.93001
G1 X27.513 Y87.753 E11.97162
G1 X27.555 Y87.305 E12.01323
G1 X27.672 Y86.878 E12.05414
G1 X27.760 Y86.673 E12.07477
G1 X27.988 Y86.291 E12.11589
G1 X28.282 Y85.955 E12.15722
G1 X28.630 Y85.678 E12.19836
G1 X28.822 Y85.563 E12.21904
G1 X30.356 Y84.828 E12.37640
G1 X30.356 Y85.274 E12.41760
G1 X30.769 Y85.388 E12.45718
G1 X30.977 Y85.466 E12.47773
G1 X31.370 Y85.678 E12.51904
G1 X31.718 Y85.955 E12.56019
G1 X32.012 Y86.291 E12.60150
G1 X32.240 Y86.673 E12.64264
G1 X32.328 Y86.878 E12.66327
G1 X32.445 Y87.305 E12.70417
G1 X32.482 Y87.657 E12.73698
G1 X31.850 Y87.753 F6000.000
G1 X31.819 Y88.087 E12.76802 F540.000
G1 X31.732 Y88.403 E12.79834
G1 X31.588 Y88.701 E12.82902
G1 X31.394 Y88.970 E12.85966
G1 X31.153 Y89.199 E12.89038
G1 X30.877 Y89.382 E12.92100
G1 X30.727 Y89.453 E12.93637
G1 X30.411 Y89.556 E12.96712
G1 X30.083 Y89.601 E12.99773
G1 X29.751 Y89.586 E13.02847
G1 X29.589 Y89.556 E13.04374
G1 X29.273 Y89.453 E13.07449
G1 X28.981 Y89.297 E13.10509
G1 X28.721 Y89.089 E13.13585
G1 X28.503 Y88.840 E13.16645
G1 X28.333 Y88.555 E13.19721
G1 X28.268 Y88.403 E13.21252
G1 X28.181 Y88.087 E13.24284
G1 X28.150 Y87.753 E13.27388
G1 X28.181 Y87.418 E13.30493
G1 X28.268 Y87.102 E13.33524
G1 X28.412 Y86.804 E13.36592
G1 X28.606 Y86.535 E13.39656
G1 X28.721 Y86.416 E13.41192
G1 X28.981 Y86.208 E13.44267
G1 X29.721 Y85.837 E13.51920
G1 X29.721 Y85.904 E13.52543
G1 X30.249 Y85.919 E13.57430
G1 X30.571 Y85.993 E13.60491
G1 X30.877 Y86.123 E13.63565
G1 X31.153 Y86.306 E13.66627
G1 X31.394 Y86.535 E13.69700
G1 X31.496 Y86.665 E13.71228
G1 X31.667 Y86.950 E13.74304
G1 X31.783 Y87.258 E13.77348
G1 X31.846 Y87.657 E13.81084
G1 X32.138 Y87.925 F6000.000
G1 X167.555 Y107.305 F6000.000
G1 X167.672 Y106.878 E13.85174 F540.000
G1 X167.760 Y106.673 E13.87238
G1 X167.988 Y106.291 E13.91351
G1 X168.282 Y105.955 E13.95484
G1 X168.630 Y105.678 E13.99598
G1 X169.023 Y105.466 E14.03728
G1 X169.446 Y105.328 E14.07844
G1 X169.666 Y105.288 E14.09911
G1 X170.111 Y105.269 E14.14029
G1 X170.554 Y105.328 E14.18158
G1 X170.977 Y105.466 E14.22274
G1 X171.370 Y105.678 E14.26405
G1 X171.718 Y105.955 E14.30518
G1 X172.012 Y106.291 E14.34651
G1 X172.240 Y106.673 E14.38764
G1 X172.328 Y106.878 E14.40828
G1 X172.445 Y107.305 E14.44918
G1 X172.487 Y107.753 E14.49079
G1 X172.445 Y108.200 E14.53240
G1 X172.328 Y108.627 E14.57330
G1 X172.240 Y108.832 E14.59394
G1 X172.012 Y109.214 E14.63507
G1 X171.718 Y109.550 E14.67640
G1 X171.370 Y109.827 E14.71753
G1 X170.977 Y110.039 E14.75884
G1 X170.553 Y110.177 E14.80000
G1 X170.111 Y110.236 E14.84129
G1 X169.666 Y110.217 E14.88246
G1 X169.231 Y110.117 E14.92374
G1 X168.822 Y109.942 E14.96493
G1 X168.630 Y109.827 E14.98560
G1 X168.282 Y109.550 E15.02674
G1 X167.988 Y109.214 E15.06806
G1 X167.760 Y108.832 E15.10919
G1 X167.604 Y108.416 E15.15031
G1 X167.525 Y107.982 E15.19106
G1 X167.513 Y107.753 E15.21234
G1 X167.542 Y107.399 E15.24514
G1 X168.181 Y107.418 F6000.000
G1 X168.268 Y107.102 E15.27545 F540.000
G1 X168.333 Y106.950 E15.29077
G1 X168.503 Y106.665 E15.32153
G1 X168.721 Y106.416 E15.35213
G1 X168.981 Y106.208 E15.38289
G1 X169.273 Y106.052 E15.41348
G1 X169.589 Y105.949 E15.44424
G1 X169.751 Y105.919 E15.45950
G1 X170.083 Y105.904 E15.49025
G1 X170.411 Y105.949 E15.52085
G1 X170.727 Y106.052 E15.55161
G1 X171.019 Y106.208 E15.58221
G1 X171.279 Y106.416 E15.61297
G1 X171.497 Y106.665 E15.64357
G1 X171.667 Y106.950 E15.67433
G1 X171.732 Y107.102 E15.68964
G1 X171.819 Y107.418 E15.71996
G1 X171.850 Y107.753 E15.75100
G1 X171.819 Y108.087 E15.78204
G1 X171.732 Y108.403 E15.81236
G1 X171.667 Y108.555 E15.82768
G1 X171.497 Y108.840 E15.85843
G1 X171.279 Y109.089 E15.88904
G1 X171.019 Y109.297 E15.91979
G1 X170.727 Y109.453 E15.95039
G1 X170.411 Y109.556 E15.98115
G1 X170.083 Y109.601 E16.01175
G1 X169.751 Y109.586 E16.04250
G1 X169.429 Y109.512 E16.07311
G1 X169.123 Y109.382 E16.10385
G1 X168.981 Y109.297 E16.11912
G1 X168.721 Y109.089 E16.14987
G1 X168.503 Y108.840 E16.18047
G1 X168.333 Y108.555 E16.21123
G1 X168.217 Y108.247 E16.24168
G1 X168.158 Y107.923 E16.27211
G1 X168.150 Y107.753 E16.28790
G1 X168.168 Y107.513 E16.31014
G1 X167.937 Y107.199 F6000.000
G1 X32.487 Y107.753 F6000.000
G1 X32.445 Y108.201 E16.35175 F540.000
G1 X32.328 Y108.627 E16.39265
G1 X32.134 Y109.027 E16.43381
G1 X31.873 Y109.389 E16.47505
G1 X31.550 Y109.696 E16.51626
G1 X31.178 Y109.942 E16.55751
G1 X30.977 Y110.039 E16.57819
G1 X30.554 Y110.177 E16.61935
G1 X30.111 Y110.236 E16.66064
G1 X29.666 Y110.217 E16.70181
G1 X29.446 Y110.177 E16.72249
G1 X29.023 Y110.039 E16.76364
G1 X28.630 Y109.827 E16.80495
G1 X28.282 Y109.550 E16.84609
G1 X27.988 Y109.214 E16.88741
G1 X27.760 Y108.832 E16.92855
G1 X27.672 Y108.627 E16.94918
G1 X27.555 Y108.200 E16.99008
G1 X27.513 Y107.753 E17.03169
G1 X27.555 Y107.305 E17.07330
G1 X27.672 Y106.878 E17.11421
G1 X27.760 Y106.673 E17.13484
G1 X27.988 Y106.291 E17.17597
G1 X28.282 Y105.955 E17.21729
G1 X28.630 Y105.678 E17.25844
G1 X28.822 Y105.563 E17.27911
G1 X30.356 Y104.828 E17.43647
G1 X30.356 Y105.274 E17.47767
G1 X30.769 Y105.388 E17.51725
G1 X30.977 Y105.466 E17.53780
G1 X31.370 Y105.678 E17.57911
G1 X31.718 Y105.955 E17.62026
G1 X32.012 Y106.291 E17.66158
G1 X32.240 Y106.673 E17.70271
G1 X32.328 Y106.878 E17.72334
G1 X32.445 Y107.305 E17.76424
G1 X32.482 Y107.657 E17.79705
G1 X31.850 Y107.753 F6000.000
G1 X31.819 Y108.087 E17.82809 F540.000
G1 X31.732 Y108.403 E17.85841
G1 X31.588 Y108.701 E17.88909
G1 X31.394 Y108.970 E17.91973
G1 X31.153 Y109.199 E17.95045
G1 X30.877 Y109.382 E17.98108
G1 X30.727 Y109.453 E17.99644
G1 X30.411 Y109.556 E18.02720
G1 X30.083 Y109.601 E18.05780
G1 X29.751 Y109.586 E18.08855
G1 X29.589 Y109.556 E18.10381
