; generated by Slic3r 1.0.0RC3 on 2015-03-09 at 23:34:10

; layer_height = 0.2
; perimeters = 3
; top_solid_layers = 8
; bottom_solid_layers = 8
; fill_density = 0.2
; perimeter_speed = 40
; infill_speed = 70
; travel_speed = 100
; nozzle_diameter = 0.4
; filament_diameter = 1.75
; extrusion_multiplier = 1
; perimeters extrusion width = 0.40mm
; infill extrusion width = 0.67mm
; solid infill extrusion width = 0.67mm
; top infill extrusion width = 0.67mm
; support material extrusion width = 0.40mm
; first layer extrusion width = 0.70mm

G21 ; set units to millimeters
M107
M190 S65 ; wait for bed temperature to be reached
M104 S220 ; set temperature
G28 ; home all axes
G1 Z5 F5000 ; lift nozzle
M109 S220 ; wait for temperature to be reached
G90 ; use absolute coordinates
G92 E0
M82 ; use absolute distances for extrusion
G1 F2400.000 E-3.00000
G92 E0
G1 Z-4.050 F6000.000
G1 X78.628 Y96.227 F6000.000
G1 E3.00000 F2400.000
G1 X141.918 Y32.937 E11.27846 F720.000
G1 X142.768 Y32.237 E11.38030
G1 X143.738 Y31.717 E11.48210
G1 X144.768 Y31.297 E11.58498
G1 X146.128 Y31.007 E11.71359
G1 X147.458 Y31.057 E11.83669
G1 X148.738 Y31.407 E11.95943
G1 X149.448 Y31.697 E12.03036
G1 X150.738 Y32.437 E12.16791
G1 X151.788 Y33.477 E12.30460
G1 X152.528 Y34.757 E12.44135
G1 X152.818 Y35.457 E12.51143
G1 X153.138 Y36.517 E12.61384
G1 X153.248 Y37.617 E12.71609
G1 X153.248 Y140.207 E22.20474
G1 X153.048 Y141.667 E22.34103
G1 X152.488 Y143.027 E22.47707
G1 X151.588 Y144.187 E22.61286
G1 X138.428 Y157.347 E24.33422
G1 X137.268 Y158.247 E24.47001
G1 X135.908 Y158.807 E24.60605
G1 X134.448 Y159.007 E24.74234
G1 X82.608 Y159.007 E29.53707
G1 X81.148 Y158.807 E29.67337
G1 X79.788 Y158.247 E29.80941
G1 X49.568 Y140.797 E33.03700
G1 X48.578 Y140.067 E33.15076
G1 X47.768 Y139.147 E33.26414
G1 X47.178 Y138.067 E33.37796
G1 X46.838 Y136.887 E33.49154
G1 X46.758 Y135.657 E33.60554
G1 X46.948 Y134.437 E33.71974
G1 X47.398 Y133.297 E33.83310
G1 X48.088 Y132.277 E33.94700
G1 X78.308 Y96.567 E38.27381
G1 X78.563 Y96.297 E38.30818
G1 F2400.000 E35.30818
G92 E0
G1 X84.233 Y100.884 F6000.000
G1 E3.00000 F2400.000
G1 X145.991 Y39.127 E11.07800 F720.000
G1 X145.991 Y139.541 E20.36543
G1 X133.781 Y151.752 E21.96256
G1 X83.047 Y151.752 E26.65500
G1 X58.832 Y137.771 E29.24110
G1 X58.893 Y137.544 E29.26286
G1 X84.233 Y137.544 E31.60663
G1 X84.233 Y100.980 E34.98850
G1 X83.598 Y100.621 F6000.000
G1 X146.627 Y37.592 E43.23279 F720.000
G1 X146.627 Y139.805 E52.68649
G1 X134.044 Y152.387 E54.33233
G1 X82.876 Y152.387 E59.06487
G1 X56.460 Y137.136 E61.88613
G1 X56.521 Y136.908 E61.90789
G1 X83.598 Y136.908 E64.41227
G1 X83.598 Y100.716 E67.75970
G1 X82.962 Y100.358 F6000.000
G1 X146.103 Y37.217 E76.01869 F360.000
G1 X146.612 Y37.006 E76.06958
G1 X147.052 Y37.188 E76.11362
G1 X147.262 Y37.697 E76.16451
G1 X147.262 Y140.068 E85.63292
G1 X134.307 Y153.023 E87.32745
G1 X82.706 Y153.023 E92.10010
G1 X54.088 Y136.500 E95.15651
G1 X54.149 Y136.273 E95.17827
G1 X82.962 Y136.273 E97.84327
G1 X82.962 Y100.453 E101.15626
G1 X83.598 Y100.358 F6000.000
G1 F2400.000 E98.15626
G92 E0
G1 X52.702 Y136.083 F6000.000
G1 E3.00000 F2400.000
G1 X52.865 Y136.003 E3.01671 F360.000
G1 X53.363 Y136.209 E3.06660
G1 X53.770 Y136.058 E3.10672
G1 X53.486 Y136.201 F6000.000
G1 X53.547 Y136.526 E3.13736 F360.000
G1 X60.212 Y138.047 F6000.000
G1 X60.176 Y138.012 E3.14202 F1260.000
G1 X61.061 Y137.995 E3.22418
G1 X62.346 Y139.280 E3.39284
G1 X61.964 Y137.995 E3.51728
G1 X64.481 Y140.512 E3.84771
G1 X66.615 Y141.744 F6000.000
G1 X62.866 Y137.995 E4.33989 F1260.000
G1 X63.768 Y137.995 E4.42363
G1 X68.749 Y142.977 E5.07757
G1 X70.884 Y144.209 F6000.000
G1 X64.670 Y137.995 E5.89327 F1260.000
G1 X65.572 Y137.995 E5.97701
G1 X73.018 Y145.441 E6.95447
G1 X75.153 Y146.673 F6000.000
G1 X66.474 Y137.995 E8.09369 F1260.000
G1 X67.376 Y137.995 E8.17743
G1 X77.287 Y147.906 E9.47841
G1 X79.421 Y149.138 F6000.000
G1 X68.278 Y137.995 E10.94116 F1260.000
G1 X69.180 Y137.995 E11.02489
G1 X81.556 Y150.370 E12.64939
G1 X83.388 Y151.301 F6000.000
G1 X70.082 Y137.995 E14.39603 F1260.000
G1 X70.985 Y137.995 E14.47976
G1 X84.290 Y151.301 E16.22639
G1 X85.193 Y151.301 E16.31013
G1 X71.887 Y137.995 E18.05676
G1 X72.789 Y137.995 E18.14049
G1 X86.095 Y151.301 E19.88713
G1 X86.997 Y151.301 E19.97086
G1 X73.691 Y137.995 E21.71749
G1 X74.593 Y137.995 E21.80122
G1 X87.899 Y151.301 E23.54786
G1 X88.801 Y151.301 E23.63159
G1 X75.495 Y137.995 E25.37822
G1 X76.397 Y137.995 E25.46196
G1 X89.703 Y151.301 E27.20859
G1 X90.605 Y151.301 E27.29232
G1 X77.299 Y137.995 E29.03896
G1 X78.201 Y137.995 E29.12269
G1 X91.507 Y151.301 E30.86932
G1 X92.409 Y151.301 E30.95306
G1 X79.103 Y137.995 E32.69969
G1 X80.006 Y137.995 E32.78342
G1 X93.311 Y151.301 E34.53006
G1 X94.214 Y151.301 E34.61379
G1 X80.908 Y137.995 E36.36042
G1 X81.810 Y137.995 E36.44416
G1 X95.116 Y151.301 E38.19079
G1 X96.018 Y151.301 E38.27452
G1 X82.712 Y137.995 E40.02116
G1 X83.614 Y137.995 E40.10489
G1 X96.920 Y151.301 E41.85152
G1 X97.822 Y151.301 E41.93526
G1 X84.516 Y137.995 E43.68189
G1 X84.684 Y137.261 E43.75178
G1 X98.724 Y151.301 E45.59476
G1 X99.626 Y151.301 E45.67849
G1 X84.684 Y136.359 E47.63989
G1 X84.684 Y135.457 E47.72362
G1 X100.528 Y151.301 E49.80344
G1 X101.430 Y151.301 E49.88717
G1 X84.684 Y134.555 E52.08540
G1 X84.684 Y133.652 E52.16913
G1 X102.332 Y151.301 E54.48578
G1 X103.235 Y151.301 E54.56951
G1 X84.684 Y132.750 E57.00457
G1 X84.684 Y131.848 E57.08830
G1 X104.137 Y151.301 E59.64178
G1 X105.039 Y151.301 E59.72552
G1 X84.684 Y130.946 E62.39741
G1 X84.684 Y130.044 E62.48114
G1 X105.941 Y151.301 E65.27146
G1 X106.843 Y151.301 E65.35519
G1 X84.684 Y129.142 E68.26392
G1 X84.684 Y128.240 E68.34765
G1 X107.745 Y151.301 E71.37479
G1 X108.647 Y151.301 E71.45853
G1 X84.684 Y127.338 E74.60409
G1 X84.684 Y126.436 E74.68782
G1 X109.549 Y151.301 E77.95180
G1 X110.451 Y151.301 E78.03553
G1 X84.684 Y125.534 E81.41792
G1 X84.684 Y124.631 E81.50166
G1 X111.353 Y151.301 E85.00247
G1 X112.256 Y151.301 E85.08620
G1 X84.684 Y123.729 E88.70543
G1 X84.684 Y122.827 E88.78916
G1 X113.158 Y151.301 E92.52680
G1 X114.060 Y151.301 E92.61054
G1 X84.684 Y121.925 E96.46660
G1 X84.684 Y121.023 E96.55033
G1 X114.962 Y151.301 E100.52481
G1 X115.864 Y151.301 E100.60854
G1 X84.684 Y120.121 E104.70143
G1 X84.684 Y119.219 E104.78516
G1 X116.766 Y151.301 E108.99647
G1 X117.668 Y151.301 E109.08021
G1 X84.684 Y118.317 E113.40993
G1 X84.684 Y117.415 E113.49367
G1 X118.570 Y151.301 E117.94181
G1 X119.472 Y151.301 E118.02554
G1 X84.684 Y116.513 E122.59210
G1 X84.684 Y115.610 E122.67583
G1 X120.374 Y151.301 E127.36081
G1 X121.277 Y151.301 E127.44454
G1 X84.684 Y114.708 E132.24793
G1 X84.684 Y113.806 E132.33166
G1 X122.179 Y151.301 E137.25347
G1 X123.081 Y151.301 E137.33721
G1 X84.684 Y112.904 E142.37743
G1 X84.684 Y112.002 E142.46116
G1 X123.983 Y151.301 E147.61980
G1 X124.885 Y151.301 E147.70354
G1 X84.684 Y111.100 E152.98059
G1 X84.684 Y110.198 E153.06433
G1 X125.787 Y151.301 E158.45980
G1 X126.689 Y151.301 E158.54353
G1 X84.684 Y109.296 E164.05742
G1 X84.684 Y108.394 E164.14116
G1 X127.591 Y151.301 E169.77346
G1 X128.493 Y151.301 E169.85720
G1 X84.684 Y107.492 E175.60792
G1 X84.684 Y106.589 E175.69165
G1 X129.395 Y151.301 E181.56079
G1 X130.298 Y151.301 E181.64453
G1 X84.684 Y105.687 E187.63208
G1 X84.684 Y104.785 E187.71582
G1 X131.200 Y151.301 E193.82179
G1 X132.102 Y151.301 E193.90552
G1 X84.684 Y103.883 E200.12991
G1 X84.684 Y102.981 E200.21364
G1 X133.004 Y151.301 E206.55645
G1 X133.743 Y151.138 E206.62669
G1 X84.684 Y102.079 E213.06650
G1 X84.684 Y101.177 E213.15023
G1 X134.194 Y150.687 E219.64925
G1 X134.645 Y150.235 E219.70846
G1 X85.089 Y100.680 E226.21349
G1 X85.540 Y100.229 E226.27270
G1 X135.096 Y149.784 E232.77773
G1 X135.547 Y149.333 E232.83694
G1 X85.992 Y99.778 E239.34197
G1 X86.443 Y99.327 E239.40118
G1 X135.998 Y148.882 E245.90621
G1 X136.449 Y148.431 E245.96542
G1 X86.894 Y98.876 E252.47045
G1 X87.345 Y98.425 E252.52966
G1 X136.900 Y147.980 E259.03469
G1 X137.351 Y147.529 E259.09390
G1 X87.796 Y97.974 E265.59893
G1 X88.247 Y97.523 E265.65814
G1 X137.802 Y147.078 E272.16317
G1 X138.253 Y146.627 E272.22238
G1 X88.698 Y97.072 E278.72741
G1 X89.149 Y96.620 E278.78662
G1 X138.704 Y146.176 E285.29165
G1 X139.155 Y145.725 E285.35086
G1 X89.600 Y96.169 E291.85589
G1 X90.051 Y95.718 E291.91510
G1 X139.607 Y145.274 E298.42013
G1 X140.058 Y144.823 E298.47933
G1 X90.502 Y95.267 E304.98437
G1 X90.953 Y94.816 E305.04357
G1 X140.509 Y144.372 E311.54861
G1 X140.960 Y143.921 E311.60781
G1 X91.404 Y94.365 E318.11285
G1 X91.855 Y93.914 E318.17205
G1 X141.411 Y143.470 E324.67709
G1 X141.862 Y143.019 E324.73629
G1 X92.306 Y93.463 E331.24132
G1 X92.757 Y93.012 E331.30053
G1 X142.313 Y142.568 E337.80556
G1 X142.764 Y142.117 E337.86477
G1 X93.208 Y92.561 E344.36980
G1 X93.659 Y92.110 E344.42901
G1 X143.215 Y141.666 E350.93404
G1 X143.666 Y141.214 E350.99325
G1 X94.110 Y91.659 E357.49828
G1 X94.561 Y91.208 E357.55749
G1 X144.117 Y140.763 E364.06252
G1 X144.568 Y140.312 E364.12173
G1 X95.013 Y90.757 E370.62676
G1 X95.464 Y90.306 E370.68597
G1 X145.019 Y139.861 E377.19100
G1 X145.470 Y139.410 E377.25021
G1 X95.915 Y89.855 E383.75524
G1 X96.366 Y89.404 E383.81445
G1 X145.540 Y138.578 E390.26945
G1 X145.540 Y137.676 E390.35319
G1 X96.817 Y88.953 E396.74898
G1 X97.268 Y88.502 E396.80819
G1 X145.540 Y136.774 E403.14477
G1 X145.540 Y135.872 E403.22851
G1 X97.719 Y88.051 E409.50589
G1 X98.170 Y87.599 E409.56509
G1 X145.540 Y134.970 E415.78326
G1 X145.540 Y134.068 E415.86700
G1 X98.621 Y87.148 E422.02596
G1 X99.072 Y86.697 E422.08517
G1 X145.540 Y133.166 E428.18492
G1 X145.540 Y132.263 E428.26865
G1 X99.523 Y86.246 E434.30920
G1 X99.974 Y85.795 E434.36840
G1 X145.540 Y131.361 E440.34974
G1 X145.540 Y130.459 E440.43347
G1 X100.425 Y85.344 E446.35560
G1 X100.876 Y84.893 E446.41481
G1 X145.540 Y129.557 E452.27773
G1 X145.540 Y128.655 E452.36146
G1 X101.327 Y84.442 E458.16518
G1 X101.778 Y83.991 E458.22438
G1 X145.540 Y127.753 E463.96889
G1 X145.540 Y126.851 E464.05262
G1 X102.229 Y83.540 E469.73792
G1 X102.680 Y83.089 E469.79712
G1 X145.540 Y125.949 E475.42321
G1 X145.540 Y125.047 E475.50694
G1 X103.131 Y82.638 E481.07382
G1 X103.582 Y82.187 E481.13303
G1 X145.540 Y124.145 E486.64070
G1 X145.540 Y123.242 E486.72444
G1 X104.034 Y81.736 E492.17290
G1 X104.485 Y81.285 E492.23211
G1 X145.540 Y122.340 E497.62136
G1 X145.540 Y121.438 E497.70509
G1 X104.936 Y80.834 E503.03514
G1 X105.387 Y80.383 E503.09435
G1 X145.540 Y120.536 E508.36518
G1 X145.540 Y119.634 E508.44892
G1 X105.838 Y79.932 E513.66055
G1 X106.289 Y79.481 E513.71976
G1 X145.540 Y118.732 E518.87218
G1 X145.540 Y117.830 E518.95591
G1 X106.740 Y79.030 E524.04912
G1 X107.191 Y78.578 E524.10833
G1 X145.540 Y116.928 E529.14234
G1 X145.540 Y116.026 E529.22607
G1 X107.642 Y78.127 E534.20087
G1 X108.093 Y77.676 E534.26007
G1 X145.540 Y115.123 E539.17566
G1 X145.540 Y114.221 E539.25940
G1 X108.544 Y77.225 E544.11578
G1 X108.995 Y76.774 E544.17498
G1 X145.540 Y113.319 E548.97216
G1 X145.540 Y112.417 E549.05589
G1 X109.446 Y76.323 E553.79385
G1 X109.897 Y75.872 E553.85306
G1 X145.540 Y111.515 E558.53182
G1 X145.540 Y110.613 E558.61555
G1 X110.348 Y75.421 E563.23510
G1 X110.799 Y74.970 E563.29430
G1 X145.540 Y109.711 E567.85464
G1 X145.540 Y108.809 E567.93838
G1 X111.250 Y74.519 E572.43951
G1 X111.701 Y74.068 E572.49871
G1 X145.540 Y107.907 E576.94064
G1 X145.540 Y107.005 E577.02437
G1 X112.152 Y73.617 E581.40708
G1 X112.603 Y73.166 E581.46629
G1 X145.540 Y106.102 E585.78980
G1 X145.540 Y105.200 E585.87353
G1 X113.055 Y72.715 E590.13783
G1 X113.506 Y72.264 E590.19704
G1 X145.540 Y104.298 E594.40213
G1 X145.540 Y103.396 E594.48586
G1 X113.957 Y71.813 E598.63174
G1 X114.408 Y71.362 E598.69095
G1 X145.540 Y102.494 E602.77762
G1 X145.540 Y101.592 E602.86136
G1 X114.859 Y70.911 E606.88882
G1 X115.310 Y70.460 E606.94803
G1 X145.540 Y100.690 E610.91628
G1 X145.540 Y99.788 E611.00002
G1 X115.761 Y70.009 E614.90907
G1 X116.212 Y69.557 E614.96827
G1 X145.540 Y98.886 E618.81811
G1 X145.540 Y97.984 E618.90185
G1 X116.663 Y69.106 E622.69248
G1 X117.114 Y68.655 E622.75169
G1 X145.540 Y97.081 E626.48311
G1 X145.540 Y96.179 E626.56684
G1 X117.565 Y68.204 E630.23906
G1 X118.016 Y67.753 E630.29827
G1 X145.540 Y95.277 E633.91127
G1 X145.540 Y94.375 E633.99501
G1 X118.467 Y67.302 E637.54881
G1 X118.918 Y66.851 E637.60801
G1 X145.540 Y93.473 E641.10261
G1 X145.540 Y92.571 E641.18634
G1 X119.369 Y66.400 E644.62172
G1 X119.820 Y65.949 E644.68093
G1 X145.540 Y91.669 E648.05710
G1 X145.540 Y90.767 E648.14084
G1 X120.271 Y65.498 E651.45780
G1 X120.722 Y65.047 E651.51701
G1 X145.540 Y89.865 E654.77477
G1 X145.540 Y88.963 E654.85850
G1 X121.173 Y64.596 E658.05705
G1 X121.624 Y64.145 E658.11626
G1 X145.540 Y88.060 E661.25560
G1 X145.540 Y87.158 E661.33933
G1 X122.076 Y63.694 E664.41947
G1 X122.527 Y63.243 E664.47867
G1 X145.540 Y86.256 E667.49960
G1 X145.540 Y85.354 E667.58333
G1 X122.978 Y62.792 E670.54505
G1 X123.429 Y62.341 E670.60426
G1 X145.540 Y84.452 E673.50676
G1 X145.540 Y83.550 E673.59050
G1 X123.880 Y61.890 E676.43380
G1 X124.331 Y61.439 E676.49301
G1 X145.540 Y82.648 E679.27710
G1 X145.540 Y81.746 E679.36083
G1 X124.782 Y60.988 E682.08571
G1 X125.233 Y60.536 E682.14492
G1 X145.540 Y80.844 E684.81060
G1 X145.540 Y79.942 E684.89433
G1 X125.684 Y60.085 E687.50080
G1 X126.135 Y59.634 E687.56001
G1 X145.540 Y79.039 E690.10726
G1 X145.540 Y78.137 E690.19100
G1 X126.586 Y59.183 E692.67905
G1 X127.037 Y58.732 E692.73826
G1 X145.540 Y77.235 E695.16710
G1 X145.540 Y76.333 E695.25083
G1 X127.488 Y58.281 E697.62047
G1 X127.939 Y57.830 E697.67967
G1 X145.540 Y75.431 E699.99010
G1 X145.540 Y74.529 E700.07383
G1 X128.390 Y57.379 E702.32505
G1 X128.841 Y56.928 E702.38426
G1 X145.540 Y73.627 E704.57627
G1 X145.540 Y72.725 E704.66000
G1 X129.292 Y56.477 E706.79280
G1 X129.743 Y56.026 E706.85201
G1 X145.540 Y71.823 E708.92560
G1 X145.540 Y70.921 E709.00934
G1 X130.194 Y55.575 E711.02372
G1 X130.645 Y55.124 E711.08293
G1 X145.540 Y70.018 E713.03811
G1 X145.540 Y69.116 E713.12184
G1 X131.097 Y54.673 E715.01781
G1 X131.548 Y54.222 E715.07701
G1 X145.540 Y68.214 E716.91377
G1 X145.540 Y67.312 E716.99751
G1 X131.999 Y53.771 E718.77506
G1 X132.450 Y53.320 E718.83427
G1 X145.540 Y66.410 E720.55261
G1 X145.540 Y65.508 E720.63634
G1 X132.901 Y52.869 E722.29548
G1 X133.352 Y52.418 E722.35469
G1 X145.540 Y64.606 E723.95461
G1 X145.540 Y63.704 E724.03835
G1 X133.803 Y51.967 E725.57907
G1 X134.254 Y51.515 E725.63827
G1 X145.540 Y62.802 E727.11978
G1 X145.540 Y61.900 E727.20352
G1 X134.705 Y51.064 E728.62582
G1 X135.156 Y50.613 E728.68503
G1 X145.540 Y60.997 E730.04812
G1 X145.540 Y60.095 E730.13186
G1 X135.607 Y50.162 E731.43574
G1 X136.058 Y49.711 E731.49495
G1 X145.540 Y59.193 E732.73963
G1 X145.540 Y58.291 E732.82336
G1 X136.509 Y49.260 E734.00883
G1 X136.960 Y48.809 E734.06804
G1 X145.540 Y57.389 E735.19430
G1 X145.540 Y56.487 E735.27803
G1 X137.411 Y48.358 E736.34508
G1 X137.862 Y47.907 E736.40429
G1 X145.540 Y55.585 E737.41214
G1 X145.540 Y54.683 E737.49587
G1 X138.313 Y47.456 E738.44451
G1 X138.764 Y47.005 E738.50371
G1 X145.540 Y53.781 E739.39314
G1 X145.540 Y52.879 E739.47688
G1 X139.215 Y46.554 E740.30710
G1 X139.667 Y46.103 E740.36630
G1 X145.540 Y51.976 E741.13732
G1 X145.540 Y51.074 E741.22105
G1 X140.118 Y45.652 E741.93285
G1 X140.569 Y45.201 E741.99206
G1 X145.540 Y50.172 E742.64466
G1 X145.540 Y49.270 E742.72839
G1 X141.020 Y44.750 E743.32178
G1 X141.471 Y44.299 E743.38098
G1 X145.540 Y48.368 E743.91516
G1 X145.540 Y47.466 E743.99890
G1 X141.922 Y43.848 E744.47387
