; generated by Slic3r 1.0.0RC3 on 2015-03-08 at 23:57:18

; layer_height = 0.2
; perimeters = 3
; top_solid_layers = 8
; bottom_solid_layers = 8
; fill_density = 0.2
; perimeter_speed = 40
; infill_speed = 70
; travel_speed = 150
; nozzle_diameter = 0.4
; filament_diameter = 1.75
; extrusion_multiplier = 1
; perimeters extrusion width = 0.40mm
; infill extrusion width = 0.67mm
; solid infill extrusion width = 0.67mm
; top infill extrusion width = 0.67mm
; support material extrusion width = 0.40mm
; first layer extrusion width = 0.70mm

G21 ; set units to millimeters
M107
M190 S65 ; wait for bed temperature to be reached
M104 S220 ; set temperature
G28 ; home all axes
G1 Z5 F5000 ; lift nozzle
M109 S220 ; wait for temperature to be reached
G90 ; use absolute coordinates
G92 E0
M82 ; use absolute distances for extrusion
G1 F2400.000 E-3.00000
G92 E0
G1 Z-4.050 F9000.000
G1 X44.616 Y50.857 F9000.000
G1 E3.00000 F2400.000
G1 X80.036 Y30.407 E6.78286 F1200
G1 X81.733 Y29.952 E6.94539
G1 X135.777 Y29.952 E11.94390
G1 X138.230 Y30.968 E12.18948
G1 X153.270 Y46.008 E14.15679
G1 X154.286 Y48.461 E14.40236
G1 X154.286 Y152.530 E24.02779
G1 X154.212 Y153.475 E24.11541
G1 X154.104 Y154.060 E24.17047
G1 X153.895 Y154.813 E24.24275
G1 X153.678 Y155.384 E24.29927
G1 X153.333 Y156.090 E24.37192
G1 X153.024 Y156.601 E24.42712
G1 X152.560 Y157.233 E24.49965
G1 X152.155 Y157.691 E24.55621
G1 X151.580 Y158.231 E24.62915
G1 X151.107 Y158.602 E24.68478
G1 X150.449 Y159.028 E24.75728
G1 X149.912 Y159.310 E24.81337
G1 X149.183 Y159.611 E24.88633
G1 X148.604 Y159.792 E24.94246
G1 X147.764 Y159.972 E25.02191
G1 X147.016 Y160.046 E25.09142
G1 X145.987 Y160.031 E25.18658
G1 X145.229 Y159.934 E25.25725
G1 X144.392 Y159.726 E25.33702
G1 X143.828 Y159.532 E25.39224
G1 X143.045 Y159.181 E25.47154
G1 X142.392 Y158.794 E25.54176
G1 X141.691 Y158.262 E25.62315
G1 X141.347 Y157.962 E25.66534
G1 X76.954 Y93.569 E34.08806
G1 X75.938 Y91.116 E34.33363
G1 X75.938 Y73.099 E36.00012
G1 X75.841 Y72.865 E36.02351
G1 X75.087 Y72.111 E36.12214
G1 X74.071 Y69.658 E36.36771
G1 X74.071 Y62.528 E37.02712
G1 X75.065 Y61.535 E37.15711
G1 X74.740 Y60.750 E37.23567
G1 X47.267 Y60.750 E39.77670
G1 X44.640 Y50.949 E40.71520
G1 X45.356 Y51.163 F9000.000
G1 X80.281 Y30.999 E44.44521 F1200
G1 X81.817 Y30.588 E44.59226
G1 X135.650 Y30.588 E49.57134
G1 X137.870 Y31.507 E49.79352
G1 X152.731 Y46.368 E51.73744
G1 X153.651 Y48.588 E51.95963
G1 X153.651 Y152.515 E61.57200
G1 X153.582 Y153.387 E61.65289
G1 X153.485 Y153.917 E61.70270
G1 X153.290 Y154.615 E61.76967
G1 X153.094 Y155.131 E61.82080
G1 X152.774 Y155.786 E61.88814
G1 X152.495 Y156.248 E61.93808
G1 X152.065 Y156.833 E62.00529
G1 X151.698 Y157.248 E62.05647
G1 X151.166 Y157.748 E62.12406
G1 X150.737 Y158.084 E62.17439
G1 X150.128 Y158.478 E62.24157
G1 X149.642 Y158.733 E62.29231
G1 X148.966 Y159.013 E62.35993
G1 X148.442 Y159.176 E62.41072
G1 X147.665 Y159.343 E62.48419
G1 X146.989 Y159.410 E62.54708
G1 X146.032 Y159.396 E62.63556
G1 X145.347 Y159.308 E62.69950
G1 X144.572 Y159.116 E62.77328
G1 X144.062 Y158.940 E62.82323
G1 X143.338 Y158.616 E62.89656
G1 X142.747 Y158.265 E62.96010
G1 X142.092 Y157.769 E63.03613
G1 X141.781 Y157.498 E63.07430
G1 X77.493 Y93.209 E71.48332
G1 X76.574 Y90.990 E71.70550
G1 X76.574 Y72.835 E73.38465
G1 X76.477 Y72.602 E73.40804
G1 X75.626 Y71.751 E73.51933
G1 X74.707 Y69.532 E73.74151
G1 X74.707 Y62.792 E74.36488
G1 X76.600 Y60.899 E74.61244
G1 X76.274 Y60.114 E74.69100
G1 X47.754 Y60.114 E77.32885
G1 X45.381 Y51.255 E78.17713
G1 X46.096 Y51.470 F9000.000
G1 X80.527 Y31.591 E81.85429 F1200
G1 X81.901 Y31.223 E81.98586
G1 X135.524 Y31.223 E86.94550
G1 X137.510 Y32.046 E87.14430
G1 X152.192 Y46.729 E89.06484
G1 X153.015 Y48.714 E89.26363
G1 X153.015 Y152.501 E98.86294
G1 X152.952 Y153.300 E98.93710
G1 X152.865 Y153.774 E98.98167
G1 X152.686 Y154.416 E99.04332
G1 X152.510 Y154.879 E99.08907
G1 X152.216 Y155.481 E99.15109
G1 X151.966 Y155.894 E99.19577
G1 X151.570 Y156.434 E99.25766
G1 X151.242 Y156.804 E99.30345
G1 X150.751 Y157.265 E99.36570
G1 X150.368 Y157.566 E99.41074
G1 X149.807 Y157.929 E99.47259
G1 X149.372 Y158.157 E99.51800
G1 X148.750 Y158.415 E99.58027
G1 X148.281 Y158.561 E99.62571
G1 X147.567 Y158.714 E99.69320
G1 X146.962 Y158.774 E99.74947
G1 X146.077 Y158.761 E99.83127
G1 X145.464 Y158.682 E99.88849
G1 X144.753 Y158.506 E99.95627
G1 X144.296 Y158.348 E100.00096
G1 X143.631 Y158.051 E100.06832
G1 X143.103 Y157.737 E100.12517
G1 X142.494 Y157.275 E100.19584
G1 X142.215 Y157.033 E100.23000
G1 X78.032 Y92.849 E108.62531
G1 X77.209 Y90.864 E108.82411
G1 X77.209 Y72.572 E110.51592
G1 X77.113 Y72.338 E110.53930
G1 X76.165 Y71.391 E110.66325
G1 X75.343 Y69.405 E110.86205
G1 X75.343 Y63.055 E111.44937
G1 X77.113 Y61.285 E111.68090
G1 X77.209 Y61.051 E111.70429
G1 X77.209 Y59.851 E111.81530
G1 X76.837 Y59.479 E111.86400
G1 X48.242 Y59.479 E114.50877
G1 X46.121 Y51.562 E115.26683
G1 X46.836 Y51.777 F9000.000
G1 X80.772 Y32.184 E118.89114 F1200
G1 X81.985 Y31.859 E119.00723
G1 X135.397 Y31.859 E123.94744
G1 X137.150 Y32.585 E124.12285
G1 X151.654 Y47.089 E126.02000
G1 X152.379 Y48.841 E126.19541
G1 X152.379 Y152.486 E135.78165
G1 X152.322 Y153.213 E135.84907
G1 X152.245 Y153.631 E135.88840
G1 X152.081 Y154.218 E135.94475
G1 X151.926 Y154.626 E135.98511
G1 X151.657 Y155.176 E136.04181
G1 X151.437 Y155.541 E136.08124
G1 X151.075 Y156.034 E136.13780
G1 X150.785 Y156.361 E136.17821
G1 X150.337 Y156.783 E136.23511
G1 X149.999 Y157.048 E136.27485
G1 X149.485 Y157.380 E136.33139
G1 X149.102 Y157.581 E136.37145
G1 X148.533 Y157.817 E136.42838
G1 X148.119 Y157.946 E136.46847
G1 X147.469 Y158.085 E136.52998
G1 X146.935 Y158.138 E136.57962
G1 X146.123 Y158.126 E136.65476
G1 X145.581 Y158.056 E136.70524
G1 X144.933 Y157.896 E136.76703
G1 X144.530 Y157.757 E136.80646
G1 X143.924 Y157.485 E136.86785
G1 X143.458 Y157.209 E136.91801
G1 X142.895 Y156.782 E136.98333
G1 X142.649 Y156.568 E137.01347
G1 X78.571 Y92.489 E145.39508
G1 X77.845 Y90.737 E145.57049
G1 X77.845 Y72.309 E147.27495
G1 X77.748 Y72.075 E147.29834
G1 X76.704 Y71.031 E147.43494
G1 X75.978 Y69.279 E147.61035
G1 X75.978 Y63.318 E148.16162
G1 X77.748 Y61.548 E148.39316
G1 X77.845 Y61.315 E148.41655
G1 X77.845 Y59.215 E148.61070
G1 X77.473 Y58.843 E148.65940
G1 X48.730 Y58.843 E151.31785
G1 X46.861 Y51.869 E151.98568
G1 X47.577 Y52.083 F9000.000
G1 X81.017 Y32.776 E155.55714 F1200
G1 X82.068 Y32.494 E155.65776
G1 X135.271 Y32.494 E160.57854
G1 X136.790 Y33.123 E160.73056
G1 X151.115 Y47.449 E162.60432
G1 X151.744 Y48.967 E162.75634
G1 X151.744 Y152.471 E172.32951
G1 X151.692 Y153.125 E172.39021
G1 X151.625 Y153.488 E172.42429
G1 X151.477 Y154.019 E172.47532
G1 X151.342 Y154.373 E172.51031
G1 X151.099 Y154.872 E172.56169
G1 X150.907 Y155.188 E172.59586
G1 X150.580 Y155.635 E172.64710
G1 X150.329 Y155.918 E172.68212
G1 X149.922 Y156.300 E172.73368
G1 X149.629 Y156.530 E172.76812
G1 X149.164 Y156.830 E172.81934
G1 X148.832 Y157.005 E172.85406
G1 X148.317 Y157.218 E172.90564
G1 X147.958 Y157.330 E172.94039
G1 X147.371 Y157.456 E172.99591
G1 X146.908 Y157.502 E173.03894
G1 X146.168 Y157.491 E173.10740
G1 X145.699 Y157.431 E173.15115
G1 X145.113 Y157.286 E173.20694
G1 X144.764 Y157.165 E173.24112
G1 X144.217 Y156.920 E173.29653
G1 X143.813 Y156.680 E173.34000
G1 X143.296 Y156.289 E173.39997
G1 X143.083 Y156.103 E173.42609
G1 X79.110 Y92.129 E181.79400
G1 X78.481 Y90.611 E181.94602
G1 X78.481 Y72.045 E183.66314
G1 X78.384 Y71.812 E183.68653
G1 X77.243 Y70.671 E183.83579
G1 X76.614 Y69.152 E183.98781
G1 X76.614 Y63.582 E184.50304
G1 X78.384 Y61.812 E184.73457
G1 X78.481 Y61.578 E184.75796
G1 X78.481 Y58.580 E185.03525
G1 X78.108 Y58.208 E185.08396
G1 X49.218 Y58.208 E187.75608
G1 X47.601 Y52.175 E188.33370
G1 X48.317 Y52.390 F9000.000
G1 X81.263 Y33.368 E191.85231 F1200
G1 X82.152 Y33.130 E191.93744
G1 X135.145 Y33.130 E196.83879
G1 X136.429 Y33.662 E196.96742
G1 X150.576 Y47.809 E198.81779
G1 X151.108 Y49.094 E198.94642
G1 X151.108 Y152.456 E208.50653
G1 X151.061 Y153.038 E208.56050
G1 X151.005 Y153.344 E208.58934
G1 X150.872 Y153.821 E208.63506
G1 X150.759 Y154.120 E208.66466
G1 X150.540 Y154.567 E208.71072
G1 X150.378 Y154.835 E208.73963
G1 X150.084 Y155.235 E208.78556
G1 X149.872 Y155.475 E208.81518
G1 X149.508 Y155.817 E208.86141
G1 X149.260 Y156.011 E208.89055
G1 X148.843 Y156.281 E208.93644
G1 X148.562 Y156.429 E208.96582
G1 X148.100 Y156.620 E209.01206
G1 X147.797 Y156.715 E209.04147
G1 X147.273 Y156.827 E209.09100
G1 X146.881 Y156.865 E209.12741
G1 X146.213 Y156.856 E209.18919
G1 X145.816 Y156.805 E209.22622
G1 X145.294 Y156.676 E209.27601
G1 X144.998 Y156.574 E209.30493
G1 X144.510 Y156.355 E209.35437
G1 X144.168 Y156.152 E209.39116
G1 X143.518 Y155.638 E209.46784
G1 X79.648 Y91.769 E217.82204
G1 X79.116 Y90.484 E217.95067
G1 X79.116 Y71.782 E219.68045
G1 X79.019 Y71.549 E219.70384
G1 X77.782 Y70.311 E219.86576
G1 X77.249 Y69.026 E219.99439
G1 X77.249 Y63.845 E220.47357
G1 X79.019 Y62.075 E220.70511
G1 X79.116 Y61.841 E220.72850
G1 X79.116 Y57.944 E221.08893
G1 X78.744 Y57.572 E221.13763
G1 X49.705 Y57.572 E223.82343
G1 X48.341 Y52.482 E224.31083
G1 X49.057 Y52.696 F9000.000
G1 X81.508 Y33.961 E227.77659 F1200
G1 X82.236 Y33.766 E227.84625
G1 X135.018 Y33.766 E232.72815
G1 X136.069 Y34.201 E232.83340
G1 X150.037 Y48.169 E234.66039
G1 X150.472 Y49.220 E234.76563
G1 X150.472 Y152.441 E244.31268
G1 X150.431 Y152.950 E244.35991
G1 X150.385 Y153.201 E244.38351
G1 X150.268 Y153.622 E244.42391
G1 X150.175 Y153.867 E244.44813
G1 X149.981 Y154.263 E244.48887
G1 X149.849 Y154.482 E244.51253
G1 X149.589 Y154.835 E244.55313
G1 X149.415 Y155.032 E244.57737
G1 X149.093 Y155.334 E244.61825
G1 X148.890 Y155.493 E244.64210
G1 X148.522 Y155.732 E244.68267
G1 X148.292 Y155.853 E244.70671
G1 X147.884 Y156.022 E244.74760
G1 X147.635 Y156.099 E244.77166
G1 X147.175 Y156.198 E244.81522
G1 X146.854 Y156.229 E244.84501
G1 X146.259 Y156.221 E244.90011
G1 X145.934 Y156.179 E244.93040
G1 X145.474 Y156.065 E244.97420
G1 X145.232 Y155.982 E244.99787
G1 X144.803 Y155.790 E245.04133
G1 X144.523 Y155.624 E245.07143
G1 X143.952 Y155.173 E245.13874
G1 X80.187 Y91.409 E253.47924
G1 X79.752 Y90.358 E253.58449
G1 X79.752 Y71.367 E255.34099
G1 X79.538 Y71.046 E255.37665
G1 X79.330 Y70.960 E255.39743
G1 X78.320 Y69.951 E255.52949
G1 X77.885 Y68.899 E255.63474
G1 X77.885 Y64.108 E256.07788
G1 X79.655 Y62.338 E256.30941
G1 X79.752 Y62.104 E256.33280
G1 X79.752 Y57.309 E256.77637
G1 X79.380 Y56.936 E256.82507
G1 X50.193 Y56.936 E259.52455
G1 X49.082 Y52.788 E259.92173
G1 X49.797 Y53.003 F9000.000
G1 X81.753 Y34.553 E263.33464 F1200
G1 X82.319 Y34.401 E263.38882
G1 X134.892 Y34.401 E268.25129
G1 X135.709 Y34.740 E268.33315
G1 X149.498 Y48.529 E270.13675
G1 X149.837 Y49.346 E270.21860
G1 X149.837 Y152.427 E279.75259
G1 X149.801 Y152.863 E279.79309
G1 X149.765 Y153.058 E279.81144
G1 X149.591 Y153.614 E279.86532
G1 X149.320 Y154.128 E279.91909
G1 X148.959 Y154.589 E279.97318
G1 X148.521 Y154.975 E280.02721
G1 X148.022 Y155.276 E280.08111
G1 X147.474 Y155.484 E280.13532
G1 X147.077 Y155.569 E280.17289
G1 X146.827 Y155.593 E280.19606
G1 X146.304 Y155.586 E280.24449
G1 X146.051 Y155.553 E280.26805
G1 X145.466 Y155.390 E280.32421
G1 X145.096 Y155.225 E280.36171
G1 X144.879 Y155.095 E280.38512
G1 X144.386 Y154.709 E280.44307
G1 X80.726 Y91.049 E288.76986
G1 X80.387 Y90.231 E288.85172
G1 X80.387 Y70.942 E290.63581
G1 X80.173 Y70.622 E290.67147
G1 X79.690 Y70.421 E290.71984
G1 X78.859 Y69.591 E290.82851
G1 X78.521 Y68.773 E290.91037
G1 X78.521 Y64.371 E291.31746
G1 X79.824 Y63.068 E291.48792
G1 X80.015 Y63.068 E291.50562
G1 X80.387 Y62.696 E291.55432
G1 X80.387 Y56.673 E292.11139
G1 X80.015 Y56.301 E292.16009
G1 X50.681 Y56.301 E294.87325
G1 X49.822 Y53.095 E295.18021
G1 X50.537 Y53.309 F9000.000
G1 X81.999 Y35.145 E298.54027 F1200
G1 X82.403 Y35.037 E298.57897
G1 X134.765 Y35.037 E303.42201
G1 X135.349 Y35.279 E303.48048
G1 X148.959 Y48.889 E305.26069
G1 X149.201 Y49.473 E305.31916
G1 X149.201 Y152.412 E314.84007
G1 X149.145 Y152.915 E314.88691
G1 X149.007 Y153.361 E314.93011
G1 X148.791 Y153.775 E314.97331
G1 X148.502 Y154.145 E315.01670
G1 X148.152 Y154.457 E315.06010
G1 X147.752 Y154.700 E315.10335
G1 X147.312 Y154.868 E315.14689
G1 X146.979 Y154.940 E315.17848
G1 X146.800 Y154.957 E315.19503
G1 X146.349 Y154.951 E315.23679
G1 X146.169 Y154.928 E315.25361
G1 X145.700 Y154.799 E315.29853
G1 X145.389 Y154.659 E315.33006
G1 X145.234 Y154.567 E315.34678
G1 X144.820 Y154.244 E315.39536
G1 X81.265 Y90.689 E323.70845
G1 X81.023 Y90.105 E323.76692
G1 X81.023 Y70.517 E325.57860
G1 X80.809 Y70.197 E325.61426
G1 X80.050 Y69.883 E325.69022
G1 X79.398 Y69.231 E325.77550
G1 X79.156 Y68.646 E325.83397
G1 X79.156 Y64.635 E326.20502
G1 X80.087 Y63.704 E326.32678
G1 X80.651 Y63.704 E326.37891
G1 X81.023 Y63.332 E326.42762
G1 X81.023 Y56.037 E327.10226
G1 X80.651 Y55.665 E327.15097
G1 X51.169 Y55.665 E329.87780
G1 X50.562 Y53.402 E330.09454
G1 X51.278 Y53.616 F9000.000
G1 X82.244 Y35.738 E333.40175 F1200
G1 X82.487 Y35.673 E333.42497
G1 X134.639 Y35.673 E338.24857
G1 X134.989 Y35.818 E338.28366
G1 X148.420 Y49.249 E340.04048
G1 X148.566 Y49.599 E340.07556
G1 X148.566 Y152.397 E349.58341
G1 X148.525 Y152.772 E349.61829
G1 X148.423 Y153.108 E349.65081
G1 X148.261 Y153.422 E349.68345
G1 X148.046 Y153.702 E349.71614
G1 X147.782 Y153.939 E349.74892
G1 X147.482 Y154.124 E349.78152
G1 X147.151 Y154.253 E349.81438
G1 X146.774 Y154.321 E349.84987
G1 X146.286 Y154.302 E349.89499
G1 X145.934 Y154.207 E349.92868
G1 X145.589 Y154.039 E349.96421
G1 X145.254 Y153.779 E350.00343
G1 X81.804 Y90.329 E358.30282
G1 X81.659 Y89.979 E358.33790
G1 X81.659 Y69.861 E360.19858
G1 X81.286 Y69.489 E360.24728
G1 X80.761 Y69.489 E360.29591
G1 X80.410 Y69.344 E360.33099
G1 X79.937 Y68.870 E360.39289
G1 X79.792 Y68.520 E360.42797
G1 X79.792 Y64.898 E360.76297
G1 X80.350 Y64.340 E360.83603
G1 X81.286 Y64.340 E360.92260
G1 X81.659 Y63.967 E360.97130
G1 X81.659 Y55.402 E361.76353
G1 X81.286 Y55.029 E361.81223
G1 X51.656 Y55.029 E364.55275
G1 X51.302 Y53.708 E364.67926
G1 X52.018 Y53.923 F9000.000
G1 X82.489 Y36.330 E367.93362 F1200
G1 X82.570 Y36.308 E367.94136
G1 X134.512 Y36.308 E372.74553
G1 X134.629 Y36.357 E372.75723
G1 X147.882 Y49.609 E374.49066
G1 X147.930 Y49.726 E374.50236
G1 X147.930 Y152.382 E383.99715
G1 X147.905 Y152.629 E384.02007
G1 X147.839 Y152.855 E384.04190
G1 X147.732 Y153.069 E384.06399
G1 X147.589 Y153.259 E384.08598
G1 X147.413 Y153.421 E384.10813
G1 X147.212 Y153.548 E384.13009
G1 X146.990 Y153.637 E384.15227
G1 X146.747 Y153.685 E384.17519
G1 X146.440 Y153.681 E384.20359
G1 X146.169 Y153.615 E384.22938
G1 X145.944 Y153.510 E384.25228
G1 X145.688 Y153.314 E384.28214
G1 X82.343 Y89.969 E392.56782
G1 X82.294 Y89.852 E392.57952
G1 X82.294 Y69.226 E394.48729
G1 X81.922 Y68.853 E394.53599
G1 X80.887 Y68.853 E394.63171
G1 X80.770 Y68.805 E394.64341
G1 X80.476 Y68.510 E394.68192
G1 X80.427 Y68.394 E394.69361
G1 X80.427 Y66.706 E394.84970
G1 X80.509 Y66.509 E394.86941
G1 X80.427 Y66.125 E394.90577
G1 X80.427 Y65.161 E394.99486
G1 X80.614 Y64.975 E395.01921
G1 X81.922 Y64.975 E395.14023
G1 X82.294 Y64.603 E395.18893
G1 X82.294 Y54.766 E396.09873
G1 X81.922 Y54.394 E396.14743
G1 X52.144 Y54.394 E398.90163
G1 X52.042 Y54.015 E398.93792
G1 F2400.000 E395.93792
G92 E0
G1 X54.088 Y53.499 F9000.000
G1 E3.00000 F2400.000
G1 X82.706 Y36.976 E6.05641 F1200
G1 X134.304 Y36.976 E10.82878
G1 X147.262 Y49.934 E12.52371
G1 X147.262 Y152.366 E21.99774
G1 X147.220 Y152.604 E22.02014
G1 X147.135 Y152.760 E22.03657
