; generated by Slic3r 1.0.0RC3 on 2015-03-09 at 23:32:19

; layer_height = 0.2
; perimeters = 3
; top_solid_layers = 8
; bottom_solid_layers = 8
; fill_density = 0.2
; perimeter_speed = 40
; infill_speed = 70
; travel_speed = 100
; nozzle_diameter = 0.4
; filament_diameter = 1.75
; extrusion_multiplier = 1
; perimeters extrusion width = 0.40mm
; infill extrusion width = 0.67mm
; solid infill extrusion width = 0.67mm
; top infill extrusion width = 0.67mm
; support material extrusion width = 0.40mm
; first layer extrusion width = 0.70mm

G21 ; set units to millimeters
M107
M190 S65 ; wait for bed temperature to be reached
M104 S220 ; set temperature
G28 ; home all axes
G1 Z5 F5000 ; lift nozzle
M109 S220 ; wait for temperature to be reached
G90 ; use absolute coordinates
G92 E0
M82 ; use absolute distances for extrusion
G1 F2400.000 E-3.00000
G92 E0
G1 Z-4.050 F6000.000
G1 X22.550 Y41.176 F6000.000
G1 E3.00000 F2400.000
G1 X23.750 Y40.766 E3.11729 F720.000
G1 X25.000 Y40.616 E3.23373
G1 X175.000 Y40.616 E17.10737
G1 X176.250 Y40.766 E17.22382
G1 X177.450 Y41.176 E17.34111
G1 X178.510 Y41.846 E17.45709
G1 X179.410 Y42.746 E17.57481
G1 X180.080 Y43.806 E17.69079
G1 X180.490 Y45.006 E17.80808
G1 X180.640 Y46.256 E17.92453
G1 X180.640 Y143.476 E26.91650
G1 X180.490 Y144.726 E27.03294
G1 X180.080 Y145.926 E27.15023
G1 X179.410 Y146.986 E27.26621
G1 X178.510 Y147.886 E27.38393
G1 X177.450 Y148.556 E27.49992
G1 X176.250 Y148.966 E27.61720
G1 X175.000 Y149.116 E27.73365
G1 X25.000 Y149.116 E41.60729
G1 X23.750 Y148.966 E41.72373
G1 X22.550 Y148.556 E41.84102
G1 X21.490 Y147.886 E41.95700
G1 X20.590 Y146.986 E42.07473
G1 X19.920 Y145.926 E42.19071
G1 X19.510 Y144.726 E42.30800
G1 X19.360 Y143.476 E42.42444
G1 X19.360 Y46.256 E51.41641
G1 X19.510 Y45.006 E51.53285
G1 X19.920 Y43.806 E51.65014
G1 X20.590 Y42.746 E51.76613
G1 X21.490 Y41.846 E51.88385
G1 X22.469 Y41.227 E51.99101
G1 F2400.000 E48.99101
G92 E0
G1 X167.672 Y90.390 F6000.000
G1 E3.00000 F2400.000
G1 X167.866 Y89.990 E3.04116 F540.000
G1 X168.127 Y89.629 E3.08240
G1 X168.282 Y89.467 E3.10309
G1 X168.630 Y89.190 E3.14424
G1 X169.023 Y88.978 E3.18553
G1 X169.446 Y88.840 E3.22670
G1 X169.889 Y88.781 E3.26799
G1 X170.334 Y88.801 E3.30917
G1 X170.554 Y88.840 E3.32983
G1 X170.977 Y88.978 E3.37100
G1 X171.370 Y89.190 E3.41230
G1 X171.718 Y89.467 E3.45344
G1 X171.873 Y89.629 E3.47414
G1 X172.134 Y89.990 E3.51538
G1 X172.328 Y90.390 E3.55654
G1 X172.445 Y90.817 E3.59744
G1 X172.487 Y91.265 E3.63905
G1 X172.445 Y91.713 E3.68066
G1 X172.328 Y92.139 E3.72156
G1 X172.134 Y92.540 E3.76272
G1 X171.873 Y92.901 E3.80396
G1 X171.550 Y93.208 E3.84517
G1 X171.178 Y93.454 E3.88642
G1 X170.769 Y93.629 E3.92761
G1 X170.334 Y93.729 E3.96889
G1 X169.889 Y93.748 E4.01006
G1 X169.666 Y93.729 E4.03072
G1 X169.231 Y93.629 E4.07199
G1 X168.822 Y93.454 E4.11319
G1 X168.630 Y93.340 E4.13386
G1 X168.282 Y93.062 E4.17500
G1 X167.988 Y92.726 E4.21633
G1 X167.760 Y92.344 E4.25746
G1 X167.604 Y91.928 E4.29857
G1 X167.525 Y91.494 E4.33932
G1 X167.525 Y91.035 E4.38182
G1 X167.555 Y90.817 E4.40219
G1 X167.643 Y90.481 E4.43428
G1 X168.268 Y90.614 F6000.000
G1 X168.412 Y90.316 E4.46497 F540.000
G1 X168.606 Y90.047 E4.49560
G1 X168.721 Y89.928 E4.51096
G1 X168.981 Y89.720 E4.54172
G1 X169.273 Y89.564 E4.57232
G1 X169.589 Y89.461 E4.60307
G1 X169.917 Y89.417 E4.63368
G1 X170.249 Y89.431 E4.66442
G1 X170.411 Y89.461 E4.67969
G1 X170.727 Y89.564 E4.71044
G1 X171.019 Y89.720 E4.74104
G1 X171.279 Y89.928 E4.77180
G1 X171.394 Y90.047 E4.78715
G1 X171.588 Y90.316 E4.81779
G1 X171.732 Y90.614 E4.84848
G1 X171.819 Y90.930 E4.87879
G1 X171.850 Y91.265 E4.90983
G1 X171.819 Y91.599 E4.94088
G1 X171.732 Y91.915 E4.97119
G1 X171.588 Y92.213 E5.00188
G1 X171.394 Y92.482 E5.03251
G1 X171.153 Y92.711 E5.06324
G1 X170.877 Y92.894 E5.09386
G1 X170.571 Y93.024 E5.12460
G1 X170.249 Y93.098 E5.15521
G1 X169.917 Y93.113 E5.18596
G1 X169.751 Y93.098 E5.20133
G1 X169.429 Y93.024 E5.23195
G1 X169.123 Y92.894 E5.26268
G1 X168.981 Y92.809 E5.27795
G1 X168.721 Y92.602 E5.30871
G1 X168.503 Y92.352 E5.33931
G1 X168.333 Y92.067 E5.37007
G1 X168.217 Y91.759 E5.40051
G1 X168.158 Y91.435 E5.43095
G1 X168.158 Y91.094 E5.46248
G1 X168.238 Y90.705 E5.49922
G1 X168.061 Y90.355 F6000.000
G1 F2400.000 E2.49922
G92 E0
G1 X32.487 Y91.265 F6000.000
G1 E3.00000 F2400.000
G1 X32.445 Y91.713 E3.04161 F540.000
G1 X32.328 Y92.139 E3.08251
G1 X32.240 Y92.344 E3.10314
G1 X32.012 Y92.726 E3.14427
G1 X31.718 Y93.062 E3.18560
G1 X31.370 Y93.340 E3.22674
G1 X30.977 Y93.551 E3.26804
G1 X30.554 Y93.689 E3.30920
G1 X30.334 Y93.729 E3.32988
G1 X29.889 Y93.748 E3.37105
G1 X29.446 Y93.689 E3.41234
G1 X29.023 Y93.551 E3.45350
G1 X28.822 Y93.454 E3.47417
G1 X28.450 Y93.208 E3.51544
G1 X28.031 Y92.801 E3.56947
G1 X27.887 Y92.801 E3.58281
G1 X27.604 Y91.928 E3.66767
G1 X27.525 Y91.494 E3.70842
G1 X27.513 Y91.265 E3.72970
G1 X27.555 Y90.817 E3.77131
G1 X27.672 Y90.390 E3.81222
G1 X27.866 Y89.990 E3.85337
G1 X28.127 Y89.629 E3.89461
G1 X28.450 Y89.321 E3.93582
G1 X28.822 Y89.075 E3.97707
G1 X29.023 Y88.978 E3.99775
G1 X29.446 Y88.841 E4.03891
G1 X29.889 Y88.781 E4.08020
G1 X30.334 Y88.801 E4.12138
G1 X30.554 Y88.840 E4.14205
G1 X30.977 Y88.978 E4.18320
G1 X31.370 Y89.190 E4.22452
G1 X31.718 Y89.467 E4.26566
G1 X32.012 Y89.803 E4.30698
G1 X32.240 Y90.185 E4.34811
G1 X32.396 Y90.601 E4.38922
G1 X32.445 Y90.817 E4.40964
G1 X32.482 Y91.169 E4.44245
G1 X31.850 Y91.265 F6000.000
G1 X31.819 Y91.599 E4.47350 F540.000
G1 X31.732 Y91.915 E4.50381
G1 X31.667 Y92.067 E4.51913
G1 X31.497 Y92.353 E4.54989
G1 X31.279 Y92.602 E4.58049
G1 X31.019 Y92.809 E4.61124
G1 X30.727 Y92.966 E4.64184
G1 X30.411 Y93.069 E4.67260
G1 X30.249 Y93.098 E4.68786
G1 X29.917 Y93.113 E4.71861
G1 X29.589 Y93.069 E4.74921
G1 X29.273 Y92.966 E4.77997
G1 X29.123 Y92.894 E4.79533
G1 X28.847 Y92.711 E4.82596
G1 X28.606 Y92.482 E4.85668
G1 X28.380 Y92.165 E4.89268
G1 X28.349 Y92.165 E4.89558
G1 X28.181 Y91.599 E4.95020
G1 X28.150 Y91.265 E4.98125
G1 X28.181 Y90.930 E5.01229
G1 X28.268 Y90.614 E5.04261
G1 X28.412 Y90.316 E5.07329
G1 X28.606 Y90.047 E5.10393
G1 X28.847 Y89.818 E5.13465
G1 X29.123 Y89.635 E5.16527
G1 X29.273 Y89.564 E5.18064
G1 X29.589 Y89.461 E5.21139
G1 X29.917 Y89.417 E5.24200
G1 X30.249 Y89.431 E5.27275
G1 X30.411 Y89.461 E5.28801
G1 X30.727 Y89.564 E5.31876
G1 X31.019 Y89.720 E5.34936
G1 X31.279 Y89.928 E5.38012
G1 X31.497 Y90.177 E5.41072
G1 X31.667 Y90.462 E5.44148
G1 X31.783 Y90.770 E5.47192
G1 X31.846 Y91.169 E5.50929
G1 X32.138 Y91.437 F6000.000
G1 F2400.000 E2.50929
G92 E0
G1 X167.555 Y110.817 F6000.000
G1 E3.00000 F2400.000
G1 X167.672 Y110.390 E3.04090 F540.000
G1 X167.760 Y110.185 E3.06153
G1 X167.988 Y109.804 E3.10267
G1 X168.282 Y109.467 E3.14399
G1 X168.630 Y109.190 E3.18513
G1 X169.023 Y108.978 E3.22643
G1 X169.446 Y108.840 E3.26760
G1 X169.666 Y108.801 E3.28826
G1 X170.111 Y108.781 E3.32944
G1 X170.554 Y108.840 E3.37073
G1 X170.977 Y108.978 E3.41190
G1 X171.370 Y109.190 E3.45320
G1 X171.718 Y109.467 E3.49434
G1 X172.012 Y109.804 E3.53567
G1 X172.240 Y110.185 E3.57680
G1 X172.328 Y110.390 E3.59744
G1 X172.445 Y110.817 E3.63833
G1 X172.487 Y111.265 E3.67994
G1 X172.445 Y111.713 E3.72156
G1 X172.328 Y112.139 E3.76246
G1 X172.240 Y112.344 E3.78309
G1 X172.012 Y112.726 E3.82422
G1 X171.718 Y113.062 E3.86555
G1 X171.370 Y113.340 E3.90669
G1 X170.977 Y113.551 E3.94799
G1 X170.554 Y113.689 E3.98916
G1 X170.111 Y113.748 E4.03044
G1 X169.666 Y113.729 E4.07162
G1 X169.231 Y113.629 E4.11289
G1 X168.822 Y113.454 E4.15408
G1 X168.630 Y113.340 E4.17476
G1 X168.282 Y113.062 E4.21589
G1 X167.988 Y112.726 E4.25722
G1 X167.760 Y112.344 E4.29835
G1 X167.604 Y111.928 E4.33946
G1 X167.525 Y111.494 E4.38021
G1 X167.513 Y111.265 E4.40149
G1 X167.542 Y110.911 E4.43430
G1 X168.181 Y110.930 F6000.000
G1 X168.268 Y110.614 E4.46461 F540.000
G1 X168.333 Y110.462 E4.47993
G1 X168.503 Y110.177 E4.51068
G1 X168.721 Y109.928 E4.54128
G1 X168.981 Y109.720 E4.57204
G1 X169.273 Y109.564 E4.60264
G1 X169.589 Y109.461 E4.63340
G1 X169.751 Y109.431 E4.64866
G1 X170.083 Y109.417 E4.67940
G1 X170.411 Y109.461 E4.71001
G1 X170.727 Y109.564 E4.74077
G1 X171.019 Y109.720 E4.77137
G1 X171.279 Y109.928 E4.80212
G1 X171.497 Y110.177 E4.83272
G1 X171.667 Y110.462 E4.86348
G1 X171.732 Y110.614 E4.87880
G1 X171.819 Y110.930 E4.90911
G1 X171.850 Y111.265 E4.94016
G1 X171.819 Y111.599 E4.97120
G1 X171.732 Y111.915 E5.00152
G1 X171.667 Y112.067 E5.01683
G1 X171.497 Y112.353 E5.04759
G1 X171.279 Y112.602 E5.07819
G1 X171.019 Y112.809 E5.10895
G1 X170.727 Y112.966 E5.13955
G1 X170.411 Y113.069 E5.17030
G1 X170.083 Y113.113 E5.20091
G1 X169.751 Y113.098 E5.23165
G1 X169.429 Y113.024 E5.26227
G1 X169.123 Y112.894 E5.29300
G1 X168.981 Y112.809 E5.30827
G1 X168.721 Y112.602 E5.33903
G1 X168.503 Y112.353 E5.36963
G1 X168.333 Y112.067 E5.40039
G1 X168.217 Y111.759 E5.43083
G1 X168.158 Y111.435 E5.46127
G1 X168.150 Y111.265 E5.47706
G1 X168.168 Y111.025 E5.49930
G1 X167.937 Y110.711 F6000.000
G1 F2400.000 E2.49930
G92 E0
G1 X32.487 Y111.265 F6000.000
G1 E3.00000 F2400.000
G1 X32.445 Y111.713 E3.04161 F540.000
G1 X32.328 Y112.139 E3.08251
G1 X32.240 Y112.344 E3.10314
G1 X32.012 Y112.726 E3.14427
G1 X31.718 Y113.062 E3.18560
G1 X31.370 Y113.340 E3.22674
G1 X30.977 Y113.551 E3.26804
G1 X30.554 Y113.689 E3.30920
G1 X30.334 Y113.729 E3.32988
G1 X29.889 Y113.748 E3.37105
G1 X29.446 Y113.689 E3.41234
G1 X29.023 Y113.551 E3.45350
G1 X28.822 Y113.454 E3.47417
G1 X28.450 Y113.208 E3.51543
G1 X28.031 Y112.801 E3.56947
G1 X27.887 Y112.801 E3.58281
G1 X27.604 Y111.928 E3.66767
G1 X27.525 Y111.494 E3.70842
G1 X27.513 Y111.265 E3.72970
G1 X27.555 Y110.817 E3.77131
G1 X27.672 Y110.390 E3.81222
G1 X27.866 Y109.990 E3.85337
G1 X28.127 Y109.629 E3.89461
G1 X28.450 Y109.321 E3.93582
G1 X28.822 Y109.075 E3.97708
G1 X29.023 Y108.978 E3.99775
G1 X29.446 Y108.841 E4.03891
G1 X29.889 Y108.781 E4.08020
G1 X30.334 Y108.801 E4.12138
G1 X30.554 Y108.840 E4.14205
G1 X30.977 Y108.978 E4.18320
G1 X31.370 Y109.190 E4.22452
G1 X31.718 Y109.467 E4.26566
G1 X32.012 Y109.803 E4.30698
G1 X32.240 Y110.185 E4.34811
G1 X32.396 Y110.601 E4.38922
G1 X32.445 Y110.817 E4.40964
G1 X32.482 Y111.169 E4.44245
G1 X31.850 Y111.265 F6000.000
G1 X31.819 Y111.599 E4.47350 F540.000
G1 X31.732 Y111.915 E4.50381
G1 X31.667 Y112.067 E4.51913
G1 X31.497 Y112.353 E4.54989
G1 X31.279 Y112.602 E4.58049
G1 X31.019 Y112.809 E4.61124
G1 X30.727 Y112.966 E4.64184
G1 X30.411 Y113.069 E4.67260
G1 X30.249 Y113.098 E4.68786
G1 X29.917 Y113.113 E4.71861
G1 X29.589 Y113.069 E4.74921
G1 X29.273 Y112.966 E4.77997
G1 X29.123 Y112.894 E4.79533
G1 X28.847 Y112.711 E4.82595
G1 X28.606 Y112.482 E4.85668
G1 X28.380 Y112.165 E4.89268
G1 X28.349 Y112.165 E4.89558
G1 X28.181 Y111.599 E4.95020
G1 X28.150 Y111.265 E4.98125
G1 X28.181 Y110.930 E5.01229
G1 X28.268 Y110.614 E5.04261
G1 X28.412 Y110.316 E5.07329
G1 X28.606 Y110.047 E5.10393
G1 X28.847 Y109.818 E5.13465
G1 X29.123 Y109.635 E5.16527
G1 X29.273 Y109.564 E5.18064
G1 X29.589 Y109.461 E5.21139
G1 X29.917 Y109.417 E5.24200
G1 X30.249 Y109.431 E5.27275
G1 X30.411 Y109.461 E5.28801
G1 X30.727 Y109.564 E5.31876
G1 X31.019 Y109.720 E5.34936
G1 X31.279 Y109.928 E5.38012
G1 X31.497 Y110.177 E5.41072
G1 X31.667 Y110.462 E5.44148
G1 X31.783 Y110.770 E5.47192
G1 X31.846 Y111.169 E5.50929
G1 X32.138 Y111.437 F6000.000
G1 X40.379 Y139.707 F6000.000
G1 X40.379 Y76.465 E11.35864 F720.000
G1 X159.621 Y76.465 E22.38749
G1 X159.621 Y139.707 E28.23685
G1 X40.474 Y139.707 E39.25688
G1 X41.014 Y139.072 F6000.000
G1 X41.014 Y77.101 E44.98866 F720.000
G1 X158.986 Y77.101 E55.89993
G1 X158.986 Y139.072 E61.63171
G1 X41.110 Y139.072 E72.53417
G1 X41.650 Y138.436 F6000.000
G1 X41.650 Y77.736 E78.14837 F360.000
G1 X158.350 Y77.736 E88.94206
G1 X158.350 Y138.436 E94.55626
G1 X41.745 Y138.436 E105.34114
G1 X41.014 Y138.436 F6000.000
G1 X26.621 Y141.859 F6000.000
G1 X26.621 Y112.154 E108.08853 F720.000
G1 X26.990 Y112.096 E108.12305
G1 X27.425 Y113.436 E108.25338
G1 X27.744 Y113.436 E108.28291
G1 X28.053 Y113.705 E108.32078
G1 X28.279 Y113.870 E108.34664
G1 X28.521 Y114.015 E108.37272
G1 X29.034 Y114.234 E108.42436
G1 X29.304 Y114.309 E108.45026
G1 X29.581 Y114.359 E108.47634
G1 X29.861 Y114.384 E108.50230
G1 X30.418 Y114.359 E108.55390
G1 X30.696 Y114.309 E108.57998
G1 X30.966 Y114.234 E108.60590
G1 X31.479 Y114.015 E108.65754
G1 X31.721 Y113.870 E108.68361
G1 X31.947 Y113.705 E108.70948
G1 X32.352 Y113.320 E108.76116
G1 X32.527 Y113.099 E108.78724
G1 X32.681 Y112.866 E108.81307
G1 X32.923 Y112.363 E108.86469
G1 X33.010 Y112.097 E108.89058
G1 X33.071 Y111.826 E108.91624
G1 X33.123 Y111.265 E108.96841
G1 X33.071 Y110.703 E109.02060
G1 X33.010 Y110.432 E109.04626
G1 X32.923 Y110.166 E109.07214
G1 X32.681 Y109.664 E109.12377
G1 X32.527 Y109.430 E109.14960
G1 X32.352 Y109.210 E109.17567
G1 X31.947 Y108.824 E109.22736
G1 X31.721 Y108.659 E109.25322
G1 X31.479 Y108.514 E109.27930
G1 X30.966 Y108.295 E109.33095
G1 X30.696 Y108.220 E109.35685
G1 X30.418 Y108.170 E109.38293
G1 X29.861 Y108.145 E109.43454
G1 X29.581 Y108.170 E109.46049
G1 X29.304 Y108.220 E109.48657
G1 X29.034 Y108.295 E109.51248
G1 X28.521 Y108.514 E109.56412
G1 X28.279 Y108.659 E109.59020
G1 X28.053 Y108.824 E109.61606
G1 X27.648 Y109.210 E109.66775
G1 X27.473 Y109.430 E109.69382
G1 X27.319 Y109.664 E109.71966
G1 X26.866 Y110.504 E109.80795
G1 X26.621 Y110.442 E109.83132
G1 X26.621 Y92.154 E111.52278
G1 X26.990 Y92.096 E111.55730
G1 X27.425 Y93.436 E111.68763
G1 X27.744 Y93.436 E111.71717
G1 X28.053 Y93.705 E111.75502
G1 X28.279 Y93.870 E111.78089
G1 X28.521 Y94.015 E111.80697
G1 X29.034 Y94.234 E111.85861
G1 X29.304 Y94.309 E111.88452
G1 X29.581 Y94.359 E111.91060
G1 X29.861 Y94.384 E111.93655
G1 X30.418 Y94.359 E111.98815
G1 X30.696 Y94.309 E112.01424
G1 X30.966 Y94.234 E112.04014
G1 X31.479 Y94.015 E112.09179
G1 X31.721 Y93.870 E112.11786
G1 X31.947 Y93.705 E112.14374
G1 X32.352 Y93.320 E112.19542
G1 X32.527 Y93.099 E112.22150
G1 X32.681 Y92.866 E112.24732
G1 X32.923 Y92.363 E112.29894
G1 X33.010 Y92.097 E112.32483
G1 X33.071 Y91.826 E112.35049
G1 X33.123 Y91.265 E112.40266
G1 X33.071 Y90.703 E112.45485
G1 X33.010 Y90.432 E112.48051
G1 X32.923 Y90.166 E112.50640
G1 X32.681 Y89.664 E112.55802
G1 X32.527 Y89.430 E112.58385
G1 X32.352 Y89.210 E112.60992
G1 X31.947 Y88.824 E112.66162
G1 X31.721 Y88.659 E112.68747
G1 X31.479 Y88.514 E112.71355
G1 X30.966 Y88.295 E112.76520
G1 X30.696 Y88.220 E112.79110
G1 X30.418 Y88.170 E112.81718
G1 X29.861 Y88.145 E112.86879
G1 X29.581 Y88.170 E112.89474
G1 X29.304 Y88.220 E112.92083
G1 X29.034 Y88.295 E112.94673
G1 X28.521 Y88.514 E112.99837
G1 X28.279 Y88.659 E113.02445
G1 X28.053 Y88.824 E113.05031
G1 X27.648 Y89.210 E113.10200
G1 X27.473 Y89.430 E113.12807
G1 X27.319 Y89.664 E113.15391
G1 X26.866 Y90.504 E113.24221
G1 X26.621 Y90.442 E113.26558
G1 X26.621 Y47.882 E117.20195
G1 X173.379 Y47.882 E130.77569
G1 X173.379 Y90.442 E134.71207
G1 X173.134 Y90.504 E134.73544
G1 X172.681 Y89.664 E134.82374
G1 X172.527 Y89.430 E134.84956
G1 X172.352 Y89.210 E134.87564
G1 X171.947 Y88.824 E134.92734
G1 X171.721 Y88.659 E134.95320
G1 X171.479 Y88.514 E134.97928
G1 X170.966 Y88.295 E135.03092
G1 X170.696 Y88.220 E135.05683
G1 X170.418 Y88.170 E135.08290
G1 X169.861 Y88.145 E135.13451
G1 X169.581 Y88.170 E135.16047
G1 X169.304 Y88.220 E135.18653
G1 X169.034 Y88.295 E135.21245
G1 X168.521 Y88.514 E135.26410
G1 X168.279 Y88.659 E135.29017
G1 X168.053 Y88.824 E135.31604
G1 X167.648 Y89.210 E135.36773
G1 X167.473 Y89.430 E135.39380
G1 X167.319 Y89.664 E135.41962
