; generated by Slic3r 1.0.0RC3 on 2015-03-08 at 23:07:52

; layer_height = 0.2
; perimeters = 3
; top_solid_layers = 8
; bottom_solid_layers = 8
; fill_density = 0.2
; perimeter_speed = 40
; infill_speed = 70
; travel_speed = 150
; nozzle_diameter = 0.4
; filament_diameter = 1.75
; extrusion_multiplier = 1
; perimeters extrusion width = 0.40mm
; infill extrusion width = 0.67mm
; solid infill extrusion width = 0.67mm
; top infill extrusion width = 0.67mm
; support material extrusion width = 0.40mm
; first layer extrusion width = 0.70mm

G21 ; set units to millimeters
M107
M190 S65 ; wait for bed temperature to be reached
M104 S220 ; set temperature
G28 ; home all axes
G1 Z5 F5000 ; lift nozzle
M109 S220 ; wait for temperature to be reached
G90 ; use absolute coordinates
G92 E0
M82 ; use absolute distances for extrusion
G1 F2400.000 E-3.00000
G92 E0
G1 Z-4.050 F9000.000
G1 X22.700 Y58.570 F9000.000
G1 E3.00000 F2400.000
G1 X23.900 Y58.160 E3.11729 F1200
G1 X25.150 Y58.010 E3.23373
G1 X174.850 Y58.010 E17.07963
G1 X176.100 Y58.160 E17.19607
G1 X177.300 Y58.570 E17.31336
G1 X178.360 Y59.240 E17.42934
G1 X179.260 Y60.140 E17.54706
G1 X179.930 Y61.200 E17.66305
G1 X180.340 Y62.400 E17.78034
G1 X180.490 Y63.650 E17.89678
G1 X180.490 Y126.340 E23.69504
G1 X180.340 Y127.590 E23.81148
G1 X179.930 Y128.790 E23.92877
G1 X179.260 Y129.850 E24.04475
G1 X178.360 Y130.750 E24.16247
G1 X177.300 Y131.420 E24.27846
G1 X176.100 Y131.830 E24.39574
G1 X174.850 Y131.980 E24.51219
G1 X25.150 Y131.980 E38.35808
G1 X23.900 Y131.830 E38.47453
G1 X22.700 Y131.420 E38.59181
G1 X21.640 Y130.750 E38.70780
G1 X20.740 Y129.850 E38.82552
G1 X20.070 Y128.790 E38.94150
G1 X19.660 Y127.590 E39.05879
G1 X19.510 Y126.340 E39.17523
G1 X19.510 Y63.650 E44.97349
G1 X19.660 Y62.400 E45.08993
G1 X20.070 Y61.200 E45.20722
G1 X20.740 Y60.140 E45.32321
G1 X21.640 Y59.240 E45.44093
G1 X22.619 Y58.621 E45.54809
G1 F2400.000 E42.54809
G92 E0
G1 X101.029 Y67.229 F9000.000
G1 E3.00000 F2400.000
G1 X171.271 Y67.229 E9.49679 F1200
G1 X171.271 Y122.971 E14.65247
G1 X101.029 Y122.971 E21.14926
G1 X101.029 Y67.324 E26.29612
G1 X101.664 Y67.864 F9000.000
G1 X170.636 Y67.864 E32.67533 F1200
G1 X170.636 Y122.336 E37.71343
G1 X101.664 Y122.336 E44.09265
G1 X101.664 Y67.960 E49.12192
G1 X102.300 Y68.500 F9000.000
G1 X170.000 Y68.500 E55.38356 F1200
G1 X170.000 Y121.700 E60.30408
G1 X102.300 Y121.700 E66.56572
G1 X102.300 Y68.595 E71.47742
G1 X102.300 Y67.864 F9000.000
G1 X99.271 Y67.229 F9000.000
G1 X99.271 Y122.971 E76.63309 F1200
G1 X29.029 Y122.971 E83.12989
G1 X29.029 Y67.229 E88.28556
G1 X99.176 Y67.229 E94.77354
G1 X98.636 Y67.864 F9000.000
G1 X98.636 Y122.336 E99.81163 F1200
G1 X29.664 Y122.336 E106.19085
G1 X29.664 Y67.864 E111.22895
G1 X98.540 Y67.864 E117.59934
G1 X98.000 Y68.500 F9000.000
G1 X98.000 Y121.700 E122.51986 F1200
G1 X30.300 Y121.700 E128.78150
G1 X30.300 Y68.500 E133.70202
G1 X97.905 Y68.500 E139.95484
G1 X98.636 Y68.500 F9000.000
G1 X26.771 Y65.271 F9000.000
G1 X173.229 Y65.271 E153.50083 F1200
G1 X173.229 Y124.729 E159.00011
G1 X26.771 Y124.729 E172.54611
G1 X26.771 Y65.367 E178.03657
G1 X26.136 Y64.636 F9000.000
G1 X173.864 Y64.636 E191.70015 F1200
G1 X173.864 Y125.364 E197.31701
G1 X26.136 Y125.364 E210.98058
G1 X26.136 Y64.731 E216.58862
G1 X25.500 Y64.000 F9000.000
G1 X174.500 Y64.000 E230.36977 F1200
G1 X174.500 Y126.000 E236.10421
G1 X25.500 Y126.000 E249.88536
G1 X25.500 Y64.095 E255.61098
G1 X26.050 Y64.318 F9000.000
G1 X27.242 Y123.960 F9000.000
G1 X27.222 Y123.940 E255.61360 F1200
G1 X27.222 Y123.040 E255.69698
G1 X28.142 Y123.960 E255.81751
G1 X28.260 Y123.178 E255.89077
G1 X27.222 Y122.140 E256.02675
G1 X27.222 Y121.240 E256.11012
G1 X28.260 Y122.278 E256.24610
G1 X28.260 Y121.378 E256.32947
G1 X27.222 Y120.339 E256.46545
G1 X27.222 Y119.439 E256.54882
G1 X28.260 Y120.477 E256.68480
G1 X28.260 Y119.577 E256.76817
G1 X27.222 Y118.539 E256.90415
G1 X27.222 Y117.639 E256.98752
G1 X28.260 Y118.677 E257.12350
G1 X28.260 Y117.777 E257.20687
G1 X27.222 Y116.739 E257.34285
G1 X27.222 Y115.839 E257.42622
G1 X28.260 Y116.877 E257.56220
G1 X28.260 Y115.977 E257.64557
G1 X27.222 Y114.939 E257.78155
G1 X27.222 Y114.038 E257.86492
G1 X28.260 Y115.076 E258.00089
G1 X28.260 Y114.176 E258.08427
G1 X27.222 Y113.138 E258.22024
G1 X27.222 Y112.238 E258.30362
G1 X28.260 Y113.276 E258.43959
G1 X28.260 Y112.376 E258.52297
G1 X27.222 Y111.338 E258.65894
G1 X27.222 Y110.438 E258.74232
G1 X28.260 Y111.476 E258.87829
G1 X28.260 Y110.576 E258.96167
G1 X27.222 Y109.538 E259.09764
G1 X27.222 Y108.637 E259.18102
G1 X28.260 Y109.676 E259.31699
G1 X28.260 Y108.775 E259.40036
G1 X27.222 Y107.737 E259.53634
G1 X27.222 Y106.837 E259.61971
G1 X28.260 Y107.875 E259.75569
G1 X28.260 Y106.975 E259.83906
G1 X27.222 Y105.937 E259.97504
G1 X27.222 Y105.037 E260.05841
G1 X28.260 Y106.075 E260.19439
G1 X28.260 Y105.175 E260.27776
G1 X27.222 Y104.137 E260.41374
G1 X27.222 Y103.236 E260.49711
G1 X28.260 Y104.275 E260.63309
G1 X28.260 Y103.374 E260.71646
G1 X27.222 Y102.336 E260.85244
G1 X27.222 Y101.436 E260.93581
G1 X28.260 Y102.474 E261.07179
G1 X28.260 Y101.574 E261.15516
G1 X27.222 Y100.536 E261.29114
G1 X27.222 Y99.636 E261.37451
G1 X28.260 Y100.674 E261.51048
G1 X28.260 Y99.774 E261.59386
G1 X27.222 Y98.736 E261.72983
G1 X27.222 Y97.835 E261.81321
G1 X28.260 Y98.874 E261.94918
G1 X28.260 Y97.973 E262.03256
G1 X27.222 Y96.935 E262.16853
G1 X27.222 Y96.035 E262.25191
G1 X28.260 Y97.073 E262.38788
G1 X28.260 Y96.173 E262.47126
G1 X27.222 Y95.135 E262.60723
G1 X27.222 Y94.235 E262.69061
G1 X28.260 Y95.273 E262.82658
G1 X28.260 Y94.373 E262.90995
G1 X27.222 Y93.335 E263.04593
G1 X27.222 Y92.435 E263.12930
G1 X28.260 Y93.473 E263.26528
G1 X28.260 Y92.572 E263.34865
G1 X27.222 Y91.534 E263.48463
G1 X27.222 Y90.634 E263.56800
G1 X28.260 Y91.672 E263.70398
G1 X28.260 Y90.772 E263.78735
G1 X27.222 Y89.734 E263.92333
G1 X27.222 Y88.834 E264.00670
G1 X28.260 Y89.872 E264.14268
G1 X28.260 Y88.972 E264.22605
G1 X27.222 Y87.934 E264.36203
G1 X27.222 Y87.034 E264.44540
G1 X28.260 Y88.072 E264.58138
G1 X28.260 Y87.171 E264.66475
G1 X27.222 Y86.133 E264.80073
G1 X27.222 Y85.233 E264.88410
G1 X28.260 Y86.271 E265.02008
G1 X28.260 Y85.371 E265.10345
G1 X27.222 Y84.333 E265.23942
G1 X27.222 Y83.433 E265.32280
G1 X28.260 Y84.471 E265.45877
G1 X28.260 Y83.571 E265.54215
G1 X27.222 Y82.533 E265.67812
G1 X27.222 Y81.633 E265.76150
G1 X28.260 Y82.671 E265.89747
G1 X28.260 Y81.771 E265.98085
G1 X27.222 Y80.732 E266.11682
G1 X27.222 Y79.832 E266.20020
G1 X28.260 Y80.870 E266.33617
G1 X28.260 Y79.970 E266.41954
G1 X27.222 Y78.932 E266.55552
G1 X27.222 Y78.032 E266.63889
G1 X28.260 Y79.070 E266.77487
G1 X28.260 Y78.170 E266.85824
G1 X27.222 Y77.132 E266.99422
G1 X27.222 Y76.232 E267.07759
G1 X28.260 Y77.270 E267.21357
G1 X28.260 Y76.370 E267.29694
G1 X27.222 Y75.331 E267.43292
G1 X27.222 Y74.431 E267.51629
G1 X28.260 Y75.469 E267.65227
G1 X28.260 Y74.569 E267.73564
G1 X27.222 Y73.531 E267.87162
G1 X27.222 Y72.631 E267.95499
G1 X28.260 Y73.669 E268.09097
G1 X28.260 Y72.769 E268.17434
G1 X27.222 Y71.731 E268.31032
G1 X27.222 Y70.831 E268.39369
G1 X28.260 Y71.869 E268.52967
G1 X28.260 Y70.969 E268.61304
G1 X27.222 Y69.930 E268.74901
G1 X27.222 Y69.030 E268.83239
G1 X28.260 Y70.068 E268.96836
G1 X28.260 Y69.168 E269.05174
G1 X27.222 Y68.130 E269.18771
G1 X27.222 Y67.230 E269.27109
G1 X28.260 Y68.268 E269.40706
G1 X28.260 Y67.368 E269.49044
G1 X27.222 Y66.330 E269.62641
G1 X27.514 Y65.722 E269.68888
G1 X28.260 Y66.468 E269.78656
G1 X28.415 Y65.722 E269.85710
G1 X29.153 Y66.460 E269.95378
G1 X29.315 Y65.722 E270.02377
G1 X30.053 Y66.460 E270.12045
G1 X30.215 Y65.722 E270.19044
G1 X30.953 Y66.460 E270.28712
G1 X31.115 Y65.722 E270.35712
G1 X31.853 Y66.460 E270.45380
G1 X32.015 Y65.722 E270.52379
G1 X32.753 Y66.460 E270.62047
G1 X32.915 Y65.722 E270.69046
G1 X33.653 Y66.460 E270.78714
G1 X33.816 Y65.722 E270.85713
G1 X34.554 Y66.460 E270.95381
G1 X34.716 Y65.722 E271.02380
G1 X35.454 Y66.460 E271.12048
G1 X35.616 Y65.722 E271.19047
G1 X36.354 Y66.460 E271.28715
G1 X36.516 Y65.722 E271.35715
G1 X37.254 Y66.460 E271.45383
G1 X37.416 Y65.722 E271.52382
G1 X38.154 Y66.460 E271.62050
G1 X38.316 Y65.722 E271.69049
G1 X39.054 Y66.460 E271.78717
G1 X39.216 Y65.722 E271.85716
G1 X39.955 Y66.460 E271.95384
G1 X40.117 Y65.722 E272.02383
G1 X40.855 Y66.460 E272.12051
G1 X41.017 Y65.722 E272.19050
G1 X41.755 Y66.460 E272.28718
G1 X41.917 Y65.722 E272.35717
G1 X42.655 Y66.460 E272.45385
G1 X42.817 Y65.722 E272.52385
G1 X43.555 Y66.460 E272.62053
G1 X43.717 Y65.722 E272.69052
G1 X44.455 Y66.460 E272.78720
G1 X44.617 Y65.722 E272.85719
G1 X45.356 Y66.460 E272.95387
G1 X45.518 Y65.722 E273.02386
G1 X46.256 Y66.460 E273.12054
G1 X46.418 Y65.722 E273.19053
G1 X47.156 Y66.460 E273.28721
G1 X47.318 Y65.722 E273.35720
G1 X48.056 Y66.460 E273.45388
G1 X48.218 Y65.722 E273.52388
G1 X48.956 Y66.460 E273.62056
G1 X49.118 Y65.722 E273.69055
G1 X49.856 Y66.460 E273.78723
G1 X50.018 Y65.722 E273.85722
G1 X50.757 Y66.460 E273.95390
G1 X50.919 Y65.722 E274.02389
G1 X51.657 Y66.460 E274.12057
G1 X51.819 Y65.722 E274.19056
G1 X52.557 Y66.460 E274.28724
G1 X52.719 Y65.722 E274.35723
G1 X53.457 Y66.460 E274.45391
G1 X53.619 Y65.722 E274.52391
G1 X54.357 Y66.460 E274.62059
G1 X54.519 Y65.722 E274.69058
G1 X55.257 Y66.460 E274.78726
G1 X55.419 Y65.722 E274.85725
G1 X56.157 Y66.460 E274.95393
G1 X56.320 Y65.722 E275.02392
G1 X57.058 Y66.460 E275.12060
G1 X57.220 Y65.722 E275.19059
G1 X57.958 Y66.460 E275.28727
G1 X58.120 Y65.722 E275.35726
G1 X58.858 Y66.460 E275.45394
G1 X59.020 Y65.722 E275.52393
G1 X59.758 Y66.460 E275.62062
G1 X59.920 Y65.722 E275.69061
G1 X60.658 Y66.460 E275.78729
G1 X60.820 Y65.722 E275.85728
G1 X61.558 Y66.460 E275.95396
G1 X61.721 Y65.722 E276.02395
G1 X62.459 Y66.460 E276.12063
G1 X62.621 Y65.722 E276.19062
G1 X63.359 Y66.460 E276.28730
G1 X63.521 Y65.722 E276.35729
G1 X64.259 Y66.460 E276.45397
G1 X64.421 Y65.722 E276.52396
G1 X65.159 Y66.460 E276.62064
G1 X65.321 Y65.722 E276.69064
G1 X66.059 Y66.460 E276.78732
G1 X66.221 Y65.722 E276.85731
G1 X66.959 Y66.460 E276.95399
G1 X67.121 Y65.722 E277.02398
G1 X67.860 Y66.460 E277.12066
G1 X68.022 Y65.722 E277.19065
G1 X68.760 Y66.460 E277.28733
G1 X68.922 Y65.722 E277.35732
G1 X69.660 Y66.460 E277.45400
G1 X69.822 Y65.722 E277.52399
G1 X70.560 Y66.460 E277.62067
G1 X70.722 Y65.722 E277.69067
G1 X71.460 Y66.460 E277.78735
G1 X71.622 Y65.722 E277.85734
G1 X72.360 Y66.460 E277.95402
G1 X72.522 Y65.722 E278.02401
G1 X73.261 Y66.460 E278.12069
G1 X73.423 Y65.722 E278.19068
G1 X74.161 Y66.460 E278.28736
G1 X74.323 Y65.722 E278.35735
G1 X75.061 Y66.460 E278.45403
G1 X75.223 Y65.722 E278.52402
G1 X75.961 Y66.460 E278.62070
G1 X76.123 Y65.722 E278.69069
G1 X76.861 Y66.460 E278.78737
G1 X77.023 Y65.722 E278.85737
G1 X77.761 Y66.460 E278.95405
G1 X77.923 Y65.722 E279.02404
G1 X78.662 Y66.460 E279.12072
G1 X78.824 Y65.722 E279.19071
G1 X79.562 Y66.460 E279.28739
G1 X79.724 Y65.722 E279.35738
G1 X80.462 Y66.460 E279.45406
G1 X80.624 Y65.722 E279.52405
G1 X81.362 Y66.460 E279.62073
G1 X81.524 Y65.722 E279.69072
G1 X82.262 Y66.460 E279.78740
G1 X82.424 Y65.722 E279.85740
G1 X83.162 Y66.460 E279.95408
G1 X83.324 Y65.722 E280.02407
G1 X84.062 Y66.460 E280.12075
G1 X84.225 Y65.722 E280.19074
G1 X84.963 Y66.460 E280.28742
G1 X85.125 Y65.722 E280.35741
G1 X85.863 Y66.460 E280.45409
G1 X86.025 Y65.722 E280.52408
G1 X86.763 Y66.460 E280.62076
G1 X86.925 Y65.722 E280.69075
G1 X87.663 Y66.460 E280.78743
G1 X87.825 Y65.722 E280.85743
G1 X88.563 Y66.460 E280.95411
G1 X88.725 Y65.722 E281.02410
G1 X89.463 Y66.460 E281.12078
G1 X89.625 Y65.722 E281.19077
G1 X90.364 Y66.460 E281.28745
G1 X90.526 Y65.722 E281.35744
G1 X91.264 Y66.460 E281.45412
G1 X91.426 Y65.722 E281.52411
G1 X92.164 Y66.460 E281.62079
G1 X92.326 Y65.722 E281.69078
G1 X93.064 Y66.460 E281.78746
G1 X93.226 Y65.722 E281.85745
G1 X93.964 Y66.460 E281.95413
G1 X94.126 Y65.722 E282.02413
G1 X94.864 Y66.460 E282.12081
G1 X95.026 Y65.722 E282.19080
G1 X95.765 Y66.460 E282.28748
G1 X95.927 Y65.722 E282.35747
G1 X96.665 Y66.460 E282.45415
G1 X96.827 Y65.722 E282.52414
G1 X97.565 Y66.460 E282.62082
G1 X97.727 Y65.722 E282.69081
G1 X98.465 Y66.460 E282.78749
G1 X98.627 Y65.722 E282.85748
G1 X99.365 Y66.460 E282.95416
G1 X99.527 Y65.722 E283.02416
G1 X100.265 Y66.460 E283.12084
G1 X100.427 Y65.722 E283.19083
G1 X101.166 Y66.460 E283.28751
G1 X101.328 Y65.722 E283.35750
G1 X102.066 Y66.460 E283.45418
G1 X102.228 Y65.722 E283.52417
G1 X102.966 Y66.460 E283.62085
G1 X103.128 Y65.722 E283.69084
G1 X103.866 Y66.460 E283.78752
G1 X104.028 Y65.722 E283.85751
G1 X104.766 Y66.460 E283.95419
G1 X104.928 Y65.722 E284.02418
G1 X105.666 Y66.460 E284.12086
G1 X105.828 Y65.722 E284.19086
G1 X106.566 Y66.460 E284.28754
G1 X106.729 Y65.722 E284.35753
G1 X107.467 Y66.460 E284.45421
G1 X107.629 Y65.722 E284.52420
G1 X108.367 Y66.460 E284.62088
G1 X108.529 Y65.722 E284.69087
G1 X109.267 Y66.460 E284.78755
G1 X109.429 Y65.722 E284.85754
G1 X110.167 Y66.460 E284.95422
G1 X110.329 Y65.722 E285.02421
G1 X111.067 Y66.460 E285.12089
G1 X111.229 Y65.722 E285.19089
G1 X111.967 Y66.460 E285.28757
G1 X112.130 Y65.722 E285.35756
G1 X112.868 Y66.460 E285.45424
G1 X113.030 Y65.722 E285.52423
G1 X113.768 Y66.460 E285.62091
G1 X113.930 Y65.722 E285.69090
G1 X114.668 Y66.460 E285.78758
G1 X114.830 Y65.722 E285.85757
G1 X115.568 Y66.460 E285.95425
G1 X115.730 Y65.722 E286.02424
G1 X116.468 Y66.460 E286.12092
G1 X116.630 Y65.722 E286.19091
G1 X117.368 Y66.460 E286.28759
G1 X117.530 Y65.722 E286.35759
G1 X118.269 Y66.460 E286.45427
G1 X118.431 Y65.722 E286.52426
G1 X119.169 Y66.460 E286.62094
G1 X119.331 Y65.722 E286.69093
G1 X120.069 Y66.460 E286.78761
G1 X120.231 Y65.722 E286.85760
G1 X120.969 Y66.460 E286.95428
G1 X121.131 Y65.722 E287.02427
G1 X121.869 Y66.460 E287.12095
G1 X122.031 Y65.722 E287.19094
G1 X122.769 Y66.460 E287.28762
G1 X122.931 Y65.722 E287.35762
G1 X123.670 Y66.460 E287.45430
G1 X123.832 Y65.722 E287.52429
G1 X124.570 Y66.460 E287.62097
G1 X124.732 Y65.722 E287.69096
G1 X125.470 Y66.460 E287.78764
G1 X125.632 Y65.722 E287.85763
G1 X126.370 Y66.460 E287.95431
G1 X126.532 Y65.722 E288.02430
G1 X127.270 Y66.460 E288.12098
G1 X127.432 Y65.722 E288.19097
G1 X128.170 Y66.460 E288.28765
G1 X128.332 Y65.722 E288.35764
G1 X129.071 Y66.460 E288.45432
G1 X129.233 Y65.722 E288.52432
G1 X129.971 Y66.460 E288.62100
G1 X130.133 Y65.722 E288.69099
G1 X130.871 Y66.460 E288.78767
G1 X131.033 Y65.722 E288.85766
G1 X131.771 Y66.460 E288.95434
G1 X131.933 Y65.722 E289.02433
G1 X132.671 Y66.460 E289.12101
G1 X132.833 Y65.722 E289.19100
G1 X133.571 Y66.460 E289.28768
G1 X133.733 Y65.722 E289.35767
G1 X134.471 Y66.460 E289.45435
G1 X134.634 Y65.722 E289.52434
G1 X135.372 Y66.460 E289.62102
G1 X135.534 Y65.722 E289.69102
G1 X136.272 Y66.460 E289.78770
G1 X136.434 Y65.722 E289.85769
G1 X137.172 Y66.460 E289.95437
G1 X137.334 Y65.722 E290.02436
G1 X138.072 Y66.460 E290.12104
G1 X138.234 Y65.722 E290.19103
G1 X138.972 Y66.460 E290.28771
G1 X139.134 Y65.722 E290.35770
G1 X139.872 Y66.460 E290.45438
G1 X140.034 Y65.722 E290.52437
G1 X140.773 Y66.460 E290.62105
G1 X140.935 Y65.722 E290.69104
G1 X141.673 Y66.460 E290.78772
G1 X141.835 Y65.722 E290.85772
G1 X142.573 Y66.460 E290.95440
G1 X142.735 Y65.722 E291.02439
G1 X143.473 Y66.460 E291.12107
G1 X143.635 Y65.722 E291.19106
G1 X144.373 Y66.460 E291.28774
G1 X144.535 Y65.722 E291.35773
G1 X145.273 Y66.460 E291.45441
G1 X145.435 Y65.722 E291.52440
G1 X146.174 Y66.460 E291.62108
G1 X146.336 Y65.722 E291.69107
