; generated by Slic3r 1.1.7 on 2015-04-11 at 12:47:22

; perimeters extrusion width = 0.40mm
; infill extrusion width = 0.67mm
; solid infill extrusion width = 0.67mm
; top infill extrusion width = 0.67mm
; support material extrusion width = 0.40mm

G21 ; set units to millimeters
M107
M190 S60 ; wait for bed temperature to be reached
M104 S210 ; set temperature
G28 ; home all axes
G1 Z5 F5000 ; lift nozzle
M109 S210 ; wait for temperature to be reached
G90 ; use absolute coordinates
G92 E0
M82 ; use absolute distances for extrusion
G1 F2400.000 E-3.00000
G92 E0
G1 Z-4.350 F6000.000
G1 X29.086 Y49.195 F6000.000
G1 E3.00000 F2400.000
G1 X29.399 Y49.010 E3.03365 F1080.000
G1 X31.003 Y48.200 E3.19986
G1 X32.676 Y47.529 E3.36659
G1 X34.397 Y47.010 E3.53281
G1 X36.160 Y46.640 E3.69945
G1 X37.302 Y46.490 E3.80596
G1 X37.940 Y46.428 E3.86523
G1 X39.500 Y46.364 E4.00967
G1 X160.748 Y46.370 E15.22402
G1 X161.907 Y46.421 E15.33134 F1080.000
G1 X162.547 Y46.470 E15.39072
G1 X163.689 Y46.621 E15.49723
G1 X164.326 Y46.726 E15.55692
G1 X165.454 Y46.977 E15.66384
G1 X166.076 Y47.136 E15.72316
G1 X167.788 Y47.699 E15.88989
G1 X168.856 Y48.141 E15.99681
G1 X169.440 Y48.406 E16.05612
G1 X171.029 Y49.257 E16.22286
G1 X172.004 Y49.879 E16.32977
G1 X172.533 Y50.241 E16.38909
G1 X173.450 Y50.945 E16.49601
G1 X173.950 Y51.355 E16.55584
G1 X174.802 Y52.136 E16.66276
G1 X175.260 Y52.585 E16.72208
G1 X176.463 Y53.928 E16.88880
G1 X177.539 Y55.367 E17.05503
G1 X178.490 Y56.899 E17.22175
G1 X179.300 Y58.503 E17.38797
G1 X179.971 Y60.176 E17.55469
G1 X180.318 Y61.279 E17.66160
G1 X180.490 Y61.897 E17.72092
G1 X180.860 Y63.660 E17.88757
G1 X181.072 Y65.440 E18.05333
G1 X181.136 Y67.000 E18.19777
G1 X181.130 Y123.248 E23.40021
G1 X181.079 Y124.408 E23.50755
G1 X181.030 Y125.047 E23.56691
G1 X180.879 Y126.189 E23.67342
G1 X180.774 Y126.826 E23.73311
G1 X180.523 Y127.955 E23.84005
G1 X180.364 Y128.576 E23.89936
G1 X179.802 Y130.288 E24.06607
G1 X179.359 Y131.356 E24.17301
G1 X179.094 Y131.940 E24.23232
G1 X178.560 Y132.966 E24.33924
G1 X178.243 Y133.529 E24.39906
G1 X177.621 Y134.504 E24.50599
G1 X177.259 Y135.033 E24.56530
G1 X176.555 Y135.950 E24.67222
G1 X176.145 Y136.450 E24.73205
G1 X175.364 Y137.302 E24.83897
G1 X174.915 Y137.760 E24.89829
G1 X173.571 Y138.963 E25.06501
G1 X172.133 Y140.039 E25.23123
G1 X171.158 Y140.661 E25.33815
G1 X170.601 Y140.990 E25.39798
G1 X168.997 Y141.800 E25.56419
G1 X167.324 Y142.471 E25.73092
G1 X166.221 Y142.818 E25.83783
G1 X165.603 Y142.990 E25.89715
G1 X164.475 Y143.241 E26.00407
G1 X163.840 Y143.360 E26.06383
G1 X162.060 Y143.572 E26.22958
G1 X160.500 Y143.636 E26.37402
G1 X39.252 Y143.630 E37.58837
G1 X37.453 Y143.530 E37.75505
G1 X36.311 Y143.379 E37.86156
G1 X35.674 Y143.274 E37.92126
G1 X33.924 Y142.864 E38.08747
G1 X32.212 Y142.301 E38.25420
G1 X30.560 Y141.594 E38.42041
G1 X29.534 Y141.060 E38.52734
G1 X28.971 Y140.743 E38.58716
G1 X27.467 Y139.759 E38.75338
G1 X26.050 Y138.645 E38.92011
G1 X25.198 Y137.864 E39.02702
G1 X24.740 Y137.415 E39.08634
G1 X23.537 Y136.071 E39.25307
G1 X22.834 Y135.154 E39.35999
G1 X22.461 Y134.633 E39.41931
G1 X21.510 Y133.101 E39.58604
G1 X20.700 Y131.497 E39.75225
G1 X20.029 Y129.824 E39.91898
G1 X19.510 Y128.103 E40.08519
G1 X19.140 Y126.340 E40.25184
G1 X18.990 Y125.198 E40.35835
G1 X18.928 Y124.560 E40.41761
G1 X18.864 Y123.000 E40.56206
G1 X18.870 Y66.752 E45.76450
G1 X18.921 Y65.593 E45.87182
G1 X18.970 Y64.953 E45.93119
G1 X19.121 Y63.811 E46.03770
G1 X19.226 Y63.174 E46.09740
G1 X19.636 Y61.424 E46.26362
G1 X20.199 Y59.712 E46.43035
G1 X20.906 Y58.060 E46.59656
G1 X21.426 Y57.061 E46.70067
G1 X21.757 Y56.471 E46.76331
G1 X22.379 Y55.496 E46.87022
G1 X22.741 Y54.967 E46.92955
G1 X23.855 Y53.550 E47.09628
G1 X24.636 Y52.698 E47.20319
G1 X25.085 Y52.240 E47.26251
G1 X25.937 Y51.458 E47.36942
G1 X26.429 Y51.037 E47.42926
G1 X27.346 Y50.334 E47.53617
G1 X27.867 Y49.961 E47.59550
G1 X29.034 Y49.226 E47.72304
G1 F2400.000 E44.72304
G92 E0
G1 X100.650 Y134.350 F6000.000
G1 E3.00000 F2400.000
G1 X100.650 Y59.650 E9.90907 F360.000
G1 X168.350 Y59.650 E16.17071
G1 X168.350 Y134.350 E23.07978
G1 X100.710 Y134.350 E29.33587
G1 X100.250 Y134.350 F6000.000
G1 X99.350 Y134.350 F6000.000
G1 X31.650 Y134.350 E35.59751 F360.000
G1 X31.650 Y59.650 E42.50658
G1 X99.350 Y59.650 E48.76822
G1 X99.350 Y134.290 E55.67174
G1 X99.350 Y134.750 F6000.000
G1 X36.778 Y135.621 F6000.000
G1 X163.222 Y135.621 E67.36672 F720.000
G1 X163.272 Y136.074 E67.40888
G1 X162.823 Y136.174 E67.45144
G1 X161.671 Y136.326 E67.55893
G1 X160.464 Y136.379 E67.67060
G1 X39.536 Y136.379 E78.85540
G1 X38.329 Y136.326 E78.96708
G1 X37.177 Y136.174 E79.07457
G1 X36.728 Y136.074 E79.11712
G1 X36.771 Y135.681 E79.15373
G1 X33.044 Y134.986 F6000.000
G1 X166.956 Y134.986 E91.53932 F720.000
G1 X167.051 Y135.373 E91.57624
G1 X166.422 Y135.700 E91.64175
G1 X165.293 Y136.168 E91.75482
G1 X164.127 Y136.536 E91.86789
G1 X162.933 Y136.801 E91.98096
G1 X161.726 Y136.959 E92.09358
G1 X160.478 Y137.014 E92.20911
G1 X39.522 Y137.014 E103.39650
G1 X38.274 Y136.959 E103.51202
G1 X37.067 Y136.801 E103.62464
G1 X35.873 Y136.536 E103.73772
G1 X34.707 Y136.168 E103.85079
G1 X33.578 Y135.700 E103.96386
G1 X32.949 Y135.373 E104.02937
G1 X33.030 Y135.044 E104.06073
G1 F2400.000 E101.06073
G92 E0
G1 X30.379 Y58.379 F6000.000
G1 E3.00000 F2400.000
G1 X30.379 Y132.827 E9.88581 F720.000
G1 X29.252 Y131.599 E10.03996
G1 X28.542 Y130.673 E10.14790
G1 X27.915 Y129.689 E10.25583
G1 X27.376 Y128.653 E10.36377
G1 X26.930 Y127.575 E10.47171
G1 X26.579 Y126.462 E10.57964
G1 X26.326 Y125.323 E10.68759
G1 X26.174 Y124.171 E10.79508
G1 X26.121 Y122.964 E10.90676
G1 X26.121 Y67.036 E16.07965
G1 X26.174 Y65.829 E16.19132
G1 X26.326 Y64.677 E16.29881
G1 X26.579 Y63.538 E16.40676
G1 X26.930 Y62.425 E16.51470
G1 X27.376 Y61.347 E16.62264
G1 X27.915 Y60.311 E16.73057
G1 X28.542 Y59.327 E16.83851
G1 X29.252 Y58.401 E16.94645
G1 X30.041 Y57.541 E17.05438
G1 X30.901 Y56.752 E17.16232
G1 X31.827 Y56.042 E17.27026
G1 X32.811 Y55.415 E17.37819
G1 X33.847 Y54.876 E17.48613
G1 X34.925 Y54.430 E17.59407
G1 X36.038 Y54.079 E17.70200
G1 X37.177 Y53.826 E17.80995
G1 X38.329 Y53.674 E17.91744
G1 X39.536 Y53.621 E18.02912
G1 X160.464 Y53.621 E29.21392
G1 X161.671 Y53.674 E29.32560
G1 X162.823 Y53.826 E29.43309
G1 X163.962 Y54.079 E29.54104
G1 X165.075 Y54.430 E29.64897
G1 X166.153 Y54.876 E29.75691
G1 X167.189 Y55.415 E29.86485
G1 X168.173 Y56.042 E29.97278
G1 X169.099 Y56.752 E30.08072
G1 X169.959 Y57.541 E30.18865
G1 X170.748 Y58.401 E30.29659
G1 X171.458 Y59.327 E30.40453
G1 X172.085 Y60.311 E30.51247
G1 X172.624 Y61.347 E30.62040
G1 X173.070 Y62.425 E30.72834
G1 X173.421 Y63.538 E30.83628
G1 X173.674 Y64.677 E30.94423
G1 X173.826 Y65.829 E31.05171
G1 X173.879 Y67.036 E31.16339
G1 X173.879 Y122.964 E36.33628
G1 X173.826 Y124.171 E36.44795
G1 X173.674 Y125.323 E36.55545
G1 X173.421 Y126.462 E36.66339
G1 X173.070 Y127.575 E36.77133
G1 X172.624 Y128.653 E36.87927
G1 X172.085 Y129.689 E36.98721
G1 X171.458 Y130.673 E37.09514
G1 X170.748 Y131.599 E37.20308
G1 X169.621 Y132.827 E37.35723
G1 X169.621 Y58.379 E44.24304
G1 X30.439 Y58.379 E57.11616
G1 X31.014 Y59.014 F6000.000
G1 X31.014 Y134.135 E64.06416 F720.000
G1 X30.492 Y133.735 E64.12501
G1 X29.591 Y132.909 E64.23808
G1 X28.765 Y132.008 E64.35115
G1 X28.021 Y131.038 E64.46422
G1 X27.364 Y130.007 E64.57729
G1 X26.800 Y128.922 E64.69036
G1 X26.332 Y127.793 E64.80343
G1 X25.964 Y126.627 E64.91650
G1 X25.699 Y125.433 E65.02958
G1 X25.541 Y124.226 E65.14220
G1 X25.486 Y122.978 E65.25772
G1 X25.486 Y67.022 E70.43320
G1 X25.541 Y65.774 E70.54873
G1 X25.699 Y64.567 E70.66134
G1 X25.964 Y63.373 E70.77442
G1 X26.332 Y62.207 E70.88749
G1 X26.800 Y61.078 E71.00056
G1 X27.364 Y59.993 E71.11363
G1 X28.021 Y58.962 E71.22670
G1 X28.765 Y57.992 E71.33977
G1 X29.591 Y57.091 E71.45284
G1 X30.492 Y56.265 E71.56591
G1 X31.462 Y55.521 E71.67898
G1 X32.493 Y54.864 E71.79205
G1 X33.578 Y54.300 E71.90513
G1 X34.707 Y53.832 E72.01820
G1 X35.873 Y53.464 E72.13127
G1 X37.067 Y53.199 E72.24434
G1 X38.274 Y53.041 E72.35696
G1 X39.522 Y52.986 E72.47249
G1 X160.478 Y52.986 E83.65988
G1 X161.726 Y53.041 E83.77540
G1 X162.933 Y53.199 E83.88802
G1 X164.127 Y53.464 E84.00110
G1 X165.293 Y53.832 E84.11417
G1 X166.422 Y54.300 E84.22723
G1 X167.507 Y54.864 E84.34031
G1 X168.538 Y55.521 E84.45338
G1 X169.508 Y56.265 E84.56645
G1 X170.409 Y57.091 E84.67952
G1 X171.235 Y57.992 E84.79259
G1 X171.979 Y58.962 E84.90566
G1 X172.636 Y59.993 E85.01873
G1 X173.200 Y61.078 E85.13180
G1 X173.668 Y62.207 E85.24487
G1 X174.036 Y63.373 E85.35794
G1 X174.301 Y64.567 E85.47102
G1 X174.459 Y65.774 E85.58364
G1 X174.514 Y67.022 E85.69916
G1 X174.514 Y122.978 E90.87464
G1 X174.459 Y124.226 E90.99016
G1 X174.301 Y125.433 E91.10278
G1 X174.036 Y126.627 E91.21586
G1 X173.668 Y127.793 E91.32893
G1 X173.200 Y128.922 E91.44200
G1 X172.636 Y130.007 E91.55507
G1 X171.979 Y131.038 E91.66814
G1 X171.235 Y132.008 E91.78121
G1 X170.409 Y132.909 E91.89428
G1 X169.508 Y133.735 E92.00735
G1 X168.986 Y134.135 E92.06820
G1 X168.986 Y59.014 E99.01620
G1 X31.074 Y59.014 E111.77174
G1 X28.815 Y56.998 F6000.000
G1 X29.141 Y56.641 E111.81646 F360.000
G1 X30.083 Y55.778 E111.93466
G1 X31.097 Y55.000 E112.05286
G1 X32.175 Y54.313 E112.17107
G1 X33.309 Y53.723 E112.28927
G1 X34.490 Y53.234 E112.40748
G1 X35.708 Y52.850 E112.52568
G1 X36.956 Y52.573 E112.64389
G1 X38.218 Y52.407 E112.76163
G1 X39.508 Y52.350 E112.88101
G1 X160.492 Y52.350 E124.07098
G1 X161.644 Y52.401 E124.17759
G1 X163.044 Y52.573 E124.30806 F360.000
G1 X164.292 Y52.850 E124.42627
G1 X165.510 Y53.234 E124.54447
G1 X166.691 Y53.723 E124.66267
G1 X167.825 Y54.313 E124.78088
G1 X168.903 Y55.000 E124.89908
G1 X169.917 Y55.778 E125.01728
G1 X170.859 Y56.641 E125.13549
G1 X171.722 Y57.583 E125.25369
G1 X172.500 Y58.597 E125.37190
G1 X173.187 Y59.675 E125.49010
G1 X173.777 Y60.809 E125.60830
G1 X174.266 Y61.990 E125.72651
G1 X174.650 Y63.208 E125.84471
G1 X174.927 Y64.456 E125.96292
G1 X175.093 Y65.718 E126.08067
G1 X175.150 Y67.008 E126.20004
G1 X175.150 Y122.992 E131.37811
G1 X175.093 Y124.282 E131.49748
G1 X174.927 Y125.544 E131.61522
G1 X174.650 Y126.792 E131.73343
G1 X174.266 Y128.010 E131.85163
G1 X173.777 Y129.191 E131.96984
G1 X173.187 Y130.325 E132.08804
G1 X172.500 Y131.403 E132.20624
G1 X171.722 Y132.417 E132.32445
G1 X170.859 Y133.359 E132.44265
G1 X169.917 Y134.222 E132.56086
G1 X168.903 Y135.000 E132.67906
G1 X167.825 Y135.687 E132.79726
G1 X166.691 Y136.277 E132.91547
G1 X165.510 Y136.766 E133.03367
G1 X164.292 Y137.150 E133.15188
G1 X163.044 Y137.427 E133.27008
G1 X161.782 Y137.593 E133.38783
G1 X160.492 Y137.650 E133.50720
G1 X39.508 Y137.650 E144.69718
G1 X38.218 Y137.593 E144.81655
G1 X36.956 Y137.427 E144.93430
G1 X35.708 Y137.150 E145.05251
G1 X34.490 Y136.766 E145.17071
G1 X33.309 Y136.277 E145.28891
G1 X32.175 Y135.687 E145.40712
G1 X31.097 Y135.000 E145.52532
G1 X30.083 Y134.222 E145.64353
G1 X29.141 Y133.359 E145.76173
G1 X28.278 Y132.417 E145.87993
G1 X27.500 Y131.403 E145.99814
G1 X26.813 Y130.325 E146.11634
G1 X26.223 Y129.191 E146.23454
G1 X25.734 Y128.010 E146.35275
G1 X25.350 Y126.792 E146.47095
G1 X25.073 Y125.544 E146.58916
G1 X24.907 Y124.282 E146.70691
G1 X24.850 Y122.992 E146.82628
G1 X24.850 Y67.008 E152.00434
G1 X24.911 Y65.613 E152.13345
G1 X25.073 Y64.456 E152.24150
G1 X25.350 Y63.208 E152.35971
G1 X25.734 Y61.990 E152.47791
G1 X26.223 Y60.809 E152.59612
G1 X26.813 Y59.675 E152.71432
G1 X27.500 Y58.597 E152.83253
G1 X28.278 Y57.583 E152.95073
G1 X28.774 Y57.042 E153.01867
G1 X161.820 Y52.760 F6000.000
G1 X29.918 Y58.357 F6000.000
G1 X29.938 Y58.377 E153.02129 F1260.000
G1 X29.482 Y58.826 E153.08046
G1 X29.938 Y59.282 E153.14009
G1 X29.089 Y59.338 E153.21874
G1 X29.938 Y60.187 E153.32974
G1 X29.938 Y61.092 E153.41342
G1 X28.718 Y59.872 E153.57299
G1 X28.366 Y60.424 E153.63359
G1 X29.938 Y61.996 E153.83923
G1 X29.938 Y62.901 E153.92291
G1 X28.048 Y61.011 E154.17013
G1 X27.744 Y61.612 E154.23240
G1 X29.938 Y63.806 E154.51941
G1 X29.938 Y64.711 E154.60309
G1 X27.479 Y62.251 E154.92478
G1 X27.237 Y62.915 E154.99007
G1 X29.938 Y65.615 E155.34332
G1 X29.938 Y66.520 E155.42700
G1 X27.021 Y63.603 E155.80860
G1 X26.852 Y64.339 E155.87849
G1 X29.938 Y67.425 E156.28207
G1 X29.938 Y68.330 E156.36575
G1 X26.714 Y65.106 E156.78742
G1 X26.612 Y65.909 E156.86227
G1 X29.938 Y69.234 E157.29729
G1 X29.938 Y70.139 E157.38097
G1 X26.574 Y66.775 E157.82099
G1 X26.562 Y67.668 E157.90358
G1 X29.938 Y71.044 E158.34515
G1 X29.938 Y71.949 E158.42883
G1 X26.562 Y68.573 E158.87041
G1 X26.562 Y69.478 E158.95409
G1 X29.938 Y72.853 E159.39567
G1 X29.938 Y73.758 E159.47935
G1 X26.562 Y70.382 E159.92093
G1 X26.562 Y71.287 E160.00461
G1 X29.938 Y74.663 E160.44618
G1 X29.938 Y75.568 E160.52987
G1 X26.562 Y72.192 E160.97144
G1 X26.562 Y73.097 E161.05512
G1 X29.938 Y76.472 E161.49670
G1 X29.938 Y77.377 E161.58038
G1 X26.562 Y74.001 E162.02196
G1 X26.562 Y74.906 E162.10564
G1 X29.938 Y78.282 E162.54722
G1 X29.938 Y79.187 E162.63090
G1 X26.562 Y75.811 E163.07248
G1 X26.562 Y76.716 E163.15616
G1 X29.938 Y80.091 E163.59773
G1 X29.938 Y80.996 E163.68142
G1 X26.562 Y77.620 E164.12299
G1 X26.562 Y78.525 E164.20667
G1 X29.938 Y81.901 E164.64825
G1 X29.938 Y82.806 E164.73193
G1 X26.562 Y79.430 E165.17351
G1 X26.562 Y80.335 E165.25719
G1 X29.938 Y83.711 E165.69877
G1 X29.938 Y84.615 E165.78245
G1 X26.562 Y81.239 E166.22402
G1 X26.562 Y82.144 E166.30771
G1 X29.938 Y85.520 E166.74928
G1 X29.938 Y86.425 E166.83296
G1 X26.562 Y83.049 E167.27454
G1 X26.562 Y83.954 E167.35822
G1 X29.938 Y87.330 E167.79980
G1 X29.938 Y88.234 E167.88348
G1 X26.562 Y84.858 E168.32506
G1 X26.562 Y85.763 E168.40874
G1 X29.938 Y89.139 E168.85032
G1 X29.938 Y90.044 E168.93400
G1 X26.562 Y86.668 E169.37557
G1 X26.562 Y87.573 E169.45926
G1 X29.938 Y90.949 E169.90083
G1 X29.938 Y91.853 E169.98451
G1 X26.562 Y88.477 E170.42609
G1 X26.562 Y89.382 E170.50977
G1 X29.938 Y92.758 E170.95135
G1 X29.938 Y93.663 E171.03503
G1 X26.562 Y90.287 E171.47661
G1 X26.562 Y91.192 E171.56029
G1 X29.938 Y94.568 E172.00187
G1 X29.938 Y95.472 E172.08555
G1 X26.562 Y92.096 E172.52712
G1 X26.562 Y93.001 E172.61081
G1 X29.938 Y96.377 E173.05238
G1 X29.938 Y97.282 E173.13606
G1 X26.562 Y93.906 E173.57764
G1 X26.562 Y94.811 E173.66132
G1 X29.938 Y98.187 E174.10290
G1 X29.938 Y99.091 E174.18658
G1 X26.562 Y95.715 E174.62816
G1 X26.562 Y96.620 E174.71184
G1 X29.938 Y99.996 E175.15342
G1 X29.938 Y100.901 E175.23710
G1 X26.562 Y97.525 E175.67867
G1 X26.562 Y98.430 E175.76236
G1 X29.938 Y101.806 E176.20393
G1 X29.938 Y102.710 E176.28761
G1 X26.562 Y99.335 E176.72919
G1 X26.562 Y100.239 E176.81287
G1 X29.938 Y103.615 E177.25445
G1 X29.938 Y104.520 E177.33813
G1 X26.562 Y101.144 E177.77971
G1 X26.562 Y102.049 E177.86339
G1 X29.938 Y105.425 E178.30497
G1 X29.938 Y106.329 E178.38865
G1 X26.562 Y102.954 E178.83022
G1 X26.562 Y103.858 E178.91391
G1 X29.938 Y107.234 E179.35548
G1 X29.938 Y108.139 E179.43916
G1 X26.562 Y104.763 E179.88074
G1 X26.562 Y105.668 E179.96442
G1 X29.938 Y109.044 E180.40600
G1 X29.938 Y109.949 E180.48968
G1 X26.562 Y106.573 E180.93126
G1 X26.562 Y107.477 E181.01494
G1 X29.938 Y110.853 E181.45652
G1 X29.938 Y111.758 E181.54020
G1 X26.562 Y108.382 E181.98177
G1 X26.562 Y109.287 E182.06546
G1 X29.938 Y112.663 E182.50703
G1 X29.938 Y113.568 E182.59071
G1 X26.562 Y110.192 E183.03229
G1 X26.562 Y111.096 E183.11597
G1 X29.938 Y114.472 E183.55755
G1 X29.938 Y115.377 E183.64123
G1 X26.562 Y112.001 E184.08281
G1 X26.562 Y112.906 E184.16649
G1 X29.938 Y116.282 E184.60807
