; generated by Slic3r 1.1.7 on 2015-04-12 at 13:28:13

; perimeters extrusion width = 0.40mm
; infill extrusion width = 0.67mm
; solid infill extrusion width = 0.67mm
; top infill extrusion width = 0.67mm
; support material extrusion width = 0.40mm

G21 ; set units to millimeters
M107
M190 S60 ; wait for bed temperature to be reached
M104 S210 ; set temperature
G28 ; home all axes
G1 Z5 F5000 ; lift nozzle
M109 S210 ; wait for temperature to be reached
G90 ; use absolute coordinates
G92 E0
M82 ; use absolute distances for extrusion
G1 F2400.000 E-3.00000
G92 E0
G1 Z-4.350 F6000.000
G1 X34.256 Y62.648 F6000.000
G1 E3.00000 F2400.000
G1 X36.650 Y62.114 E3.22690 F1080.000
G1 X163.350 Y62.114 E14.94550
G1 X165.426 Y62.511 E15.14101
G1 X167.211 Y63.644 E15.33653 F1080.000
G1 X168.452 Y65.356 E15.53204
G1 X168.986 Y67.750 E15.75894
G1 X168.986 Y122.250 E20.79970
G1 X168.589 Y124.326 E20.99521
G1 X167.456 Y126.111 E21.19073
G1 X165.744 Y127.352 E21.38624
G1 X163.350 Y127.886 E21.61314
G1 X36.650 Y127.886 E33.33174
G1 X34.574 Y127.489 E33.52726
G1 X32.789 Y126.356 E33.72277
G1 X31.548 Y124.644 E33.91829
G1 X31.014 Y122.250 E34.14519
G1 X31.014 Y67.750 E39.18594
G1 X31.411 Y65.674 E39.38146
G1 X32.544 Y63.889 E39.57697
G1 X34.207 Y62.684 E39.76694
G1 F2400.000 E36.76694
G92 E0
G1 X157.038 Y118.749 F6000.000
G1 E3.00000 F2400.000
G1 X157.013 Y118.448 E3.02786 F720.000
G1 X157.022 Y118.274 E3.04402
G1 X157.044 Y118.103 E3.05995
G1 X157.119 Y117.817 E3.08733
G1 X157.281 Y117.456 E3.12391
G1 X157.373 Y117.311 E3.13976
G1 X157.562 Y117.082 E3.16726
G1 X157.866 Y116.820 E3.20441
G1 X158.014 Y116.726 E3.22062
G1 X158.277 Y116.601 E3.24758
G1 X158.669 Y116.492 E3.28520
G1 X158.962 Y116.465 E3.31234
G1 X159.137 Y116.469 E3.32854
G1 X159.367 Y116.499 E3.35005 F720.000
G1 X159.651 Y116.574 E3.37720
G1 X159.864 Y116.663 E3.39856
G1 X160.120 Y116.810 E3.42581
G1 X160.303 Y116.953 E3.44731
G1 X160.511 Y117.160 E3.47448
G1 X160.714 Y117.446 E3.50687
G1 X160.818 Y117.652 E3.52825
G1 X160.917 Y117.929 E3.55541
G1 X160.978 Y118.270 E3.58746
G1 X160.987 Y118.451 E3.60424
G1 X160.955 Y118.801 E3.63676
G1 X160.882 Y119.082 E3.66364
G1 X160.795 Y119.300 E3.68527
G1 X160.651 Y119.552 E3.71220
G1 X160.511 Y119.740 E3.73382
G1 X160.303 Y119.947 E3.76098
G1 X160.120 Y120.090 E3.78248
G1 X159.864 Y120.237 E3.80974
G1 X159.651 Y120.326 E3.83110
G1 X159.367 Y120.401 E3.85825
G1 X159.137 Y120.431 E3.87976
G1 X158.788 Y120.424 E3.91206
G1 X158.498 Y120.371 E3.93931
G1 X158.277 Y120.299 E3.96074
G1 X158.014 Y120.174 E3.98771
G1 X157.725 Y119.973 E4.02027
G1 X157.562 Y119.818 E4.04108
G1 X157.373 Y119.589 E4.06858
G1 X157.201 Y119.291 E4.10042
G1 X157.119 Y119.083 E4.12103
G1 X157.047 Y118.808 E4.14736
G1 X157.668 Y118.664 F6000.000
G1 X157.655 Y118.330 E4.17826 F360.000
G1 X157.696 Y118.100 E4.19987
G1 X157.820 Y117.795 E4.23030
G1 X157.963 Y117.586 E4.25377
G1 X158.203 Y117.361 E4.28425
G1 X158.432 Y117.225 E4.30886
G1 X158.742 Y117.125 E4.33897
G1 X158.978 Y117.100 E4.36087
G1 X159.332 Y117.141 E4.39384 F360.000
G1 X159.556 Y117.220 E4.41580
G1 X159.688 Y117.289 E4.42957
G1 X159.858 Y117.408 E4.44878
G1 X160.028 Y117.575 E4.47083
G1 X160.221 Y117.874 E4.50373
G1 X160.329 Y118.211 E4.53647
G1 X160.344 Y118.572 E4.56987
G1 X160.303 Y118.804 E4.59172
G1 X160.232 Y118.999 E4.61091
G1 X160.165 Y119.132 E4.62464
G1 X160.028 Y119.325 E4.64657
G1 X159.763 Y119.564 E4.67956
G1 X159.445 Y119.724 E4.71250
G1 X159.215 Y119.783 E4.73442
G1 X159.008 Y119.800 E4.75371
G1 X158.654 Y119.755 E4.78666
G1 X158.327 Y119.620 E4.81938
G1 X158.129 Y119.482 E4.84168
G1 X158.027 Y119.385 E4.85470
G1 X157.820 Y119.105 E4.88699
G1 X157.731 Y118.911 E4.90668
G1 X157.679 Y118.723 E4.92470
G1 F2400.000 E1.92470
G92 E0
G1 X159.075 Y116.758 F6000.000
G1 X148.300 Y72.066 F6000.000
G1 E3.00000 F2400.000
G1 X148.061 Y72.099 E3.02237 F360.000
G1 X147.819 Y72.088 E3.04477
G1 X147.469 Y71.991 E3.07829
G1 X147.256 Y71.877 E3.10065
G1 X146.983 Y71.638 E3.13421
G1 X146.841 Y71.442 E3.15658
G1 X146.736 Y71.225 E3.17896
G1 X146.656 Y70.875 E3.21217
G1 X146.656 Y70.625 E3.23521
G1 X146.736 Y70.275 E3.26842
G1 X146.908 Y69.956 E3.30195
G1 X147.067 Y69.774 E3.32432
G1 X147.360 Y69.561 E3.35783
G1 X147.583 Y69.466 E3.38024
G1 X147.819 Y69.412 E3.40261
G1 X148.090 Y69.404 E3.42774
G1 X148.300 Y69.434 E3.44737 F360.000
G1 X148.531 Y69.509 E3.46978
G1 X148.744 Y69.623 E3.49214
G1 X148.933 Y69.774 E3.51455
G1 X149.092 Y69.956 E3.53692
G1 X149.216 Y70.164 E3.55934
G1 X149.301 Y70.389 E3.58159
G1 X149.344 Y70.625 E3.60378
G1 X149.344 Y70.875 E3.62681
G1 X149.301 Y71.111 E3.64900
G1 X149.216 Y71.336 E3.67126
G1 X149.092 Y71.544 E3.69366
G1 X148.933 Y71.726 E3.71602
G1 X148.744 Y71.877 E3.73844
G1 X148.531 Y71.991 E3.76081
G1 X148.358 Y72.050 E3.77768
G1 F2400.000 E0.77768
G92 E0
G1 X148.098 Y69.192 F6000.000
G1 X53.350 Y70.750 F6000.000
G1 E3.00000 F2400.000
G1 X53.328 Y70.994 E3.02264 F360.000
G1 X53.264 Y71.225 E3.04479
G1 X53.092 Y71.544 E3.07832
G1 X52.842 Y71.805 E3.11183
G1 X52.531 Y71.991 E3.14535
G1 X52.181 Y72.088 E3.17886
G1 X51.939 Y72.099 E3.20127
G1 X51.700 Y72.066 E3.22364
G1 X51.360 Y71.939 E3.25720
G1 X51.158 Y71.805 E3.27957
G1 X50.983 Y71.638 E3.30197
G1 X50.841 Y71.442 E3.32435
G1 X50.736 Y71.225 E3.34672
G1 X50.656 Y70.875 E3.37994
G1 X50.672 Y70.506 E3.41403
G1 X50.784 Y70.164 E3.44729
G1 X50.983 Y69.862 E3.48082
G1 X51.158 Y69.695 E3.50322
G1 X51.360 Y69.561 E3.52559
G1 X51.700 Y69.434 E3.55916
G1 X51.939 Y69.401 E3.58152
G1 X52.090 Y69.404 E3.59546
G1 X52.300 Y69.434 E3.61509 F360.000
G1 X52.531 Y69.509 E3.63750
G1 X52.744 Y69.623 E3.65987
G1 X52.933 Y69.774 E3.68228
G1 X53.092 Y69.956 E3.70465
G1 X53.216 Y70.164 E3.72706
G1 X53.301 Y70.389 E3.74932
G1 X53.347 Y70.690 E3.77744
G1 X52.047 Y69.196 F6000.000
G1 F2400.000 E0.77744
G92 E0
G1 X41.502 Y116.529 F6000.000
G1 E3.00000 F2400.000
G1 X41.829 Y116.646 E3.03211 F720.000
G1 X42.134 Y116.820 E3.06456
G1 X42.405 Y117.047 E3.09732
G1 X42.655 Y117.353 E3.13380
G1 X42.799 Y117.609 E3.16103
G1 X42.866 Y117.770 E3.17709
G1 X42.956 Y118.103 E3.20902
G1 X42.987 Y118.452 E3.24139
G1 X42.956 Y118.797 E3.27347
G1 X42.866 Y119.130 E3.30540
G1 X42.799 Y119.291 E3.32146
G1 X42.655 Y119.547 E3.34869
G1 X42.405 Y119.853 E3.38517
G1 X42.134 Y120.080 E3.41793
G1 X41.829 Y120.254 E3.45038
G1 X41.668 Y120.320 E3.46649
G1 X41.386 Y120.398 E3.49354
G1 X41.038 Y120.435 E3.52587
G1 X40.688 Y120.411 E3.55832
G1 X40.349 Y120.326 E3.59068
G1 X40.029 Y120.182 E3.62312
G1 X39.740 Y119.985 E3.65551
G1 X39.453 Y119.694 E3.69327
G1 X39.287 Y119.454 E3.72030
G1 X39.205 Y119.300 E3.73646
G1 X39.083 Y118.971 E3.76888
G1 X39.022 Y118.630 E3.80090
G1 X39.022 Y118.271 E3.83414
G1 X39.083 Y117.929 E3.86626
G1 X39.136 Y117.762 E3.88246
G1 X39.260 Y117.496 E3.90960
G1 X39.489 Y117.160 E3.94720
G1 X39.740 Y116.915 E3.97963
G1 X40.029 Y116.718 E4.01202
G1 X40.349 Y116.574 E4.04445
G1 X40.688 Y116.489 E4.07682
G1 X40.863 Y116.469 E4.09309
G1 X41.154 Y116.471 E4.12000
G1 X41.444 Y116.516 E4.14711 F720.000
G1 X41.346 Y117.145 F6000.000
G1 X41.568 Y117.225 E4.16892 F360.000
G1 X41.773 Y117.344 E4.19086
G1 X41.958 Y117.499 E4.21323
G1 X42.120 Y117.697 E4.23681
G1 X42.269 Y117.989 E4.26717
G1 X42.329 Y118.214 E4.28873
G1 X42.350 Y118.451 E4.31068
G1 X42.329 Y118.686 E4.33252
G1 X42.269 Y118.911 E4.35408
G1 X42.120 Y119.203 E4.38444
G1 X41.958 Y119.401 E4.40803
G1 X41.773 Y119.556 E4.43040
G1 X41.568 Y119.675 E4.45234
G1 X41.258 Y119.775 E4.48245
G1 X41.022 Y119.800 E4.50436
G1 X40.785 Y119.783 E4.52641
G1 X40.555 Y119.724 E4.54832
G1 X40.338 Y119.626 E4.57038
G1 X40.142 Y119.492 E4.59230
G1 X39.953 Y119.302 E4.61708
G1 X39.779 Y119.026 E4.64725
G1 X39.697 Y118.804 E4.66915
G1 X39.656 Y118.572 E4.69096
G1 X39.656 Y118.328 E4.71350
G1 X39.697 Y118.096 E4.73534
G1 X39.779 Y117.874 E4.75725
G1 X39.899 Y117.668 E4.77926
G1 X40.053 Y117.488 E4.80124
G1 X40.237 Y117.336 E4.82324
G1 X40.444 Y117.220 E4.84521
G1 X40.668 Y117.141 E4.86718
G1 X40.992 Y117.100 E4.89740
G1 X41.287 Y117.132 E4.92483 F360.000
G1 X41.014 Y116.804 F6000.000
G1 F2400.000 E1.92483
G92 E0
G1 X142.442 Y120.233 F6000.000
G1 E3.00000 F2400.000
G1 X142.914 Y120.006 E3.04847 F720.000
G1 X144.474 Y119.127 E3.21407
G1 X145.976 Y118.150 E3.37977
G1 X147.408 Y117.081 E3.54506
G1 X148.773 Y115.919 E3.71086
G1 X150.057 Y114.676 E3.87618
G1 X151.261 Y113.350 E4.04184
G1 X152.378 Y111.950 E4.20748
G1 X153.400 Y110.483 E4.37282
G1 X154.330 Y108.950 E4.53861
G1 X155.156 Y107.366 E4.70389
G1 X155.881 Y105.728 E4.86961
G1 X156.500 Y104.048 E5.03518
G1 X157.008 Y102.333 E5.20058
G1 X157.407 Y100.586 E5.36635
G1 X157.692 Y98.824 E5.53149
G1 X157.864 Y97.046 E5.69668
G1 X157.922 Y95.250 E5.86286
G1 X157.864 Y93.454 E6.02904
G1 X157.692 Y91.676 E6.19424
G1 X157.407 Y89.914 E6.35937
G1 X157.008 Y88.167 E6.52514
G1 X156.500 Y86.452 E6.69054
G1 X155.881 Y84.772 E6.85611
G1 X155.156 Y83.134 E7.02183
G1 X154.330 Y81.550 E7.18711
G1 X153.400 Y80.017 E7.35290
G1 X152.378 Y78.550 E7.51824
G1 X151.261 Y77.150 E7.68388
G1 X150.057 Y75.824 E7.84954
G1 X148.773 Y74.581 E8.01486
G1 X147.350 Y73.370 E8.18766
G1 X148.116 Y73.370 E8.25851
G1 X148.351 Y73.349 E8.28030
G1 X148.585 Y73.307 E8.30229
G1 X149.029 Y73.162 E8.34551
G1 X149.242 Y73.060 E8.36735
G1 X149.636 Y72.800 E8.41097
G1 X149.975 Y72.476 E8.45437
G1 X150.123 Y72.290 E8.47632
G1 X150.362 Y71.890 E8.51946
G1 X150.455 Y71.673 E8.54127
G1 X150.580 Y71.221 E8.58469
G1 X150.623 Y70.750 E8.62841
G1 X150.611 Y70.507 E8.65092
G1 X150.528 Y70.052 E8.69373
G1 X150.455 Y69.827 E8.71554
G1 X150.259 Y69.371 E8.76145
G1 X161.729 Y69.371 E9.82228
G1 X161.729 Y117.175 E14.24368
G1 X161.363 Y117.282 E14.27893
G1 X161.136 Y116.929 E14.31770
G1 X160.993 Y116.746 E14.33919
G1 X160.726 Y116.478 E14.37419
G1 X160.477 Y116.283 E14.40346
G1 X160.279 Y116.161 E14.42489
G1 X159.937 Y116.002 E14.45981
G1 X159.635 Y115.906 E14.48914
G1 X159.408 Y115.860 E14.51059
G1 X158.946 Y115.829 E14.55342
G1 X158.715 Y115.844 E14.57476
G1 X158.341 Y115.913 E14.60992
G1 X158.123 Y115.980 E14.63106
G1 X157.832 Y116.103 E14.66030
G1 X157.630 Y116.216 E14.68172
G1 X157.348 Y116.415 E14.71365
G1 X157.148 Y116.595 E14.73854
G1 X156.945 Y116.823 E14.76674
G1 X156.731 Y117.135 E14.80173
G1 X156.625 Y117.338 E14.82293
G1 X156.537 Y117.550 E14.84415
G1 X156.450 Y117.844 E14.87249
G1 X156.388 Y118.217 E14.90748
G1 X156.377 Y118.447 E14.92879
G1 X156.388 Y118.685 E14.95076
G1 X156.450 Y119.056 E14.98558
G1 X156.537 Y119.350 E15.01392
G1 X156.625 Y119.562 E15.03514
G1 X156.731 Y119.765 E15.05634
G1 X156.945 Y120.077 E15.09133
G1 X157.436 Y120.629 E15.15967
G1 X142.532 Y120.629 E16.53817
G1 X142.455 Y120.292 E16.57013
G1 X160.553 Y120.629 F6000.000
G1 X160.993 Y120.154 E16.62999 F720.000
G1 X161.136 Y119.971 E16.65147
G1 X161.363 Y119.618 E16.69024
G1 X161.729 Y119.725 E16.72550
G1 X161.729 Y120.629 E16.80907
G1 X160.613 Y120.629 E16.91223
G1 F2400.000 E13.91223
G92 E0
G1 X145.708 Y72.176 F6000.000
G1 E3.00000 F2400.000
G1 X144.474 Y71.373 E3.13615 F720.000
G1 X142.914 Y70.494 E3.30175
G1 X141.403 Y69.767 E3.45684
G1 X141.494 Y69.371 E3.49435
G1 X145.741 Y69.371 E3.88718
G1 X145.545 Y69.827 E3.93308
G1 X145.472 Y70.052 E3.95491
G1 X145.389 Y70.507 E3.99771
G1 X145.377 Y70.750 E4.02021
G1 X145.389 Y70.993 E4.04273
G1 X145.472 Y71.448 E4.08551
G1 X145.689 Y72.119 E4.15070
G1 X146.799 Y68.736 F6000.000
G1 X146.913 Y69.087 E4.18484 F720.000
G1 X146.628 Y69.314 E4.21858
G1 X146.392 Y69.583 E4.25166
G1 X146.211 Y69.887 E4.28444
G1 X146.085 Y70.221 E4.31737
G1 X146.022 Y70.566 E4.34987
G1 X146.013 Y70.750 E4.36688
G1 X146.022 Y70.934 E4.38391
G1 X146.085 Y71.279 E4.41639
G1 X146.211 Y71.613 E4.44935
G1 X146.392 Y71.917 E4.48212
G1 X146.504 Y72.057 E4.49870
G1 X146.761 Y72.303 E4.53156
G1 X147.059 Y72.500 E4.56458
G1 X147.220 Y72.577 E4.58110
G1 X147.557 Y72.687 E4.61392
G1 X147.912 Y72.734 E4.64698
G1 X148.266 Y72.719 E4.67981
G1 X148.443 Y72.687 E4.69639
G1 X148.780 Y72.577 E4.72920
G1 X149.095 Y72.408 E4.76227
G1 X149.372 Y72.186 E4.79509
G1 X149.608 Y71.917 E4.82816
G1 X149.789 Y71.613 E4.86093
G1 X149.915 Y71.280 E4.89386
G1 X149.971 Y70.982 E4.92189
G1 X149.987 Y70.750 E4.94338
G1 X149.978 Y70.566 E4.96041
G1 X149.915 Y70.220 E4.99291
G1 X149.789 Y69.887 E5.02582
G1 X149.608 Y69.583 E5.05861
G1 X149.372 Y69.314 E5.09171
G1 X149.087 Y69.087 E5.12544
G1 X149.201 Y68.736 E5.15957
G1 X162.364 Y68.736 E6.37705
G1 X162.364 Y121.264 E11.23548
G1 X139.513 Y121.264 E13.34902
G1 X139.433 Y120.853 E13.38777
G1 X141.046 Y120.200 E13.54871
G1 X142.620 Y119.442 E13.71030
G1 X144.144 Y118.583 E13.87213
G1 X145.612 Y117.629 E14.03406
G1 X147.011 Y116.584 E14.19558
G1 X148.345 Y115.448 E14.35761
G1 X149.600 Y114.233 E14.51916
G1 X150.777 Y112.937 E14.68105
G1 X151.868 Y111.569 E14.84292
G1 X152.867 Y110.136 E15.00448
G1 X153.775 Y108.638 E15.16651
G1 X154.583 Y107.090 E15.32802
G1 X155.292 Y105.489 E15.48997
G1 X155.896 Y103.848 E15.65176
G1 X156.393 Y102.172 E15.81339
G1 X156.783 Y100.464 E15.97540
G1 X157.062 Y98.742 E16.13676
G1 X157.229 Y97.005 E16.29820
G1 X157.286 Y95.250 E16.46059
G1 X157.229 Y93.495 E16.62299
G1 X157.062 Y91.758 E16.78443
G1 X156.783 Y90.036 E16.94578
G1 X156.393 Y88.328 E17.10779
G1 X155.896 Y86.652 E17.26942
G1 X155.292 Y85.011 E17.43122
G1 X154.583 Y83.410 E17.59317
G1 X153.775 Y81.862 E17.75467
G1 X152.867 Y80.364 E17.91670
G1 X151.868 Y78.931 E18.07827
G1 X150.777 Y77.563 E18.24013
G1 X149.600 Y76.267 E18.40203
G1 X148.345 Y75.052 E18.56357
G1 X147.011 Y73.916 E18.72561
G1 X145.612 Y72.871 E18.88713
G1 X144.144 Y71.917 E19.04905
G1 X142.620 Y71.058 E19.21088
G1 X141.046 Y70.300 E19.37248
G1 X139.422 Y69.642 E19.53450
G1 X137.978 Y69.163 E19.67524
G1 X138.047 Y68.736 E19.71527
G1 X146.739 Y68.736 E20.51917
G1 F2400.000 E17.51917
G92 E0
G1 X118.597 Y69.767 F6000.000
G1 E3.00000 F2400.000
G1 X117.086 Y70.494 E3.15509 F720.000
G1 X115.526 Y71.373 E3.32070
G1 X114.024 Y72.350 E3.48639
G1 X112.592 Y73.419 E3.65168
G1 X111.227 Y74.581 E3.81748
G1 X109.943 Y75.824 E3.98280
G1 X108.739 Y77.150 E4.14846
G1 X107.622 Y78.550 E4.31410
G1 X106.600 Y80.017 E4.47944
G1 X105.670 Y81.550 E4.64523
G1 X104.844 Y83.134 E4.81052
G1 X104.119 Y84.772 E4.97623
G1 X103.500 Y86.452 E5.14180
G1 X102.992 Y88.167 E5.30720
G1 X102.593 Y89.914 E5.47298
G1 X102.308 Y91.676 E5.63811
G1 X102.136 Y93.454 E5.80330
G1 X102.078 Y95.250 E5.96948
G1 X102.136 Y97.046 E6.13566
G1 X102.308 Y98.824 E6.30086
G1 X102.593 Y100.586 E6.46599
G1 X102.992 Y102.333 E6.63176
G1 X103.500 Y104.048 E6.79717
G1 X104.119 Y105.728 E6.96273
G1 X104.844 Y107.366 E7.12845
G1 X105.670 Y108.950 E7.29373
G1 X106.600 Y110.483 E7.45952
G1 X107.622 Y111.950 E7.62486
G1 X108.739 Y113.350 E7.79050
G1 X109.943 Y114.676 E7.95616
G1 X111.227 Y115.919 E8.12148
G1 X112.592 Y117.081 E8.28728
G1 X114.024 Y118.150 E8.45257
G1 X115.526 Y119.127 E8.61827
G1 X117.086 Y120.006 E8.78387
G1 X117.558 Y120.233 E8.83234
G1 X117.468 Y120.629 E8.86985
G1 X82.532 Y120.629 E12.10106
G1 X82.442 Y120.233 E12.13857
G1 X82.914 Y120.006 E12.18705
G1 X84.474 Y119.127 E12.35265
G1 X85.976 Y118.150 E12.51834
G1 X87.408 Y117.081 E12.68364
G1 X88.773 Y115.919 E12.84943
G1 X90.057 Y114.676 E13.01475
G1 X91.261 Y113.350 E13.18042
G1 X92.378 Y111.950 E13.34605
G1 X93.400 Y110.483 E13.51139
G1 X94.330 Y108.950 E13.67719
G1 X95.156 Y107.366 E13.84247
G1 X95.881 Y105.728 E14.00818
G1 X96.500 Y104.048 E14.17375
G1 X97.008 Y102.333 E14.33915
G1 X97.407 Y100.586 E14.50493
G1 X97.692 Y98.824 E14.67006
G1 X97.864 Y97.046 E14.83526
G1 X97.922 Y95.250 E15.00143
G1 X97.864 Y93.454 E15.16761
