; generated by Slic3r 1.1.7 on 2015-04-12 at 13:29:48

; perimeters extrusion width = 0.40mm
; infill extrusion width = 0.67mm
; solid infill extrusion width = 0.67mm
; top infill extrusion width = 0.67mm
; support material extrusion width = 0.40mm

G21 ; set units to millimeters
M107
M190 S60 ; wait for bed temperature to be reached
M104 S210 ; set temperature
G28 ; home all axes
G1 Z5 F5000 ; lift nozzle
M109 S210 ; wait for temperature to be reached
G90 ; use absolute coordinates
G92 E0
M82 ; use absolute distances for extrusion
G1 F2400.000 E-3.00000
G92 E0
G1 Z-4.350 F6000.000
G1 X37.606 Y82.856 F6000.000
G1 E3.00000 F2400.000
G1 X40.000 Y82.322 E3.22690 F1080.000
G1 X160.000 Y82.322 E14.32581
G1 X162.076 Y82.719 E14.52133
G1 X163.861 Y83.852 E14.71684 F1080.000
G1 X165.102 Y85.564 E14.91236
G1 X165.636 Y87.958 E15.13925
G1 X165.636 Y104.441 E16.66378
G1 X165.239 Y106.517 E16.85930
G1 X164.106 Y108.302 E17.05481
G1 X162.394 Y109.543 E17.25033
G1 X160.358 Y110.065 E17.44479
G1 X152.171 Y110.575 E18.20350
G1 X48.032 Y110.565 E27.83536
G1 X39.665 Y110.067 E28.61061
G1 X37.616 Y109.548 E28.80613
G1 X35.902 Y108.310 E29.00164
G1 X34.765 Y106.528 E29.19716
G1 X34.364 Y104.441 E29.39371
G1 X34.364 Y87.958 E30.91823
G1 X34.761 Y85.882 E31.11375
G1 X35.894 Y84.097 E31.30926
G1 X37.557 Y82.892 E31.49923
G1 F2400.000 E28.49923
G92 E0
G1 X154.971 Y102.820 F6000.000
G1 E3.00000 F2400.000
G1 X154.971 Y89.579 E4.22463 F720.000
G1 X158.379 Y89.579 E4.53979
G1 X158.379 Y102.820 E5.76442
G1 X155.031 Y102.820 E6.07403
G1 F2400.000 E3.07403
G92 E0
G1 X45.729 Y102.820 F6000.000
G1 E3.00000 F2400.000
G1 X41.621 Y102.820 E3.37991 F720.000
G1 X41.621 Y89.579 E4.60453
G1 X45.729 Y89.579 E4.98444
G1 X45.729 Y102.760 E6.20352
G1 X46.364 Y89.890 F6000.000
G1 X46.364 Y103.455 E7.45823 F720.000
G1 X40.986 Y103.455 E7.95572
G1 X40.986 Y88.944 E9.29792
G1 X159.014 Y88.944 E20.21452
G1 X159.014 Y103.455 E21.55672
G1 X154.336 Y103.455 E21.98946
G1 X154.336 Y89.890 E23.24418
G1 X46.424 Y89.890 E33.22499
G1 X47.000 Y90.525 F6000.000
G1 X47.000 Y104.091 E34.47971 F360.000
G1 X40.350 Y104.091 E35.09477
G1 X40.350 Y88.308 E36.55455
G1 X159.650 Y88.308 E47.58872
G1 X159.650 Y104.091 E49.04851
G1 X153.700 Y104.091 E49.59883
G1 X153.700 Y90.525 E50.85354
G1 X47.060 Y90.525 E60.71678
G1 X46.600 Y90.525 F6000.000
G1 F2400.000 E57.71678
G92 E0
G1 X155.452 Y102.379 F6000.000
G1 E3.00000 F2400.000
G1 X155.412 Y102.339 E3.00523 F1260.000
G1 X155.412 Y101.414 E3.09081
G1 X156.377 Y102.379 E3.21708
G1 X157.303 Y102.379 E3.30266
G1 X155.412 Y100.488 E3.54995
G1 X155.412 Y99.563 E3.63553
G1 X157.938 Y102.089 E3.96593
G1 X157.938 Y101.164 E4.05151
G1 X155.412 Y98.638 E4.38191
G1 X155.412 Y97.712 E4.46749
G1 X157.938 Y100.238 E4.79789
G1 X157.938 Y99.313 E4.88347
G1 X155.412 Y96.787 E5.21386
G1 X155.412 Y95.862 E5.29944
G1 X157.938 Y98.388 E5.62984
G1 X157.938 Y97.463 E5.71542
G1 X155.412 Y94.937 E6.04582
G1 X155.412 Y94.011 E6.13140
G1 X157.938 Y96.537 E6.46180
G1 X157.938 Y95.612 E6.54738
G1 X155.412 Y93.086 E6.87777
G1 X155.412 Y92.161 E6.96336
G1 X157.938 Y94.687 E7.29375
G1 X157.938 Y93.761 E7.37933
G1 X155.412 Y91.235 E7.70973
G1 X155.412 Y90.310 E7.79531
G1 X157.938 Y92.836 E8.12571
G1 X157.938 Y91.911 E8.21129
G1 X156.047 Y90.020 E8.45858
G1 X156.973 Y90.020 E8.54416
G1 X157.938 Y90.985 E8.67043
G1 X157.938 Y90.060 E8.75601
G1 X157.898 Y90.020 E8.76124
G1 X45.248 Y90.020 F6000.000
G1 X45.288 Y90.060 E8.76647 F1260.000
G1 X45.288 Y90.972 E8.85083
G1 X44.336 Y90.020 E8.97536
G1 X43.424 Y90.020 E9.05972
G1 X45.288 Y91.884 E9.30354
G1 X45.288 Y92.796 E9.38790
G1 X42.512 Y90.020 E9.75102
G1 X42.062 Y90.482 E9.81068
G1 X45.288 Y93.708 E10.23263
G1 X45.288 Y94.620 E10.31699
G1 X42.062 Y91.394 E10.73895
G1 X42.062 Y92.306 E10.82330
G1 X45.288 Y95.532 E11.24526
G1 X45.288 Y96.444 E11.32961
G1 X42.062 Y93.219 E11.75157
G1 X42.062 Y94.131 E11.83593
G1 X45.288 Y97.356 E12.25788
G1 X45.288 Y98.269 E12.34224
G1 X42.062 Y95.043 E12.76419
G1 X42.062 Y95.955 E12.84855
G1 X45.288 Y99.181 E13.27050
G1 X45.288 Y100.093 E13.35486
G1 X42.062 Y96.867 E13.77682
G1 X42.062 Y97.779 E13.86117
G1 X45.288 Y101.005 E14.28313
G1 X45.288 Y101.917 E14.36748
G1 X42.062 Y98.691 E14.78944
G1 X42.062 Y99.603 E14.87380
G1 X44.838 Y102.379 E15.23692
G1 X43.926 Y102.379 E15.32128
G1 X42.062 Y100.515 E15.56510
G1 X42.062 Y101.427 E15.64946
G1 X43.014 Y102.379 E15.77399
G1 X42.102 Y102.379 E15.85835
G1 X42.062 Y102.339 E15.86358
G1 F2400.000 E12.86358
G92 E0
G1 X48.677 Y104.321 F6000.000
G1 E3.00000 F2400.000
G1 X48.367 Y104.939 E3.04024 F1080.000
G1 X47.930 Y104.026 E3.09918
G1 X48.677 Y102.536 E3.19619
G1 X47.930 Y102.240 E3.24294
G1 X48.677 Y100.750 E3.33996
G1 X47.930 Y100.455 E3.38670
G1 X48.677 Y98.965 E3.48372
G1 X47.930 Y98.670 E3.53046
G1 X48.677 Y97.179 E3.62748
G1 X47.930 Y96.884 E3.67423
G1 X48.677 Y95.394 E3.77124
G1 X47.930 Y95.099 E3.81799
G1 X48.677 Y93.609 E3.91501
G1 X47.930 Y93.313 E3.96175
G1 X48.677 Y91.823 E4.05877
G1 X47.966 Y91.455 E4.10534
G1 X47.930 Y91.528 E4.11007
G1 F2400.000 E1.11007
G92 E0
G1 X152.665 Y91.455 F6000.000
G1 E3.00000 F2400.000
G1 X152.023 Y92.735 E3.08335 F1080.000
G1 X152.770 Y93.031 E3.13010
G1 X152.023 Y94.521 E3.22712
G1 X152.770 Y94.816 E3.27386
G1 X152.023 Y96.306 E3.37088
G1 X152.770 Y96.602 E3.41762
G1 X152.023 Y98.092 E3.51464
G1 X152.770 Y98.387 E3.56139
G1 X152.023 Y99.877 E3.65840
G1 X152.770 Y100.172 E3.70515
G1 X152.023 Y101.663 E3.80217
G1 X152.770 Y101.958 E3.84891
G1 X152.023 Y103.448 E3.94593
G1 X152.171 Y104.939 E4.03315
G1 X152.770 Y103.743 E4.11101
M104 S200 ; set temperature
M140 S50 ; set bed temperature
G1 F2400.000 E1.11101
G92 E0
G1 Z-4.150 F6000.000
G1 X46.350 Y89.848 F6000.000
G1 E3.00000 F2400.000
G1 X46.350 Y103.414 E3.45120 F2400.000
G1 X41.000 Y103.414 E3.62914
G1 X41.000 Y88.328 E4.13090
G1 X159.000 Y88.328 E8.05559
G1 X159.000 Y103.414 E8.55735
G1 X154.350 Y103.414 E8.71201
G1 X154.350 Y89.848 E9.16321
G1 X46.410 Y89.848 E12.75331
G1 X46.750 Y90.248 F6000.000
G1 X46.750 Y103.814 E13.20451 F2400.000
G1 X40.600 Y103.814 E13.40906
G1 X40.600 Y87.928 E13.93742
G1 X159.400 Y87.928 E17.88872
G1 X159.400 Y103.814 E18.41709
G1 X153.950 Y103.814 E18.59835
G1 X153.950 Y90.248 E19.04955
G1 X46.810 Y90.248 E22.61305
G1 X47.150 Y90.648 F6000.000
G1 X47.150 Y104.214 E23.06425 F1200.000
G1 X40.200 Y104.214 E23.29540
G1 X40.200 Y87.758 E23.84273
M106 S255
G1 X40.200 Y87.528 E23.85474 F4800.000
G1 X159.800 Y87.528 E30.10323
G1 X159.800 Y87.758 E30.11524
M107
G1 X159.800 Y104.214 E30.66257 F1200.000
G1 X153.550 Y104.214 E30.87044
G1 X153.550 Y90.648 E31.32164
G1 X47.210 Y90.648 E34.85853
G1 X159.652 Y88.130 F6000.000
G1 F2400.000 E31.85853
G92 E0
G1 X158.679 Y103.052 F6000.000
G1 E3.00000 F2400.000
G1 X158.639 Y103.092 E3.00296 F4200.000
G1 X157.749 Y103.092 E3.04945
G1 X158.679 Y102.162 E3.11817
G1 X158.679 Y101.272 E3.16467
G1 X156.859 Y103.092 E3.29914
G1 X155.969 Y103.092 E3.34564
G1 X158.679 Y100.382 E3.54587
G1 X158.679 Y99.492 E3.59236
G1 X155.079 Y103.092 E3.85835
G1 X154.671 Y102.610 E3.89135
G1 X158.679 Y98.602 E4.18743
G1 X158.679 Y97.712 E4.23393
G1 X154.671 Y101.720 E4.53001
G1 X154.671 Y100.830 E4.57651
G1 X158.679 Y96.822 E4.87259
G1 X158.679 Y95.932 E4.91909
G1 X154.671 Y99.940 E5.21517
G1 X154.671 Y99.050 E5.26167
G1 X158.679 Y95.042 E5.55775
G1 X158.679 Y94.152 E5.60425
G1 X154.671 Y98.160 E5.90033
G1 X154.671 Y97.270 E5.94683
G1 X158.679 Y93.262 E6.24291
G1 X158.679 Y92.372 E6.28941
G1 X154.671 Y96.380 E6.58549
G1 X154.671 Y95.490 E6.63199
G1 X158.679 Y91.482 E6.92807
G1 X158.679 Y90.592 E6.97457
G1 X154.671 Y94.600 E7.27065
G1 X154.671 Y93.710 E7.31715
G1 X158.679 Y89.702 E7.61323
G1 X158.679 Y88.812 E7.65973
G1 X154.671 Y92.820 E7.95581
G1 X154.671 Y91.930 E8.00231
G1 X157.952 Y88.649 E8.24468
G1 X157.062 Y88.649 E8.29117
G1 X154.671 Y91.040 E8.46778
G1 X154.671 Y90.150 E8.51428
G1 X156.172 Y88.649 E8.62513
G1 X155.282 Y88.649 E8.67163
G1 X154.404 Y89.527 E8.73645
G1 X154.392 Y88.649 E8.78228
G1 X153.514 Y89.527 E8.84710
G1 X153.502 Y88.649 E8.89293
G1 X152.624 Y89.527 E8.95775
G1 X152.612 Y88.649 E9.00359
G1 X151.734 Y89.527 E9.06840
G1 X151.722 Y88.649 E9.11424
G1 X150.844 Y89.527 E9.17905
G1 X150.832 Y88.649 E9.22489
G1 X149.954 Y89.527 E9.28970
G1 X149.942 Y88.649 E9.33554
G1 X149.064 Y89.527 E9.40036
G1 X149.052 Y88.649 E9.44619
G1 X148.174 Y89.527 E9.51101
G1 X148.162 Y88.649 E9.55684
G1 X147.284 Y89.527 E9.62166
G1 X147.272 Y88.649 E9.66750
G1 X146.394 Y89.527 E9.73231
G1 X146.382 Y88.649 E9.77815
G1 X145.504 Y89.527 E9.84296
G1 X145.492 Y88.649 E9.88880
G1 X144.614 Y89.527 E9.95361
G1 X144.602 Y88.649 E9.99945
G1 X143.724 Y89.527 E10.06426
G1 X143.712 Y88.649 E10.11010
G1 X142.834 Y89.527 E10.17491
G1 X142.822 Y88.649 E10.22075
G1 X141.944 Y89.527 E10.28556
G1 X141.932 Y88.649 E10.33140
G1 X141.054 Y89.527 E10.39621
G1 X141.042 Y88.649 E10.44205
G1 X140.164 Y89.527 E10.50686
G1 X140.152 Y88.649 E10.55270
G1 X139.274 Y89.527 E10.61751
G1 X139.262 Y88.649 E10.66335
G1 X138.384 Y89.527 E10.72816
G1 X138.372 Y88.649 E10.77400
G1 X137.494 Y89.527 E10.83881
G1 X137.482 Y88.649 E10.88465
G1 X136.604 Y89.527 E10.94947
G1 X136.592 Y88.649 E10.99530
G1 X135.714 Y89.527 E11.06012
G1 X135.702 Y88.649 E11.10595
G1 X134.824 Y89.527 E11.17077
G1 X134.812 Y88.649 E11.21660
G1 X133.934 Y89.527 E11.28142
G1 X133.922 Y88.649 E11.32725
G1 X133.044 Y89.527 E11.39207
G1 X133.032 Y88.649 E11.43790
G1 X132.154 Y89.527 E11.50272
G1 X132.142 Y88.649 E11.54855
G1 X131.264 Y89.527 E11.61337
G1 X131.252 Y88.649 E11.65920
G1 X130.374 Y89.527 E11.72402
G1 X130.362 Y88.649 E11.76985
G1 X129.484 Y89.527 E11.83467
G1 X129.472 Y88.649 E11.88050
G1 X128.594 Y89.527 E11.94532
G1 X128.582 Y88.649 E11.99115
G1 X127.704 Y89.527 E12.05597
G1 X127.692 Y88.649 E12.10180
G1 X126.814 Y89.527 E12.16662
G1 X126.802 Y88.649 E12.21245
G1 X125.924 Y89.527 E12.27727
G1 X125.912 Y88.649 E12.32310
G1 X125.034 Y89.527 E12.38792
G1 X125.022 Y88.649 E12.43375
G1 X124.144 Y89.527 E12.49857
G1 X124.132 Y88.649 E12.54440
G1 X123.254 Y89.527 E12.60922
G1 X123.242 Y88.649 E12.65506
G1 X122.364 Y89.527 E12.71987
G1 X122.352 Y88.649 E12.76571
G1 X121.474 Y89.527 E12.83052
G1 X121.462 Y88.649 E12.87636
G1 X120.584 Y89.527 E12.94117
G1 X120.572 Y88.649 E12.98701
G1 X119.694 Y89.527 E13.05182
G1 X119.682 Y88.649 E13.09766
G1 X118.804 Y89.527 E13.16247
G1 X118.792 Y88.649 E13.20831
G1 X117.914 Y89.527 E13.27312
G1 X117.902 Y88.649 E13.31896
G1 X117.024 Y89.527 E13.38377
G1 X117.012 Y88.649 E13.42961
G1 X116.134 Y89.527 E13.49442
G1 X116.122 Y88.649 E13.54026
G1 X115.244 Y89.527 E13.60507
G1 X115.232 Y88.649 E13.65091
G1 X114.354 Y89.527 E13.71572
G1 X114.342 Y88.649 E13.76156
G1 X113.464 Y89.527 E13.82637
G1 X113.452 Y88.649 E13.87221
G1 X112.574 Y89.527 E13.93702
G1 X112.562 Y88.649 E13.98286
G1 X111.684 Y89.527 E14.04767
G1 X111.672 Y88.649 E14.09351
G1 X110.794 Y89.527 E14.15832
G1 X110.782 Y88.649 E14.20416
G1 X109.904 Y89.527 E14.26897
G1 X109.892 Y88.649 E14.31481
G1 X109.014 Y89.527 E14.37962
G1 X109.002 Y88.649 E14.42546
G1 X108.124 Y89.527 E14.49027
G1 X108.112 Y88.649 E14.53611
G1 X107.234 Y89.527 E14.60092
G1 X107.222 Y88.649 E14.64676
G1 X106.344 Y89.527 E14.71158
G1 X106.332 Y88.649 E14.75741
G1 X105.454 Y89.527 E14.82223
G1 X105.442 Y88.649 E14.86806
G1 X104.564 Y89.527 E14.93288
G1 X104.552 Y88.649 E14.97871
G1 X103.674 Y89.527 E15.04353
G1 X103.662 Y88.649 E15.08936
G1 X102.784 Y89.527 E15.15418
G1 X102.772 Y88.649 E15.20001
G1 X101.894 Y89.527 E15.26483
G1 X101.882 Y88.649 E15.31066
G1 X101.004 Y89.527 E15.37548
G1 X100.992 Y88.649 E15.42131
G1 X100.114 Y89.527 E15.48613
G1 X100.102 Y88.649 E15.53196
G1 X99.224 Y89.527 E15.59678
G1 X99.212 Y88.649 E15.64261
G1 X98.334 Y89.527 E15.70743
G1 X98.322 Y88.649 E15.75326
G1 X97.444 Y89.527 E15.81808
G1 X97.431 Y88.649 E15.86391
G1 X96.554 Y89.527 E15.92873
G1 X96.541 Y88.649 E15.97456
G1 X95.664 Y89.527 E16.03938
G1 X95.651 Y88.649 E16.08521
G1 X94.774 Y89.527 E16.15003
G1 X94.761 Y88.649 E16.19586
G1 X93.884 Y89.527 E16.26068
G1 X93.871 Y88.649 E16.30651
G1 X92.994 Y89.527 E16.37133
G1 X92.981 Y88.649 E16.41716
G1 X92.104 Y89.527 E16.48198
G1 X92.091 Y88.649 E16.52781
G1 X91.214 Y89.527 E16.59263
G1 X91.201 Y88.649 E16.63846
G1 X90.324 Y89.527 E16.70328
G1 X90.311 Y88.649 E16.74911
G1 X89.434 Y89.527 E16.81393
G1 X89.421 Y88.649 E16.85977
G1 X88.544 Y89.527 E16.92458
G1 X88.531 Y88.649 E16.97042
G1 X87.654 Y89.527 E17.03523
G1 X87.641 Y88.649 E17.08107
G1 X86.764 Y89.527 E17.14588
G1 X86.751 Y88.649 E17.19172
G1 X85.874 Y89.527 E17.25653
G1 X85.861 Y88.649 E17.30237
G1 X84.984 Y89.527 E17.36718
G1 X84.971 Y88.649 E17.41302
G1 X84.094 Y89.527 E17.47783
G1 X84.081 Y88.649 E17.52367
G1 X83.204 Y89.527 E17.58848
G1 X83.191 Y88.649 E17.63432
G1 X82.314 Y89.527 E17.69913
G1 X82.301 Y88.649 E17.74497
G1 X81.424 Y89.527 E17.80978
G1 X81.411 Y88.649 E17.85562
G1 X80.534 Y89.527 E17.92043
G1 X80.521 Y88.649 E17.96627
G1 X79.644 Y89.527 E18.03108
G1 X79.631 Y88.649 E18.07692
G1 X78.754 Y89.527 E18.14173
G1 X78.741 Y88.649 E18.18757
G1 X77.864 Y89.527 E18.25238
G1 X77.851 Y88.649 E18.29822
G1 X76.974 Y89.527 E18.36303
G1 X76.961 Y88.649 E18.40887
G1 X76.084 Y89.527 E18.47368
G1 X76.071 Y88.649 E18.51952
G1 X75.194 Y89.527 E18.58433
G1 X75.181 Y88.649 E18.63017
G1 X74.304 Y89.527 E18.69498
G1 X74.291 Y88.649 E18.74082
G1 X73.414 Y89.527 E18.80563
G1 X73.401 Y88.649 E18.85147
G1 X72.524 Y89.527 E18.91628
G1 X72.511 Y88.649 E18.96212
G1 X71.634 Y89.527 E19.02693
G1 X71.621 Y88.649 E19.07277
G1 X70.744 Y89.527 E19.13758
G1 X70.731 Y88.649 E19.18342
G1 X69.854 Y89.527 E19.24823
G1 X69.841 Y88.649 E19.29407
G1 X68.964 Y89.527 E19.35888
G1 X68.951 Y88.649 E19.40472
G1 X68.074 Y89.527 E19.46953
G1 X68.061 Y88.649 E19.51537
G1 X67.184 Y89.527 E19.58018
G1 X67.171 Y88.649 E19.62602
G1 X66.294 Y89.527 E19.69083
G1 X66.281 Y88.649 E19.73667
G1 X65.404 Y89.527 E19.80148
G1 X65.391 Y88.649 E19.84732
G1 X64.514 Y89.527 E19.91214
G1 X64.501 Y88.649 E19.95797
G1 X63.624 Y89.527 E20.02279
G1 X63.611 Y88.649 E20.06862
G1 X62.734 Y89.527 E20.13344
G1 X62.721 Y88.649 E20.17927
G1 X61.844 Y89.527 E20.24409
G1 X61.831 Y88.649 E20.28992
G1 X60.954 Y89.527 E20.35474
G1 X60.941 Y88.649 E20.40057
G1 X60.064 Y89.527 E20.46539
G1 X60.051 Y88.649 E20.51122
G1 X59.174 Y89.527 E20.57604
G1 X59.161 Y88.649 E20.62187
G1 X58.284 Y89.527 E20.68669
G1 X58.271 Y88.649 E20.73252
G1 X57.394 Y89.527 E20.79734
G1 X57.381 Y88.649 E20.84317
G1 X56.504 Y89.527 E20.90799
G1 X56.491 Y88.649 E20.95382
G1 X55.614 Y89.527 E21.01864
G1 X55.601 Y88.649 E21.06447
G1 X54.724 Y89.527 E21.12929
G1 X54.711 Y88.649 E21.17512
G1 X53.834 Y89.527 E21.23994
G1 X53.821 Y88.649 E21.28577
G1 X52.944 Y89.527 E21.35059
G1 X52.931 Y88.649 E21.39643
G1 X52.054 Y89.527 E21.46124
G1 X52.041 Y88.649 E21.50708
G1 X51.164 Y89.527 E21.57189
G1 X51.151 Y88.649 E21.61773
G1 X50.274 Y89.527 E21.68254
G1 X50.261 Y88.649 E21.72838
G1 X49.384 Y89.527 E21.79319
G1 X49.371 Y88.649 E21.83903
G1 X48.494 Y89.527 E21.90385
G1 X48.481 Y88.649 E21.94968
G1 X47.604 Y89.527 E22.01450
G1 X47.591 Y88.649 E22.06033
G1 X46.714 Y89.527 E22.12515
G1 X46.701 Y88.649 E22.17099
G1 X41.321 Y94.029 E22.56849
G1 X41.321 Y94.919 E22.61499
G1 X46.029 Y90.212 E22.96279
G1 X46.029 Y91.102 E23.00929
G1 X41.321 Y95.809 E23.35709
G1 X41.321 Y96.699 E23.40359
G1 X46.029 Y91.992 E23.75139
G1 X46.029 Y92.882 E23.79788
G1 X41.321 Y97.589 E24.14569
G1 X41.321 Y98.479 E24.19218
G1 X46.029 Y93.772 E24.53998
G1 X46.029 Y94.662 E24.58648
G1 X41.321 Y99.369 E24.93428
