; generated by Slic3r 1.1.7 on 2015-04-10 at 22:49:14

; perimeters extrusion width = 0.40mm
; infill extrusion width = 0.67mm
; solid infill extrusion width = 0.67mm
; top infill extrusion width = 0.67mm
; support material extrusion width = 0.40mm

G21 ; set units to millimeters
M107
M190 S60 ; wait for bed temperature to be reached
M104 S210 ; set temperature
G28 ; home all axes
G1 Z5 F5000 ; lift nozzle
M109 S210 ; wait for temperature to be reached
G90 ; use absolute coordinates
G92 E0
M82 ; use absolute distances for extrusion
G1 F2400.000 E-3.00000
G92 E0
G1 Z-4.350 F6000.000
G1 X43.772 Y45.360 F6000.000
G1 E3.00000 F2400.000
G1 X44.814 Y44.394 E3.13137 F1080.000
G1 X45.567 Y43.742 E3.22354
G1 X46.824 Y42.736 E3.37250
G1 X48.127 Y41.790 E3.52141
G1 X49.475 Y40.905 E3.67047
G1 X50.861 Y40.086 E3.81942
G1 X52.284 Y39.332 E3.96833
G1 X53.742 Y38.646 E4.11738
G1 X55.229 Y38.029 E4.26633
G1 X56.744 Y37.483 E4.41525
G1 X58.284 Y37.008 E4.56431
G1 X59.843 Y36.606 E4.71325
G1 X61.420 Y36.279 E4.86217
G1 X63.011 Y36.025 E5.01123
G1 X64.612 Y35.846 E5.16016
G1 X66.219 Y35.743 E5.30909
G1 X67.024 Y35.720 E5.38362
G1 X68.444 Y35.725 E5.51493
G1 X131.259 Y36.949 E11.32590 F1080.000
G1 X132.868 Y37.028 E11.47491
G1 X134.471 Y37.182 E11.62378
G1 X135.877 Y37.381 E11.75518
G1 X136.859 Y37.554 E11.84736
G1 X138.245 Y37.851 E11.97853
G1 X139.212 Y38.093 E12.07071
G1 X140.759 Y38.545 E12.21976
G1 X142.102 Y39.002 E12.35098
G1 X143.034 Y39.356 E12.44317
G1 X144.517 Y39.985 E12.59215
G1 X145.969 Y40.683 E12.74122
G1 X147.219 Y41.354 E12.87240
G1 X148.080 Y41.856 E12.96457
G1 X149.441 Y42.720 E13.11362
G1 X150.603 Y43.532 E13.24482
G1 X151.400 Y44.132 E13.33701
G1 X152.649 Y45.149 E13.48601
G1 X153.256 Y45.679 E13.56055
G1 X154.430 Y46.781 E13.70951
G1 X155.421 Y47.798 E13.84080
G1 X156.091 Y48.535 E13.93295
G1 X156.618 Y49.145 E14.00748
G1 X157.508 Y50.249 E14.13871
G1 X158.573 Y51.703 E14.30535
G1 X159.357 Y52.888 E14.43676
G1 X159.878 Y53.737 E14.52894
G1 X160.281 Y54.434 E14.60337
G1 X160.949 Y55.686 E14.73466
G1 X161.724 Y57.313 E14.90132
G1 X162.272 Y58.621 E15.03254
G1 X162.626 Y59.553 E15.12473
G1 X163.081 Y60.899 E15.25610
G1 X163.368 Y61.853 E15.34827
G1 X163.771 Y63.412 E15.49721
G1 X163.945 Y64.198 E15.57165
G1 X164.238 Y65.782 E15.72067
G1 X164.457 Y67.379 E15.86972
G1 X164.586 Y68.792 E16.00091
G1 X164.642 Y69.786 E16.09306
G1 X164.672 Y71.207 E16.22445
G1 X164.659 Y72.203 E16.31666
G1 X164.626 Y73.007 E16.39107
G1 X164.522 Y74.423 E16.52236
G1 X164.308 Y76.212 E16.68906
G1 X164.181 Y77.008 E16.76359
G1 X163.872 Y78.587 E16.91242
G1 X163.690 Y79.372 E16.98692
G1 X163.324 Y80.745 E17.11834
G1 X162.779 Y82.461 E17.28489
G1 X162.506 Y83.219 E17.35935
G1 X161.907 Y84.714 E17.50838
G1 X161.238 Y86.181 E17.65744
G1 X160.592 Y87.444 E17.78864
G1 X160.109 Y88.315 E17.88078
G1 X159.273 Y89.693 E18.02984
G1 X158.831 Y90.366 E18.10436
G1 X157.901 Y91.680 E18.25320
G1 X156.910 Y92.950 E18.40224
G1 X156.392 Y93.567 E18.47678
G1 X155.860 Y94.172 E18.55129
G1 X154.888 Y95.206 E18.68248
G1 X153.594 Y96.460 E18.84916
G1 X152.383 Y97.523 E18.99819
G1 X151.760 Y98.032 E19.07260
G1 X151.125 Y98.526 E19.14705
G1 X149.975 Y99.361 E19.27847
G1 X148.471 Y100.352 E19.44507
G1 X147.252 Y101.073 E19.57604
G1 X146.379 Y101.550 E19.66805
G1 X145.663 Y101.917 E19.74246
G1 X144.323 Y102.549 E19.87951
G1 X142.073 Y103.058 E20.09287
G1 X68.416 Y104.276 E26.90640
G1 X66.806 Y104.275 E27.05531
G1 X66.001 Y104.247 E27.12984
G1 X64.584 Y104.151 E27.26115
G1 X62.795 Y103.945 E27.42774
G1 X61.206 Y103.681 E27.57675
G1 X60.416 Y103.521 E27.65130
G1 X58.850 Y103.146 E27.80023
G1 X58.074 Y102.931 E27.87468
G1 X56.718 Y102.507 E28.00606
G1 X55.025 Y101.891 E28.17274
G1 X53.717 Y101.342 E28.30395
G1 X52.812 Y100.926 E28.39609
G1 X51.375 Y100.196 E28.54515
G1 X50.670 Y99.806 E28.61968
G1 X49.975 Y99.400 E28.69408
G1 X48.773 Y98.644 E28.82540
G1 X47.294 Y97.615 E28.99209
G1 X46.650 Y97.130 E29.06660
G1 X45.546 Y96.240 E29.19779
G1 X44.198 Y95.044 E29.36447
G1 X43.616 Y94.487 E29.43902
G1 X42.624 Y93.473 E29.57019
G1 X41.425 Y92.128 E29.73687
G1 X40.912 Y91.507 E29.81140
G1 X40.045 Y90.383 E29.94268
G1 X39.012 Y88.907 E30.10929
G1 X38.576 Y88.230 E30.18379
G1 X37.846 Y87.011 E30.31516
G1 X36.993 Y85.425 E30.48175
G1 X36.639 Y84.702 E30.55621
G1 X36.057 Y83.406 E30.68761
G1 X35.396 Y81.729 E30.85427
G1 X35.130 Y80.970 E30.92868
G1 X34.693 Y79.580 E31.06346
G1 X34.243 Y77.873 E31.22671
G1 X33.911 Y76.298 E31.37559
G1 X33.772 Y75.505 E31.45006
G1 X33.574 Y74.098 E31.58146
G1 X33.405 Y72.304 E31.74811
G1 X33.334 Y70.697 E31.89697
G1 X33.328 Y69.891 E31.97149
G1 X33.362 Y68.471 E32.10284
G1 X33.489 Y66.675 E32.26943
G1 X33.657 Y65.264 E32.40079
G1 X33.808 Y64.279 E32.49295
G1 X34.114 Y62.698 E32.64195
G1 X34.494 Y61.134 E32.79083
G1 X34.947 Y59.587 E32.93987
G1 X35.200 Y58.822 E33.01442
G1 X35.761 Y57.313 E33.16328
G1 X36.392 Y55.831 E33.31227
G1 X36.734 Y55.101 E33.38681
G1 X37.092 Y54.380 E33.46134
G1 X37.765 Y53.131 E33.59253
G1 X38.692 Y51.586 E33.75919
G1 X39.589 Y50.247 E33.90826
G1 X40.061 Y49.595 E33.98271
G1 X41.049 Y48.324 E34.13160
G1 X42.097 Y47.099 E34.28066
G1 X43.066 Y46.064 E34.41186
G1 X43.729 Y45.402 E34.49850
G1 F2400.000 E31.49850
G92 E0
G1 X92.384 Y77.824 F6000.000
G1 E3.00000 F2400.000
G1 X92.817 Y77.890 E3.04047 F720.000
G1 X92.812 Y81.409 E3.36598
G1 X92.339 Y82.404 E3.46789
G1 X91.730 Y83.551 E3.58801
G1 X91.069 Y84.666 E3.70785
G1 X90.355 Y85.750 E3.82797
G1 X89.617 Y86.765 E3.94399
G1 X89.188 Y87.315 E4.00850
G1 X88.353 Y88.307 E4.12846
G1 X87.917 Y88.789 E4.18860
G1 X87.010 Y89.724 E4.30900
G1 X86.064 Y90.612 E4.42907
G1 X85.076 Y91.455 E4.54922
G1 X84.085 Y92.225 E4.66523
G1 X83.520 Y92.633 E4.72972
G1 X82.441 Y93.354 E4.84969
G1 X81.327 Y94.025 E4.97004
G1 X80.183 Y94.643 E5.09033
G1 X79.014 Y95.205 E5.21030
G1 X77.815 Y95.714 E5.33067
G1 X77.208 Y95.947 E5.39086
G1 X75.980 Y96.368 E5.51089
G1 X74.733 Y96.732 E5.63108
G1 X73.468 Y97.037 E5.75147
G1 X72.193 Y97.282 E5.87149
G1 X70.907 Y97.467 E5.99169
G1 X69.611 Y97.592 E6.11209
G1 X68.315 Y97.655 E6.23210
G1 X67.015 Y97.658 E6.35231
G1 X65.715 Y97.599 E6.47270
G1 X65.068 Y97.547 E6.53277
G1 X63.779 Y97.397 E6.65276
G1 X63.136 Y97.299 E6.71294
G1 X61.857 Y97.059 E6.83333
G1 X60.594 Y96.759 E6.95332
G1 X59.345 Y96.400 E7.07356
G1 X58.112 Y95.982 E7.19394
G1 X56.905 Y95.508 E7.31393
G1 X55.718 Y94.976 E7.43418
G1 X54.557 Y94.389 E7.55456
G1 X53.428 Y93.751 E7.67453
G1 X52.327 Y93.058 E7.79480
G1 X51.260 Y92.314 E7.91517
G1 X50.232 Y91.522 E8.03514
G1 X49.731 Y91.108 E8.09523
G1 X48.793 Y90.276 E8.21124
G1 X47.828 Y89.336 E8.33581
G1 X46.943 Y88.387 E8.45585
G1 X46.101 Y87.394 E8.57625
G1 X45.308 Y86.365 E8.69641
G1 X44.565 Y85.301 E8.81646
G1 X43.871 Y84.200 E8.93686
G1 X43.230 Y83.069 E9.05702
G1 X42.644 Y81.911 E9.17708
G1 X42.111 Y80.724 E9.29748
G1 X41.636 Y79.515 E9.41762
G1 X41.218 Y78.285 E9.53769
G1 X40.858 Y77.035 E9.65810
G1 X40.557 Y75.771 E9.77823
G1 X40.316 Y74.495 E9.89831
G1 X40.218 Y73.852 E9.95851
G1 X40.067 Y72.560 E10.07885
G1 X39.977 Y71.266 E10.19881
G1 X39.948 Y69.965 E10.31913
G1 X39.980 Y68.665 E10.43946
G1 X40.073 Y67.371 E10.55942
G1 X40.221 Y66.126 E10.67536
G1 X40.327 Y65.436 E10.73996
G1 X40.571 Y64.161 E10.86004
G1 X40.875 Y62.898 E10.98017
G1 X41.239 Y61.648 E11.10057
G1 X41.660 Y60.420 E11.22064
G1 X42.138 Y59.212 E11.34079
G1 X42.674 Y58.026 E11.46119
G1 X43.263 Y56.869 E11.58125
G1 X43.907 Y55.740 E11.70141
G1 X44.604 Y54.641 E11.82181
G1 X45.349 Y53.579 E11.94185
G1 X46.145 Y52.552 E12.06202
G1 X46.989 Y51.561 E12.18242
G1 X47.877 Y50.614 E12.30246
G1 X48.809 Y49.709 E12.42264
G1 X49.784 Y48.847 E12.54304
G1 X50.286 Y48.434 E12.60313
G1 X51.316 Y47.645 E12.72310
G1 X52.385 Y46.904 E12.84347
G1 X53.487 Y46.213 E12.96373
G1 X54.618 Y45.578 E13.08371
G1 X55.196 Y45.279 E13.14389
G1 X56.373 Y44.722 E13.26428
G1 X57.570 Y44.223 E13.38428
G1 X58.792 Y43.780 E13.50450
G1 X60.035 Y43.394 E13.62489
G1 X61.291 Y43.068 E13.74489
G1 X62.563 Y42.801 E13.86512
G1 X63.848 Y42.593 E13.98550
G1 X65.137 Y42.447 E14.10550
G1 X66.434 Y42.361 E14.22574
G1 X67.736 Y42.336 E14.34612
G1 X68.385 Y42.346 E14.40617
G1 X69.681 Y42.413 E14.52618
G1 X70.976 Y42.541 E14.64657
G1 X72.262 Y42.729 E14.76678
G1 X73.536 Y42.977 E14.88680
G1 X74.800 Y43.286 E15.00719
G1 X76.047 Y43.653 E15.12738
G1 X76.662 Y43.858 E15.18733
G1 X77.880 Y44.312 E15.30761
G1 X79.077 Y44.823 E15.42797
G1 X79.664 Y45.099 E15.48800
G1 X80.819 Y45.692 E15.60804
G1 X81.907 Y46.316 E15.72405
G1 X82.500 Y46.683 E15.78859
G1 X83.043 Y47.039 E15.84861
G1 X84.103 Y47.788 E15.96866
G1 X85.130 Y48.588 E16.08906
G1 X85.628 Y49.006 E16.14921
G1 X86.592 Y49.873 E16.26917
G1 X87.060 Y50.325 E16.32929
G1 X87.964 Y51.262 E16.44969
G1 X88.821 Y52.237 E16.56982
G1 X89.232 Y52.739 E16.62979
G1 X90.019 Y53.775 E16.75010
G1 X90.757 Y54.846 E16.87044
G1 X91.106 Y55.393 E16.93044
G1 X91.764 Y56.509 E17.05027
G1 X92.371 Y57.658 E17.17040
G1 X92.841 Y58.654 E17.27230
G1 X92.837 Y62.173 E17.59782
G1 X92.404 Y62.238 E17.63829
G1 X92.256 Y61.756 E17.68495
G1 X91.814 Y60.536 E17.80494
G1 X91.312 Y59.342 E17.92476
G1 X90.752 Y58.175 E18.04448
G1 X90.133 Y57.035 E18.16448
G1 X89.459 Y55.929 E18.28423
G1 X88.731 Y54.858 E18.40401
G1 X87.949 Y53.823 E18.52401
G1 X87.118 Y52.830 E18.64371
G1 X86.238 Y51.879 E18.76355
G1 X85.310 Y50.972 E18.88354
G1 X84.341 Y50.115 E19.00320
G1 X83.329 Y49.306 E19.12309
G1 X82.277 Y48.547 E19.24306
G1 X81.191 Y47.844 E19.36270
G1 X80.069 Y47.194 E19.48263
G1 X78.916 Y46.601 E19.60257
G1 X77.737 Y46.068 E19.72221
G1 X76.531 Y45.592 E19.84218
G1 X75.302 Y45.178 E19.96207
G1 X74.057 Y44.826 E20.08173
G1 X72.793 Y44.536 E20.20172
G1 X71.517 Y44.309 E20.32156
G1 X70.235 Y44.147 E20.44106
G1 X68.945 Y44.048 E20.56077
G1 X67.645 Y44.014 E20.68105
G1 X66.345 Y44.045 E20.80127
G1 X65.054 Y44.140 E20.92100
G1 X63.772 Y44.299 E21.04051
G1 X62.496 Y44.523 E21.16033
G1 X61.231 Y44.810 E21.28032
G1 X59.985 Y45.159 E21.40000
G1 X58.756 Y45.570 E21.51987
G1 X57.548 Y46.042 E21.63985
G1 X56.368 Y46.573 E21.75949
G1 X55.213 Y47.163 E21.87941
G1 X54.089 Y47.810 E21.99936
G1 X53.002 Y48.510 E22.11900
G1 X51.948 Y49.266 E22.23896
G1 X50.933 Y50.073 E22.35887
G1 X49.962 Y50.928 E22.47852
G1 X49.033 Y51.833 E22.59850
G1 X48.150 Y52.781 E22.71836
G1 X47.317 Y53.772 E22.83804
G1 X46.532 Y54.805 E22.95804
G1 X45.801 Y55.874 E23.07784
G1 X45.125 Y56.978 E23.19758
G1 X44.503 Y58.117 E23.31757
G1 X43.940 Y59.282 E23.43731
G1 X43.435 Y60.475 E23.55711
G1 X42.990 Y61.694 E23.67711
G1 X42.607 Y62.930 E23.79679
G1 X42.286 Y64.185 E23.91665
G1 X42.027 Y65.456 E24.03663
G1 X41.832 Y66.735 E24.15629
G1 X41.702 Y68.025 E24.27619
G1 X41.635 Y69.320 E24.39615
G1 X41.634 Y70.614 E24.51579
G1 X41.697 Y71.909 E24.63574
G1 X41.824 Y73.200 E24.75566
G1 X42.016 Y74.479 E24.87531
G1 X42.271 Y75.751 E24.99528
G1 X42.589 Y77.007 E25.11516
G1 X42.969 Y78.244 E25.23483
G1 X43.411 Y79.464 E25.35482
G1 X43.913 Y80.658 E25.47464
G1 X44.473 Y81.825 E25.59436
G1 X45.092 Y82.965 E25.71436
G1 X45.766 Y84.071 E25.83411
G1 X46.494 Y85.142 E25.95389
G1 X47.276 Y86.177 E26.07389
G1 X48.107 Y87.169 E26.19359
G1 X48.987 Y88.120 E26.31343
G1 X49.862 Y88.976 E26.42666
G1 X50.883 Y89.885 E26.55308
G1 X51.896 Y90.694 E26.67297
G1 X52.889 Y91.410 E26.78617
G1 X54.034 Y92.156 E26.91257
G1 X55.156 Y92.805 E27.03250
G1 X56.244 Y93.365 E27.14567
G1 X57.488 Y93.932 E27.27207
G1 X58.694 Y94.407 E27.39203
G1 X59.853 Y94.799 E27.50516
G1 X61.168 Y95.174 E27.63158
G1 X62.432 Y95.464 E27.75157
G1 X63.636 Y95.678 E27.86464
G1 X64.989 Y95.853 E27.99090
G1 X66.280 Y95.951 E28.11061
G1 X67.580 Y95.986 E28.23089
G1 X68.879 Y95.955 E28.35111
G1 X70.170 Y95.859 E28.47085
G1 X71.453 Y95.700 E28.59035
G1 X72.729 Y95.477 E28.71017
G1 X73.994 Y95.190 E28.83017
G1 X75.170 Y94.861 E28.94307
G1 X76.469 Y94.430 E29.06970
G1 X77.677 Y93.957 E29.18968
G1 X78.790 Y93.457 E29.30257
G1 X80.011 Y92.837 E29.42924
G1 X81.135 Y92.190 E29.54919
G1 X82.223 Y91.489 E29.66883
G1 X83.277 Y90.734 E29.78878
G1 X84.292 Y89.927 E29.90869
G1 X85.263 Y89.072 E30.02835
G1 X86.192 Y88.167 E30.14832
G1 X87.075 Y87.218 E30.26818
G1 X87.908 Y86.228 E30.38787
G1 X88.693 Y85.195 E30.50787
G1 X89.424 Y84.126 E30.62767
G1 X90.100 Y83.022 E30.74740
G1 X90.722 Y81.883 E30.86740
G1 X91.285 Y80.718 E30.98714
G1 X91.790 Y79.525 E31.10694
G1 X92.235 Y78.306 E31.22693
G1 X92.367 Y77.881 E31.26804
G1 X92.966 Y70.422 F6000.000
G1 X93.462 Y70.435 E31.31392 F360.000
G1 X93.448 Y81.549 E32.34181
G1 X92.908 Y82.689 E32.45856
G1 X92.284 Y83.863 E32.58144
G1 X91.608 Y85.003 E32.70404
G1 X91.250 Y85.561 E32.76542
G1 X90.492 Y86.655 E32.88851
G1 X89.684 Y87.712 E33.01158
G1 X89.263 Y88.225 E33.07294
G1 X88.383 Y89.221 E33.19584
G1 X87.456 Y90.177 E33.31899
G1 X86.488 Y91.086 E33.44183
G1 X85.477 Y91.948 E33.56475
G1 X84.468 Y92.731 E33.68282
G1 X83.885 Y93.153 E33.74938
G1 X82.782 Y93.891 E33.87213
G1 X81.689 Y94.550 E33.99016
G1 X81.060 Y94.901 E34.05680
G1 X79.877 Y95.504 E34.17962
G1 X78.666 Y96.052 E34.30256
G1 X77.428 Y96.543 E34.42571
G1 X76.173 Y96.974 E34.54851
G1 X74.896 Y97.346 E34.67146
G1 X73.602 Y97.659 E34.79461
G1 X72.951 Y97.792 E34.85608
G1 X71.642 Y98.011 E34.97883
G1 X70.982 Y98.098 E35.04038
G1 X69.657 Y98.226 E35.16352
G1 X68.331 Y98.291 E35.28630
G1 X67.002 Y98.293 E35.40928
G1 X65.672 Y98.233 E35.53242
G1 X64.350 Y98.111 E35.65519
G1 X63.033 Y97.927 E35.77818
G1 X61.725 Y97.680 E35.90132
G1 X61.076 Y97.535 E35.96277
G1 X59.792 Y97.198 E36.08554
G1 X58.522 Y96.800 E36.20868
G1 X57.273 Y96.343 E36.33166
G1 X56.049 Y95.830 E36.45444
G1 X54.847 Y95.257 E36.57758
G1 X53.675 Y94.630 E36.70055
G1 X52.535 Y93.949 E36.82334
G1 X51.471 Y93.244 E36.94141
G1 X50.884 Y92.826 E37.00803
G1 X49.832 Y92.017 E37.13078
G1 X48.817 Y91.157 E37.25381
G1 X47.843 Y90.250 E37.37693
G1 X46.916 Y89.301 E37.49967
G1 X46.468 Y88.809 E37.56115
G1 X45.607 Y87.794 E37.68430
G1 X44.795 Y86.741 E37.80724
G1 X44.035 Y85.652 E37.93006
G1 X43.325 Y84.526 E38.05320
G1 X42.670 Y83.370 E38.17613
G1 X42.070 Y82.185 E38.29896
G1 X41.525 Y80.970 E38.42211
G1 X41.039 Y79.733 E38.54502
G1 X40.612 Y78.476 E38.66786
G1 X40.243 Y77.196 E38.79101
G1 X39.935 Y75.904 E38.91391
G1 X39.689 Y74.599 E39.03676
G1 X39.503 Y73.280 E39.15991
G1 X39.380 Y71.957 E39.28280
G1 X39.320 Y70.630 E39.40566
G1 X39.321 Y69.299 E39.52882
G1 X39.346 Y68.634 E39.59033
G1 X39.441 Y67.310 E39.71306
G1 X39.598 Y65.989 E39.83615
G1 X39.818 Y64.676 E39.95922
G1 X40.098 Y63.379 E40.08196
G1 X40.261 Y62.735 E40.14348
G1 X40.633 Y61.456 E40.26663
G1 X41.064 Y60.200 E40.38947
G1 X41.553 Y58.964 E40.51238
G1 X42.101 Y57.751 E40.63553
G1 X42.704 Y56.567 E40.75836
G1 X43.362 Y55.413 E40.88129
G1 X44.075 Y54.288 E41.00444
G1 X44.838 Y53.201 E41.12725
G1 X45.652 Y52.151 E41.25019
G1 X46.515 Y51.137 E41.37334
G1 X47.423 Y50.168 E41.49615
G1 X48.377 Y49.242 E41.61909
G1 X49.375 Y48.361 E41.74224
G1 X50.409 Y47.529 E41.86504
G1 X51.484 Y46.746 E41.98800
G1 X52.595 Y46.013 E42.11114
G1 X53.737 Y45.335 E42.23393
G1 X54.911 Y44.711 E42.35690
G1 X56.114 Y44.141 E42.48004
G1 X57.339 Y43.630 E42.60282
G1 X58.589 Y43.177 E42.72581
G1 X59.861 Y42.782 E42.84894
G1 X61.146 Y42.449 E42.97171
G1 X61.794 Y42.305 E43.03316
G1 X63.049 Y42.071 E43.15122
G1 X64.421 Y41.881 E43.27929
G1 X65.743 Y41.762 E43.40206
G1 X67.073 Y41.705 E43.52520
G1 X68.402 Y41.711 E43.64818
G1 X69.728 Y41.779 E43.77096
G1 X71.053 Y41.910 E43.89410
G1 X71.713 Y41.999 E43.95565
G1 X73.021 Y42.222 E44.07840
G1 X74.320 Y42.507 E44.20143
G1 X75.606 Y42.852 E44.32455
G1 X76.870 Y43.257 E44.44730
