; generated by Slic3r 1.1.7 on 2015-04-10 at 22:53:34

; perimeters extrusion width = 0.40mm
; infill extrusion width = 0.67mm
; solid infill extrusion width = 0.67mm
; top infill extrusion width = 0.67mm
; support material extrusion width = 0.40mm

G21 ; set units to millimeters
M107
M190 S60 ; wait for bed temperature to be reached
M104 S210 ; set temperature
G28 ; home all axes
G1 Z5 F5000 ; lift nozzle
M109 S210 ; wait for temperature to be reached
G90 ; use absolute coordinates
G92 E0
M82 ; use absolute distances for extrusion
G1 F2400.000 E-3.00000
G92 E0
G1 Z-4.350 F6000.000
G1 X22.106 Y57.223 F6000.000
G1 E3.00000 F2400.000
G1 X24.500 Y56.689 E3.22690 F1080.000
G1 X175.500 Y56.689 E17.19303
G1 X177.576 Y57.086 E17.38855
G1 X179.361 Y58.219 E17.58406 F1080.000
G1 X180.602 Y59.931 E17.77958
G1 X181.136 Y62.325 E18.00647
G1 X181.136 Y132.000 E24.45078
G1 X180.739 Y134.076 E24.64630
G1 X179.606 Y135.861 E24.84181
G1 X177.894 Y137.102 E25.03733
G1 X175.500 Y137.636 E25.26422
G1 X24.500 Y137.636 E39.23036
G1 X22.424 Y137.239 E39.42587
G1 X20.639 Y136.106 E39.62139
G1 X19.398 Y134.394 E39.81690
G1 X18.864 Y132.000 E40.04380
G1 X18.864 Y62.325 E46.48811
G1 X19.261 Y60.249 E46.68362
G1 X20.394 Y58.464 E46.87914
G1 X22.057 Y57.259 E47.06910
G1 F2400.000 E44.06910
G92 E0
G1 X32.650 Y121.360 F6000.000
G1 E3.00000 F2400.000
G1 X32.650 Y125.454 E3.37867 F360.000
G1 X26.150 Y125.454 E3.97986
G1 X26.150 Y121.360 E4.35853
G1 X32.590 Y121.360 E4.95417
G1 X33.050 Y121.360 F6000.000
G1 X167.550 Y121.360 F6000.000
G1 X173.850 Y121.360 E5.53686 F360.000
G1 X173.850 Y125.454 E5.91553
G1 X167.550 Y125.454 E6.49822
G1 X167.550 Y121.420 E6.87134
G1 X167.550 Y120.960 F6000.000
G1 X166.279 Y120.089 F6000.000
G1 X166.279 Y126.725 E7.48516 F720.000
G1 X173.879 Y126.725 E8.18809
G1 X173.879 Y130.379 E8.52602
G1 X26.121 Y130.379 E22.19225
G1 X26.121 Y126.725 E22.53017
G1 X33.921 Y126.725 E23.25160
G1 X33.921 Y120.089 E23.86543
G1 X26.121 Y120.089 E24.58686
G1 X26.121 Y63.946 E29.77952
G1 X173.879 Y63.946 E43.44575
G1 X173.879 Y120.089 E48.63841
G1 X166.339 Y120.089 E49.33579
G1 X166.914 Y120.724 F6000.000
G1 X166.914 Y126.090 E49.83203 F720.000
G1 X174.514 Y126.090 E50.53496
G1 X174.514 Y131.014 E50.99047
G1 X25.486 Y131.014 E64.77428
G1 X25.486 Y126.090 E65.22978
G1 X33.286 Y126.090 E65.95121
G1 X33.286 Y120.724 E66.44745
G1 X25.486 Y120.724 E67.16888
G1 X25.486 Y63.311 E72.47912
G1 X174.514 Y63.311 E86.26293
G1 X174.514 Y120.724 E91.57317
G1 X166.974 Y120.724 E92.27055
G1 F2400.000 E89.27055
G92 E0
G1 X175.150 Y131.650 F6000.000
G1 E3.00000 F2400.000
G1 X24.850 Y131.650 E16.90139 F360.000
G1 X24.850 Y62.675 E23.28095
G1 X175.150 Y62.675 E37.18234
G1 X175.150 Y131.590 E43.55636
G1 X174.804 Y131.450 F6000.000
G1 X173.438 Y127.411 F6000.000
G1 X173.193 Y127.166 E43.58844 F1260.000
G1 X172.293 Y127.166 E43.67166
G1 X173.438 Y128.311 E43.82144
G1 X173.438 Y129.211 E43.90466
G1 X171.393 Y127.166 E44.17213
G1 X170.493 Y127.166 E44.25535
G1 X173.265 Y129.938 E44.61793
G1 X172.366 Y129.938 E44.70115
G1 X169.594 Y127.166 E45.06374
G1 X168.694 Y127.166 E45.14696
G1 X171.466 Y129.938 E45.50954
G1 X170.566 Y129.938 E45.59276
G1 X167.794 Y127.166 E45.95534
G1 X166.894 Y127.166 E46.03856
G1 X169.666 Y129.938 E46.40114
G1 X168.766 Y129.938 E46.48436
G1 X103.216 Y64.387 E55.05855
G1 X104.115 Y64.387 E55.14177
G1 X165.838 Y126.110 E63.21522
G1 X165.838 Y125.210 E63.29844
G1 X105.015 Y64.387 E71.25419
G1 X105.915 Y64.387 E71.33741
G1 X165.838 Y124.310 E79.17548
G1 X165.838 Y123.410 E79.25870
G1 X106.815 Y64.387 E86.97907
G1 X107.714 Y64.387 E87.06229
G1 X165.838 Y122.511 E94.66496
G1 X165.838 Y121.611 E94.74818
G1 X108.614 Y64.387 E102.23317
G1 X109.514 Y64.387 E102.31639
G1 X165.838 Y120.711 E109.68368
G1 X165.838 Y119.811 E109.76690
G1 X110.414 Y64.387 E117.01650
G1 X111.313 Y64.387 E117.09972
G1 X166.574 Y119.648 E124.32793
G1 X167.474 Y119.648 E124.41116
G1 X112.213 Y64.387 E131.63937
G1 X113.113 Y64.387 E131.72259
G1 X168.374 Y119.648 E138.95080
G1 X169.274 Y119.648 E139.03402
G1 X114.013 Y64.387 E146.26223
G1 X114.913 Y64.387 E146.34546
G1 X170.173 Y119.648 E153.57367
G1 X171.073 Y119.648 E153.65689
G1 X115.812 Y64.387 E160.88510
G1 X116.712 Y64.387 E160.96832
G1 X171.973 Y119.648 E168.19653
G1 X172.873 Y119.648 E168.27976
G1 X117.612 Y64.387 E175.50797
G1 X118.512 Y64.387 E175.59119
G1 X173.438 Y119.313 E182.77565
G1 X173.438 Y118.414 E182.85887
G1 X119.411 Y64.387 E189.92564
G1 X120.311 Y64.387 E190.00886
G1 X173.438 Y117.514 E196.95794
G1 X173.438 Y116.614 E197.04116
G1 X121.211 Y64.387 E203.87255
G1 X122.111 Y64.387 E203.95577
G1 X173.438 Y115.714 E210.66946
G1 X173.438 Y114.814 E210.75268
G1 X123.011 Y64.387 E217.34868
G1 X123.910 Y64.387 E217.43190
G1 X173.438 Y113.915 E223.91021
G1 X173.438 Y113.015 E223.99343
G1 X124.810 Y64.387 E230.35405
G1 X125.710 Y64.387 E230.43727
G1 X173.438 Y112.115 E236.68019
G1 X173.438 Y111.215 E236.76341
G1 X126.610 Y64.387 E242.88864
G1 X127.509 Y64.387 E242.97186
G1 X173.438 Y110.316 E248.97940
G1 X173.438 Y109.416 E249.06262
G1 X128.409 Y64.387 E254.95247
G1 X129.309 Y64.387 E255.03569
G1 X173.438 Y108.516 E260.80785
G1 X173.438 Y107.616 E260.89107
G1 X130.209 Y64.387 E266.54553
G1 X131.109 Y64.387 E266.62875
G1 X173.438 Y106.716 E272.16552
G1 X173.438 Y105.817 E272.24874
G1 X132.008 Y64.387 E277.66782
G1 X132.908 Y64.387 E277.75104
G1 X173.438 Y104.917 E283.05243
G1 X173.438 Y104.017 E283.13565
G1 X133.808 Y64.387 E288.31934
G1 X134.708 Y64.387 E288.40256
G1 X173.438 Y103.117 E293.46856
G1 X173.438 Y102.218 E293.55178
G1 X135.607 Y64.387 E298.50009
G1 X136.507 Y64.387 E298.58331
G1 X173.438 Y101.318 E303.41393
G1 X173.438 Y100.418 E303.49715
G1 X137.407 Y64.387 E308.21007
G1 X138.307 Y64.387 E308.29329
G1 X173.438 Y99.518 E312.88853
G1 X173.438 Y98.618 E312.97175
G1 X139.207 Y64.387 E317.44929
G1 X140.106 Y64.387 E317.53251
G1 X173.438 Y97.719 E321.89235
G1 X173.438 Y96.819 E321.97557
G1 X141.006 Y64.387 E326.21773
G1 X141.906 Y64.387 E326.30095
G1 X173.438 Y95.919 E330.42541
G1 X173.438 Y95.019 E330.50863
G1 X142.806 Y64.387 E334.51540
G1 X143.705 Y64.387 E334.59862
G1 X173.438 Y94.120 E338.48770
G1 X173.438 Y93.220 E338.57092
G1 X144.605 Y64.387 E342.34231
G1 X145.505 Y64.387 E342.42553
G1 X173.438 Y92.320 E346.07922
G1 X173.438 Y91.420 E346.16244
G1 X146.405 Y64.387 E349.69845
G1 X147.304 Y64.387 E349.78167
G1 X173.438 Y90.521 E353.19998
G1 X173.438 Y89.621 E353.28320
G1 X148.204 Y64.387 E356.58381
G1 X149.104 Y64.387 E356.66703
G1 X173.438 Y88.721 E359.84996
G1 X173.438 Y87.821 E359.93318
G1 X150.004 Y64.387 E362.99841
G1 X150.904 Y64.387 E363.08163
G1 X173.438 Y86.921 E366.02917
G1 X173.438 Y86.022 E366.11239
G1 X151.803 Y64.387 E368.94224
G1 X152.703 Y64.387 E369.02546
G1 X173.438 Y85.122 E371.73761
G1 X173.438 Y84.222 E371.82084
G1 X153.603 Y64.387 E374.41530
G1 X154.503 Y64.387 E374.49852
G1 X173.438 Y83.322 E376.97529
G1 X173.438 Y82.423 E377.05851
G1 X155.402 Y64.387 E379.41759
G1 X156.302 Y64.387 E379.50081
G1 X173.438 Y81.523 E381.74220
G1 X173.438 Y80.623 E381.82542
G1 X157.202 Y64.387 E383.94911
G1 X158.102 Y64.387 E384.03233
G1 X173.438 Y79.723 E386.03833
G1 X173.438 Y78.823 E386.12155
G1 X159.002 Y64.387 E388.00986
G1 X159.901 Y64.387 E388.09308
G1 X173.438 Y77.924 E389.86370
G1 X173.438 Y77.024 E389.94692
G1 X160.801 Y64.387 E391.59984
G1 X161.701 Y64.387 E391.68307
G1 X173.438 Y76.124 E393.21830
G1 X173.438 Y75.224 E393.30152
G1 X162.601 Y64.387 E394.71906
G1 X163.500 Y64.387 E394.80228
G1 X173.438 Y74.325 E396.10213
G1 X173.438 Y73.425 E396.18535
G1 X164.400 Y64.387 E397.36750
G1 X165.300 Y64.387 E397.45072
G1 X173.438 Y72.525 E398.51519
G1 X173.438 Y71.625 E398.59841
G1 X166.200 Y64.387 E399.54518
G1 X167.100 Y64.387 E399.62840
G1 X173.438 Y70.725 E400.45748
G1 X173.438 Y69.826 E400.54070
G1 X167.999 Y64.387 E401.25208
G1 X168.899 Y64.387 E401.33531
G1 X173.438 Y68.926 E401.92900
G1 X173.438 Y68.026 E402.01222
G1 X169.799 Y64.387 E402.48822
G1 X170.699 Y64.387 E402.57144
G1 X173.438 Y67.126 E402.92975
G1 X173.438 Y66.227 E403.01297
G1 X171.598 Y64.387 E403.25359
G1 X172.498 Y64.387 E403.33681
G1 X173.438 Y65.327 E403.45974
G1 X173.438 Y64.427 E403.54296
G1 X173.398 Y64.387 E403.54819
G1 F2400.000 E400.54819
G92 E0
G1 X167.867 Y129.938 F6000.000
G1 E3.00000 F2400.000
G1 X102.316 Y64.387 E11.57419 F1260.000
G1 X101.416 Y64.387 E11.65741
G1 X166.967 Y129.938 E20.23160
G1 X166.067 Y129.938 E20.31482
G1 X100.516 Y64.387 E28.88901
G1 X99.616 Y64.387 E28.97223
G1 X165.167 Y129.938 E37.54641
G1 X164.268 Y129.938 E37.62963
G1 X98.717 Y64.387 E46.20382
G1 X97.817 Y64.387 E46.28704
G1 X163.368 Y129.938 E54.86123
G1 X162.468 Y129.938 E54.94445
G1 X96.917 Y64.387 E63.51864
G1 X96.017 Y64.387 E63.60186
G1 X161.568 Y129.938 E72.17605
G1 X160.668 Y129.938 E72.25927
G1 X95.118 Y64.387 E80.83346
G1 X94.218 Y64.387 E80.91668
G1 X159.769 Y129.938 E89.49087
G1 X158.869 Y129.938 E89.57409
G1 X93.318 Y64.387 E98.14827
G1 X92.418 Y64.387 E98.23150
G1 X157.969 Y129.938 E106.80568
G1 X157.069 Y129.938 E106.88890
G1 X91.518 Y64.387 E115.46309
G1 X90.619 Y64.387 E115.54631
G1 X156.170 Y129.938 E124.12050
G1 X155.270 Y129.938 E124.20372
G1 X89.719 Y64.387 E132.77791
G1 X88.819 Y64.387 E132.86113
G1 X154.370 Y129.938 E141.43532
G1 X153.470 Y129.938 E141.51854
G1 X87.919 Y64.387 E150.09273
G1 X87.020 Y64.387 E150.17595
G1 X152.570 Y129.938 E158.75013
G1 X151.671 Y129.938 E158.83336
G1 X86.120 Y64.387 E167.40754
G1 X85.220 Y64.387 E167.49076
G1 X150.771 Y129.938 E176.06495
G1 X149.871 Y129.938 E176.14817
G1 X84.320 Y64.387 E184.72236
G1 X83.420 Y64.387 E184.80558
G1 X148.971 Y129.938 E193.37977
G1 X148.072 Y129.938 E193.46299
G1 X82.521 Y64.387 E202.03718
G1 X81.621 Y64.387 E202.12040
G1 X147.172 Y129.938 E210.69459
G1 X146.272 Y129.938 E210.77781
G1 X80.721 Y64.387 E219.35200
G1 X79.821 Y64.387 E219.43522
G1 X145.372 Y129.938 E228.00940
G1 X144.473 Y129.938 E228.09263
G1 X78.922 Y64.387 E236.66681
G1 X78.022 Y64.387 E236.75003
G1 X143.573 Y129.938 E245.32422
G1 X142.673 Y129.938 E245.40744
G1 X77.122 Y64.387 E253.98163
G1 X76.222 Y64.387 E254.06485
G1 X141.773 Y129.938 E262.63904
G1 X140.873 Y129.938 E262.72226
G1 X75.323 Y64.387 E271.29645
G1 X74.423 Y64.387 E271.37967
G1 X139.974 Y129.938 E279.95386
G1 X139.074 Y129.938 E280.03708
G1 X73.523 Y64.387 E288.61126
G1 X72.623 Y64.387 E288.69449
G1 X138.174 Y129.938 E297.26867
G1 X137.274 Y129.938 E297.35189
G1 X71.723 Y64.387 E305.92608
G1 X70.824 Y64.387 E306.00930
G1 X136.375 Y129.938 E314.58349
G1 X135.475 Y129.938 E314.66671
G1 X69.924 Y64.387 E323.24090
G1 X69.024 Y64.387 E323.32412
G1 X134.575 Y129.938 E331.89831
G1 X133.675 Y129.938 E331.98153
G1 X68.124 Y64.387 E340.55572
G1 X67.225 Y64.387 E340.63894
G1 X132.775 Y129.938 E349.21313
G1 X131.876 Y129.938 E349.29635
G1 X66.325 Y64.387 E357.87053
G1 X65.425 Y64.387 E357.95376
G1 X130.976 Y129.938 E366.52794
G1 X130.076 Y129.938 E366.61116
G1 X64.525 Y64.387 E375.18535
G1 X63.625 Y64.387 E375.26857
G1 X129.176 Y129.938 E383.84276
G1 X128.277 Y129.938 E383.92598
G1 X62.726 Y64.387 E392.50017
G1 X61.826 Y64.387 E392.58339
G1 X127.377 Y129.938 E401.15758
G1 X126.477 Y129.938 E401.24080
G1 X60.926 Y64.387 E409.81499
G1 X60.026 Y64.387 E409.89821
G1 X125.577 Y129.938 E418.47239
G1 X124.677 Y129.938 E418.55562
G1 X59.127 Y64.387 E427.12980
G1 X58.227 Y64.387 E427.21302
G1 X123.778 Y129.938 E435.78721
G1 X122.878 Y129.938 E435.87043
G1 X57.327 Y64.387 E444.44462
G1 X56.427 Y64.387 E444.52784
G1 X121.978 Y129.938 E453.10203
G1 X121.078 Y129.938 E453.18525
G1 X55.527 Y64.387 E461.75944
G1 X54.628 Y64.387 E461.84266
G1 X120.179 Y129.938 E470.41685
G1 X119.279 Y129.938 E470.50007
G1 X53.728 Y64.387 E479.07426
G1 X52.828 Y64.387 E479.15748
G1 X118.379 Y129.938 E487.73166
G1 X117.479 Y129.938 E487.81489
G1 X51.928 Y64.387 E496.38907
G1 X51.029 Y64.387 E496.47229
G1 X116.580 Y129.938 E505.04648
G1 X115.680 Y129.938 E505.12970
G1 X50.129 Y64.387 E513.70389
G1 X49.229 Y64.387 E513.78711
G1 X114.780 Y129.938 E522.36130
G1 X113.880 Y129.938 E522.44452
G1 X48.329 Y64.387 E531.01871
G1 X47.429 Y64.387 E531.10193
G1 X112.980 Y129.938 E539.67612
G1 X112.081 Y129.938 E539.75934
G1 X46.530 Y64.387 E548.33352
G1 X45.630 Y64.387 E548.41675
G1 X111.181 Y129.938 E556.99093
G1 X110.281 Y129.938 E557.07415
G1 X44.730 Y64.387 E565.64834
G1 X43.830 Y64.387 E565.73156
G1 X109.381 Y129.938 E574.30575
G1 X108.482 Y129.938 E574.38897
G1 X42.931 Y64.387 E582.96316
G1 X42.031 Y64.387 E583.04638
G1 X107.582 Y129.938 E591.62057
G1 X106.682 Y129.938 E591.70379
G1 X41.131 Y64.387 E600.27798
G1 X40.231 Y64.387 E600.36120
G1 X105.782 Y129.938 E608.93539
G1 X104.882 Y129.938 E609.01861
G1 X39.332 Y64.387 E617.59279
G1 X38.432 Y64.387 E617.67602
G1 X103.983 Y129.938 E626.25020
G1 X103.083 Y129.938 E626.33342
G1 X37.532 Y64.387 E634.90761
G1 X36.632 Y64.387 E634.99083
G1 X102.183 Y129.938 E643.56502
G1 X101.283 Y129.938 E643.64824
G1 X35.732 Y64.387 E652.22243
G1 X34.833 Y64.387 E652.30565
G1 X100.384 Y129.938 E660.87984
G1 X99.484 Y129.938 E660.96306
G1 X33.933 Y64.387 E669.53725
G1 X33.033 Y64.387 E669.62047
G1 X98.584 Y129.938 E678.19465
G1 X97.684 Y129.938 E678.27788
G1 X32.133 Y64.387 E686.85206
G1 X31.234 Y64.387 E686.93528
G1 X96.784 Y129.938 E695.50947
G1 X95.885 Y129.938 E695.59269
G1 X30.334 Y64.387 E704.16688
G1 X29.434 Y64.387 E704.25010
G1 X94.985 Y129.938 E712.82429
G1 X94.085 Y129.938 E712.90751
G1 X28.534 Y64.387 E721.48170
G1 X27.634 Y64.387 E721.56492
G1 X93.185 Y129.938 E730.13911
G1 X92.286 Y129.938 E730.22233
G1 X26.735 Y64.387 E738.79651
G1 X26.562 Y65.114 E738.86564
G1 X91.386 Y129.938 E747.34471
G1 X90.486 Y129.938 E747.42794
G1 X26.562 Y66.014 E755.78932
G1 X26.562 Y66.914 E755.87254
G1 X89.586 Y129.938 E764.11623
G1 X88.686 Y129.938 E764.19945
G1 X26.562 Y67.814 E772.32545
G1 X26.562 Y68.713 E772.40867
G1 X87.787 Y129.938 E780.41698
G1 X86.887 Y129.938 E780.50020
G1 X26.562 Y69.613 E788.39082
G1 X26.562 Y70.513 E788.47404
G1 X85.987 Y129.938 E796.24696
G1 X85.087 Y129.938 E796.33018
G1 X26.562 Y71.413 E803.98541
G1 X26.562 Y72.312 E804.06863
G1 X84.188 Y129.938 E811.60617
G1 X83.288 Y129.938 E811.68939
G1 X26.562 Y73.212 E819.10924
G1 X26.562 Y74.112 E819.19246
G1 X82.388 Y129.938 E826.49462
G1 X81.488 Y129.938 E826.57784
G1 X26.562 Y75.012 E833.76230
G1 X26.562 Y75.911 E833.84552
G1 X80.589 Y129.938 E840.91229
G1 X79.689 Y129.938 E840.99551
G1 X26.562 Y76.811 E847.94459
G1 X26.562 Y77.711 E848.02781
G1 X78.789 Y129.938 E854.85919
G1 X77.889 Y129.938 E854.94241
G1 X26.562 Y78.611 E861.65610
G1 X26.562 Y79.511 E861.73933
G1 X76.989 Y129.938 E868.33533
G1 X76.090 Y129.938 E868.41855
G1 X26.562 Y80.410 E874.89685
G1 X26.562 Y81.310 E874.98008
G1 X75.190 Y129.938 E881.34069
G1 X74.290 Y129.938 E881.42391
G1 X26.562 Y82.210 E887.66684
G1 X26.562 Y83.110 E887.75006
G1 X73.390 Y129.938 E893.87529
G1 X72.491 Y129.938 E893.95851
G1 X26.562 Y84.009 E899.96605
G1 X26.562 Y84.909 E900.04927
G1 X71.591 Y129.938 E905.93911
G1 X70.691 Y129.938 E906.02234
G1 X26.562 Y85.809 E911.79449
G1 X26.562 Y86.709 E911.87771
G1 X69.791 Y129.938 E917.53217
G1 X68.891 Y129.938 E917.61539
G1 X26.562 Y87.609 E923.15216
G1 X26.562 Y88.508 E923.23538
G1 X67.992 Y129.938 E928.65446
G1 X67.092 Y129.938 E928.73768
G1 X26.562 Y89.408 E934.03907
G1 X26.562 Y90.308 E934.12229
G1 X66.192 Y129.938 E939.30598
G1 X65.292 Y129.938 E939.38920
G1 X26.562 Y91.208 E944.45520
G1 X26.562 Y92.107 E944.53842
G1 X64.393 Y129.938 E949.48673
G1 X63.493 Y129.938 E949.56995
G1 X26.562 Y93.007 E954.40057
G1 X26.562 Y93.907 E954.48379
G1 X62.593 Y129.938 E959.19671
