; generated by Slic3r 1.1.7 on 2015-04-11 at 12:51:19

; perimeters extrusion width = 0.40mm
; infill extrusion width = 0.67mm
; solid infill extrusion width = 0.67mm
; top infill extrusion width = 0.67mm
; support material extrusion width = 0.40mm

G21 ; set units to millimeters
M107
M190 S60 ; wait for bed temperature to be reached
M104 S210 ; set temperature
G28 ; home all axes
G1 Z5 F5000 ; lift nozzle
M109 S210 ; wait for temperature to be reached
G90 ; use absolute coordinates
G92 E0
M82 ; use absolute distances for extrusion
G1 F2400.000 E-3.00000
G92 E0
G1 Z-4.350 F6000.000
G1 X27.396 Y47.513 F6000.000
G1 E3.00000 F2400.000
G1 X29.006 Y46.699 E3.16683 F1080.000
G1 X30.674 Y46.031 E3.33302
G1 X32.398 Y45.510 E3.49957
G1 X34.158 Y45.141 E3.66594
G1 X35.698 Y44.944 E3.80949
G1 X94.053 Y39.880 E9.22707
G1 X94.500 Y39.865 E9.26847
G1 X103.770 Y39.871 E10.12582
G1 X164.549 Y44.971 E15.76716 F1080.000
G1 X166.328 Y45.227 E15.93338
G1 X167.558 Y45.500 E16.04987
G1 X168.075 Y45.637 E16.09934
G1 X169.789 Y46.199 E16.26616
G1 X170.952 Y46.681 E16.38265
G1 X171.440 Y46.907 E16.43238
G1 X172.563 Y47.491 E16.54947
G1 X173.028 Y47.757 E16.59900
G1 X174.091 Y48.434 E16.71555
G1 X174.534 Y48.742 E16.76551
G1 X175.948 Y49.854 E16.93182
G1 X176.879 Y50.707 E17.04861
G1 X177.263 Y51.088 E17.09866
G1 X178.116 Y52.019 E17.21545
G1 X178.460 Y52.426 E17.26477
G1 X179.542 Y53.871 E17.43170
G1 X180.219 Y54.934 E17.54825
G1 X180.488 Y55.397 E17.59774
G1 X181.073 Y56.520 E17.71486
G1 X181.302 Y57.006 E17.76459
G1 X181.784 Y58.170 E17.88113
G1 X181.970 Y58.674 E17.93083
G1 X182.490 Y60.398 E18.09736
G1 X182.859 Y62.159 E18.26374
G1 X183.072 Y63.936 E18.42932
G1 X183.136 Y65.500 E18.57411
G1 X183.130 Y125.750 E24.14666
G1 X183.074 Y127.020 E24.26420
G1 X183.029 Y127.550 E24.31341
G1 X182.865 Y128.797 E24.42978
G1 X182.773 Y129.329 E24.47966
G1 X182.500 Y130.559 E24.59618
G1 X182.364 Y131.075 E24.64561
G1 X181.983 Y132.283 E24.76276
G1 X181.801 Y132.789 E24.81247
G1 X181.094 Y134.441 E24.97866
G1 X180.243 Y136.028 E25.14524
G1 X179.258 Y137.535 E25.31173
G1 X178.488 Y138.538 E25.42871
G1 X178.146 Y138.948 E25.47806
G1 X176.912 Y140.263 E25.64488
G1 X175.574 Y141.460 E25.81095
G1 X174.129 Y142.542 E25.97788
G1 X172.604 Y143.488 E26.14391
G1 X170.994 Y144.302 E26.31073
G1 X169.326 Y144.970 E26.47692
G1 X168.118 Y145.351 E26.59403
G1 X167.602 Y145.491 E26.64350
G1 X165.842 Y145.860 E26.80987
G1 X164.064 Y146.072 E26.97545
G1 X162.501 Y146.136 E27.12019
G1 X37.250 Y146.131 E38.70471
G1 X35.451 Y146.030 E38.87143
G1 X34.203 Y145.866 E38.98778
G1 X33.672 Y145.774 E39.03767
G1 X32.442 Y145.501 E39.15420
G1 X31.925 Y145.364 E39.20363
G1 X30.211 Y144.802 E39.37046
G1 X29.048 Y144.320 E39.48694
G1 X28.560 Y144.094 E39.53667
G1 X27.437 Y143.509 E39.65379
G1 X26.972 Y143.244 E39.70328
G1 X25.466 Y142.258 E39.86978
G1 X24.462 Y141.488 E39.98677
G1 X24.052 Y141.147 E40.03610
G1 X23.121 Y140.294 E40.15287
G1 X22.737 Y139.913 E40.20295
G1 X21.884 Y138.982 E40.31972
G1 X21.540 Y138.574 E40.36905
G1 X20.770 Y137.571 E40.48604
G1 X20.458 Y137.130 E40.53602
G1 X19.781 Y136.067 E40.65258
G1 X19.512 Y135.604 E40.70206
G1 X18.698 Y133.995 E40.86889
G1 X18.216 Y132.831 E40.98538
G1 X18.030 Y132.326 E41.03511
G1 X17.650 Y131.119 E41.15221
G1 X17.509 Y130.603 E41.20168
G1 X17.237 Y129.373 E41.31817
G1 X17.141 Y128.842 E41.36808
G1 X16.977 Y127.595 E41.48442
G1 X16.928 Y127.065 E41.53369
G1 X16.864 Y125.500 E41.67848
G1 X16.870 Y65.251 E47.25103
G1 X16.926 Y63.982 E47.36848
G1 X16.971 Y63.451 E47.41778
G1 X17.135 Y62.204 E47.53413
G1 X17.227 Y61.672 E47.58402
G1 X17.636 Y59.926 E47.74995
G1 X18.199 Y58.212 E47.91678
G1 X18.906 Y56.560 E48.08297
G1 X19.491 Y55.437 E48.20006
G1 X19.757 Y54.973 E48.24958
G1 X20.434 Y53.910 E48.36612
G1 X20.742 Y53.466 E48.41610
G1 X21.854 Y52.053 E48.58241
G1 X22.706 Y51.122 E48.69916
G1 X23.088 Y50.737 E48.74925
G1 X24.426 Y49.540 E48.91532
G1 X25.429 Y48.770 E49.03229
G1 X25.871 Y48.459 E49.08229
G1 X27.345 Y47.544 E49.24276
G1 F2400.000 E46.24276
G92 E0
G1 X94.121 Y52.122 F6000.000
G1 E3.00000 F2400.000
G1 X94.121 Y47.539 E3.42383 F720.000
G1 X94.158 Y47.343 E3.44232
G1 X94.209 Y47.260 E3.45133
G1 X94.310 Y47.175 E3.46348
G1 X94.401 Y47.137 E3.47262
G1 X94.539 Y47.122 E3.48548
G1 X103.532 Y47.125 E4.31731
G1 X103.658 Y47.158 E4.32930
G1 X103.766 Y47.234 E4.34155
G1 X103.842 Y47.343 E4.35381
G1 X103.875 Y47.468 E4.36580
G1 X103.879 Y52.122 E4.79622
G1 X162.464 Y52.122 E10.21483
G1 X163.673 Y52.175 E10.32672
G1 X164.825 Y52.327 E10.43421
G1 X165.961 Y52.579 E10.54182
G1 X167.077 Y52.931 E10.65008
G1 X168.152 Y53.376 E10.75766
G1 X169.190 Y53.917 E10.86591
G1 X170.172 Y54.542 E10.97357
G1 X171.099 Y55.254 E11.08170
G1 X171.959 Y56.041 E11.18958
G1 X172.747 Y56.902 E11.29746
G1 X173.459 Y57.829 E11.40559
G1 X174.084 Y58.811 E11.51325
G1 X174.624 Y59.849 E11.62150
G1 X175.070 Y60.923 E11.72908
G1 X175.421 Y62.040 E11.83735
G1 X175.674 Y63.176 E11.94496
G1 X175.825 Y64.328 E12.05245
G1 X175.879 Y65.536 E12.16434
G1 X175.879 Y125.465 E17.70714
G1 X175.825 Y126.673 E17.81902
G1 X175.674 Y127.825 E17.92651
G1 X175.421 Y128.961 E18.03413
G1 X175.070 Y130.077 E18.14238
G1 X174.624 Y131.152 E18.24998
G1 X174.084 Y132.190 E18.35823
G1 X173.459 Y133.172 E18.46588
G1 X172.747 Y134.099 E18.57401
G1 X171.959 Y134.960 E18.68189
G1 X171.099 Y135.747 E18.78978
G1 X170.172 Y136.459 E18.89790
G1 X169.190 Y137.084 E19.00556
G1 X168.152 Y137.625 E19.11381
G1 X167.077 Y138.070 E19.22140
G1 X165.961 Y138.422 E19.32965
G1 X164.825 Y138.674 E19.43727
G1 X163.673 Y138.826 E19.54475
G1 X162.464 Y138.879 E19.65664
G1 X37.536 Y138.879 E31.21136
G1 X36.327 Y138.826 E31.32325
G1 X35.175 Y138.674 E31.43073
G1 X34.039 Y138.422 E31.53834
G1 X32.923 Y138.070 E31.64661
G1 X31.848 Y137.625 E31.75419
G1 X30.810 Y137.084 E31.86244
G1 X29.828 Y136.459 E31.97010
G1 X28.901 Y135.747 E32.07822
G1 X28.041 Y134.960 E32.18611
G1 X27.253 Y134.099 E32.29399
G1 X26.541 Y133.172 E32.40212
G1 X25.916 Y132.190 E32.50977
G1 X25.376 Y131.152 E32.61803
G1 X24.930 Y130.077 E32.72561
G1 X24.579 Y128.961 E32.83387
G1 X24.326 Y127.825 E32.94148
G1 X24.175 Y126.673 E33.04897
G1 X24.121 Y125.465 E33.16085
G1 X24.121 Y65.536 E38.70367
G1 X24.175 Y64.328 E38.81555
G1 X24.326 Y63.176 E38.92304
G1 X24.579 Y62.040 E39.03066
G1 X24.930 Y60.923 E39.13891
G1 X25.376 Y59.849 E39.24650
G1 X25.916 Y58.811 E39.35475
G1 X26.541 Y57.829 E39.46241
G1 X27.253 Y56.902 E39.57053
G1 X28.041 Y56.041 E39.67841
G1 X28.901 Y55.254 E39.78630
G1 X29.828 Y54.542 E39.89442
G1 X30.810 Y53.917 E40.00208
G1 X31.848 Y53.376 E40.11034
G1 X32.923 Y52.931 E40.21792
G1 X34.039 Y52.579 E40.32618
G1 X35.175 Y52.327 E40.43379
G1 X36.327 Y52.175 E40.54128
G1 X37.536 Y52.122 E40.65316
G1 X94.061 Y52.122 E45.88124
G1 X93.486 Y51.486 F6000.000
G1 X93.491 Y47.411 E46.25815 F720.000
G1 X93.547 Y47.155 E46.28235
G1 X93.670 Y46.919 E46.30705
G1 X93.850 Y46.723 E46.33163
G1 X94.073 Y46.582 E46.35601
G1 X94.320 Y46.503 E46.38003
G1 X94.524 Y46.486 E46.39888
G1 X103.476 Y46.486 E47.22694
G1 X103.679 Y46.503 E47.24579
G1 X103.845 Y46.548 E47.26163
G1 X104.008 Y46.624 E47.27828
G1 X104.150 Y46.723 E47.29427
G1 X104.277 Y46.851 E47.31098
G1 X104.377 Y46.992 E47.32697
G1 X104.453 Y47.155 E47.34363
G1 X104.497 Y47.321 E47.35947
G1 X104.514 Y47.524 E47.37831
G1 X104.514 Y51.486 E47.74477
G1 X162.478 Y51.486 E53.10589
G1 X163.728 Y51.541 E53.22162
G1 X164.935 Y51.700 E53.33424
G1 X166.125 Y51.964 E53.44698
G1 X167.295 Y52.333 E53.56037
G1 X168.421 Y52.799 E53.67309
G1 X169.508 Y53.366 E53.78647
G1 X170.536 Y54.020 E53.89926
G1 X171.508 Y54.766 E54.01252
G1 X172.409 Y55.591 E54.12554
G1 X173.234 Y56.493 E54.23855
G1 X173.980 Y57.464 E54.35182
G1 X174.635 Y58.493 E54.46461
G1 X175.201 Y59.580 E54.57799
G1 X175.667 Y60.706 E54.69071
G1 X176.036 Y61.875 E54.80410
G1 X176.300 Y63.065 E54.91685
G1 X176.459 Y64.272 E55.02946
G1 X176.514 Y65.522 E55.14519
G1 X176.514 Y125.479 E60.69060
G1 X176.459 Y126.729 E60.80633
G1 X176.300 Y127.936 E60.91894
G1 X176.036 Y129.126 E61.03169
G1 X175.667 Y130.295 E61.14507
G1 X175.201 Y131.421 E61.25781
G1 X174.635 Y132.508 E61.37118
G1 X173.980 Y133.537 E61.48398
G1 X173.234 Y134.508 E61.59723
G1 X172.409 Y135.409 E61.71025
G1 X171.508 Y136.235 E61.82327
G1 X170.536 Y136.980 E61.93653
G1 X169.508 Y137.635 E62.04932
G1 X168.420 Y138.201 E62.16270
G1 X167.295 Y138.668 E62.27543
G1 X166.125 Y139.036 E62.38880
G1 X164.935 Y139.301 E62.50156
G1 X163.728 Y139.459 E62.61417
G1 X162.478 Y139.515 E62.72990
G1 X126.114 Y139.518 E66.09322
G1 X37.522 Y139.515 E74.28722
G1 X36.272 Y139.459 E74.40296
G1 X35.065 Y139.301 E74.51556
G1 X33.875 Y139.036 E74.62831
G1 X32.705 Y138.668 E74.74170
G1 X31.579 Y138.201 E74.85442
G1 X30.492 Y137.635 E74.96779
G1 X29.463 Y136.980 E75.08059
G1 X28.492 Y136.235 E75.19385
G1 X27.591 Y135.409 E75.30687
G1 X26.766 Y134.508 E75.41988
G1 X26.020 Y133.537 E75.53314
G1 X25.365 Y132.508 E75.64594
G1 X24.799 Y131.421 E75.75932
G1 X24.333 Y130.295 E75.87204
G1 X23.964 Y129.126 E75.98542
G1 X23.700 Y127.936 E76.09817
G1 X23.541 Y126.729 E76.21078
G1 X23.486 Y125.479 E76.32651
G1 X23.486 Y65.522 E81.87193
G1 X23.541 Y64.272 E81.98766
G1 X23.700 Y63.065 E82.10027
G1 X23.964 Y61.875 E82.21302
G1 X24.333 Y60.706 E82.32640
G1 X24.799 Y59.580 E82.43913
G1 X25.365 Y58.493 E82.55251
G1 X26.020 Y57.464 E82.66530
G1 X26.766 Y56.493 E82.77856
G1 X27.591 Y55.591 E82.89158
G1 X28.492 Y54.766 E83.00460
G1 X29.463 Y54.021 E83.11785
G1 X30.492 Y53.366 E83.23065
G1 X31.579 Y52.799 E83.34403
G1 X32.705 Y52.333 E83.45675
G1 X33.875 Y51.964 E83.57013
G1 X35.065 Y51.700 E83.68288
G1 X36.272 Y51.541 E83.79549
G1 X37.522 Y51.486 E83.91122
G1 X93.426 Y51.486 E89.08182
G1 X92.850 Y50.850 F6000.000
G1 X92.850 Y47.509 E89.39089 F360.000
G1 X92.876 Y47.210 E89.41859
G1 X92.950 Y46.937 E89.44475
G1 X93.005 Y46.804 E89.45808
G1 X93.149 Y46.554 E89.48481
G1 X93.236 Y46.441 E89.49794
G1 X93.553 Y46.149 E89.53783
G1 X93.804 Y46.005 E89.56455
G1 X93.937 Y45.950 E89.57789
G1 X94.210 Y45.877 E89.60404
G1 X94.508 Y45.850 E89.63175
G1 X103.492 Y45.850 E90.46262
G1 X103.646 Y45.858 E90.47695
G1 X103.929 Y45.907 E90.50345
G1 X104.196 Y46.005 E90.52982
G1 X104.447 Y46.149 E90.55653
G1 X104.666 Y46.334 E90.58307
G1 X104.851 Y46.554 E90.60961
G1 X105.051 Y46.937 E90.64960
G1 X105.124 Y47.210 E90.67575
G1 X105.150 Y47.509 E90.70345
G1 X105.150 Y50.850 E91.01252
G1 X162.492 Y50.850 E96.31616
G1 X163.784 Y50.908 E96.43574
G1 X165.046 Y51.074 E96.55347
G1 X166.290 Y51.350 E96.67136
G1 X167.512 Y51.735 E96.78986
G1 X168.689 Y52.223 E96.90773
G1 X169.826 Y52.815 E97.02623
G1 X170.901 Y53.499 E97.14417
G1 X171.917 Y54.279 E97.26255
G1 X172.859 Y55.142 E97.38071
G1 X173.722 Y56.084 E97.49886
G1 X174.501 Y57.099 E97.61725
G1 X175.186 Y58.175 E97.73518
G1 X175.778 Y59.311 E97.85369
G1 X176.265 Y60.488 E97.97155
G1 X176.650 Y61.710 E98.09006
G1 X176.927 Y62.955 E98.20794
G1 X177.093 Y64.217 E98.32567
G1 X177.150 Y65.508 E98.44525
G1 X177.150 Y125.493 E103.99327
G1 X177.093 Y126.784 E104.11285
G1 X176.927 Y128.046 E104.23058
G1 X176.650 Y129.291 E104.34847
G1 X176.265 Y130.513 E104.46697
G1 X175.778 Y131.690 E104.58484
G1 X175.186 Y132.826 E104.70334
G1 X174.501 Y133.902 E104.82128
G1 X173.722 Y134.917 E104.93966
G1 X172.859 Y135.859 E105.05782
G1 X171.917 Y136.722 E105.17597
G1 X170.901 Y137.501 E105.29436
G1 X169.826 Y138.186 E105.41230
G1 X168.689 Y138.778 E105.53080
G1 X167.512 Y139.266 E105.64867
G1 X166.290 Y139.651 E105.76717
G1 X165.046 Y139.927 E105.88505
G1 X163.784 Y140.093 E106.00278
G1 X162.492 Y140.150 E106.12236
G1 X126.750 Y140.154 E109.42820
G1 X37.508 Y140.150 E117.68230
G1 X36.216 Y140.093 E117.80188
G1 X34.954 Y139.927 E117.91961
G1 X33.710 Y139.651 E118.03749
G1 X32.488 Y139.266 E118.15600
G1 X31.311 Y138.778 E118.27386
G1 X30.174 Y138.186 E118.39236
G1 X29.099 Y137.501 E118.51030
G1 X28.083 Y136.722 E118.62869
G1 X27.141 Y135.859 E118.74684
G1 X26.278 Y134.917 E118.86499
G1 X25.499 Y133.902 E118.98338
G1 X24.814 Y132.826 E119.10132
G1 X24.222 Y131.690 E119.21982
G1 X23.735 Y130.513 E119.33769
G1 X23.350 Y129.291 E119.45619
G1 X23.073 Y128.046 E119.57407
G1 X22.907 Y126.784 E119.69181
G1 X22.850 Y125.493 E119.81138
G1 X22.850 Y65.508 E125.35941
G1 X22.907 Y64.217 E125.47899
G1 X23.073 Y62.955 E125.59672
G1 X23.350 Y61.710 E125.71460
G1 X23.735 Y60.488 E125.83311
G1 X24.222 Y59.311 E125.95097
G1 X24.814 Y58.175 E126.06947
G1 X25.558 Y57.007 E126.19751
G1 X26.278 Y56.084 E126.30584
G1 X27.141 Y55.142 E126.42399
G1 X28.083 Y54.279 E126.54215
G1 X29.099 Y53.499 E126.66053
G1 X30.174 Y52.815 E126.77847
G1 X31.311 Y52.223 E126.89698
G1 X32.488 Y51.735 E127.01484
G1 X33.710 Y51.350 E127.13334
G1 X34.954 Y51.074 E127.25123
G1 X36.216 Y50.908 E127.36896
G1 X37.508 Y50.850 E127.48854
G1 X92.790 Y50.850 E132.60165
G1 X93.250 Y50.850 F6000.000
G1 X97.989 Y47.562 F6000.000
G1 X175.438 Y125.011 E142.73207 F1260.000
G1 X175.419 Y125.892 E142.81359
G1 X97.089 Y47.562 E153.05927
G1 X96.188 Y47.562 E153.14256
G1 X175.371 Y126.745 E163.49982
G1 X175.266 Y127.541 E163.57407
G1 X95.288 Y47.562 E174.03543
G1 X94.562 Y47.737 E174.10447
G1 X175.118 Y128.293 E184.64136
G1 X174.942 Y129.017 E184.71028
G1 X94.562 Y48.638 E195.22407
G1 X94.562 Y49.538 E195.30737
G1 X174.726 Y129.702 E205.79293
G1 X174.478 Y130.355 E205.85749
G1 X94.562 Y50.439 E216.31061
G1 X94.562 Y51.339 E216.39391
G1 X174.212 Y130.989 E226.81229
G1 X173.904 Y131.582 E226.87404
G1 X94.562 Y52.240 E237.25209
G1 X93.984 Y52.562 E237.31331
G1 X173.581 Y132.159 E247.72474
G1 X173.231 Y132.710 E247.78507
G1 X93.083 Y52.562 E258.26847
G1 X92.183 Y52.562 E258.35176
G1 X172.855 Y133.235 E268.90383
G1 X172.464 Y133.744 E268.96323
G1 X91.282 Y52.562 E279.58192
G1 X90.382 Y52.562 E279.66521
G1 X172.039 Y134.220 E290.34612
G1 X171.593 Y134.674 E290.40502
G1 X89.481 Y52.562 E301.14533
G1 X88.581 Y52.562 E301.22863
G1 X171.135 Y135.117 E312.02686
G1 X170.652 Y135.534 E312.08591
G1 X87.680 Y52.562 E322.93880
G1 X86.780 Y52.562 E323.02209
G1 X170.143 Y135.926 E333.92614
G1 X169.611 Y136.294 E333.98600
G1 X85.879 Y52.562 E344.93823
G1 X84.979 Y52.562 E345.02152
G1 X169.060 Y136.644 E356.01957
G1 X168.475 Y136.959 E356.08105
G1 X84.078 Y52.562 E367.12034
G1 X83.178 Y52.562 E367.20364
G1 X167.877 Y137.262 E378.28245
G1 X167.240 Y137.525 E378.34620
G1 X82.277 Y52.562 E389.45951
G1 X81.377 Y52.562 E389.54280
G1 X166.579 Y137.765 E400.68744
G1 X165.894 Y137.981 E400.75384
G1 X80.476 Y52.562 E411.92670
G1 X79.575 Y52.562 E412.00999
G1 X165.161 Y138.148 E423.20473
G1 X164.398 Y138.286 E423.27643
G1 X78.675 Y52.562 E434.48918
G1 X77.774 Y52.562 E434.57247
G1 X163.599 Y138.388 E445.79856
G1 X162.737 Y138.426 E445.87839
G1 X76.874 Y52.562 E457.10949
G1 X75.973 Y52.562 E457.19278
G1 X161.849 Y138.438 E468.42552
G1 X160.949 Y138.438 E468.50881
G1 X75.073 Y52.562 E479.74155
G1 X74.172 Y52.562 E479.82484
G1 X160.048 Y138.438 E491.05758
G1 X159.148 Y138.438 E491.14087
G1 X73.272 Y52.562 E502.37361
G1 X72.371 Y52.562 E502.45690
G1 X158.247 Y138.438 E513.68964
G1 X157.347 Y138.438 E513.77293
G1 X71.471 Y52.562 E525.00566
G1 X70.570 Y52.562 E525.08896
G1 X156.446 Y138.438 E536.32169
G1 X155.545 Y138.438 E536.40499
G1 X69.670 Y52.562 E547.63772
G1 X68.769 Y52.562 E547.72101
G1 X154.645 Y138.438 E558.95375
G1 X153.744 Y138.438 E559.03704
G1 X67.868 Y52.562 E570.26978
G1 X66.968 Y52.562 E570.35307
G1 X152.844 Y138.438 E581.58581
G1 X151.943 Y138.438 E581.66910
G1 X66.067 Y52.562 E592.90184
G1 X65.167 Y52.562 E592.98513
G1 X151.043 Y138.438 E604.21787
G1 X150.142 Y138.438 E604.30116
G1 X64.266 Y52.562 E615.53390
