; generated by Slic3r 1.1.7 on 2015-03-30 at 01:36:54

; perimeters extrusion width = 0.40mm
; infill extrusion width = 0.67mm
; solid infill extrusion width = 0.67mm
; top infill extrusion width = 0.67mm
; support material extrusion width = 0.40mm

G21 ; set units to millimeters
M107
M190 S65 ; wait for bed temperature to be reached
M104 S220 ; set temperature
G28 ; home all axes
G1 Z5 F5000 ; lift nozzle
M109 S220 ; wait for temperature to be reached
G90 ; use absolute coordinates
G92 E0
M82 ; use absolute distances for extrusion
G1 F2400.000 E-3.00000
G92 E0
G1 Z-3.450 F6000.000
G1 X28.630 Y48.669 F6000.000
G1 E3.00000 F2400.000
G1 X28.896 Y48.512 E3.02855 F1080.000
G1 X29.958 Y47.959 E3.13927
G1 X30.506 Y47.698 E3.19540
G1 X31.606 Y47.243 E3.30554
G1 X32.174 Y47.030 E3.36162
G1 X33.898 Y46.509 E3.52817
G1 X35.060 Y46.251 E3.63831
G1 X35.658 Y46.141 E3.69456
G1 X36.838 Y45.986 E3.80457
G1 X37.436 Y45.928 E3.86016
G1 X39.000 Y45.864 E4.00495
G1 X161.250 Y45.870 E15.31194
G1 X162.449 Y45.923 E15.42300 F1080.000
G1 X163.049 Y45.971 E15.47869
G1 X164.828 Y46.227 E15.64490
G1 X166.575 Y46.636 E15.81084
G1 X167.717 Y46.996 E15.92155
G1 X168.289 Y47.199 E15.97768
G1 X169.389 Y47.655 E16.08782
G1 X169.940 Y47.906 E16.14390
G1 X171.528 Y48.757 E16.31048
G1 X172.533 Y49.397 E16.42069
G1 X173.034 Y49.742 E16.47699
G1 X174.448 Y50.854 E16.64330
G1 X175.763 Y52.088 E16.81011
G1 X176.960 Y53.426 E16.97619
G1 X178.042 Y54.871 E17.14313
G1 X178.682 Y55.876 E17.25333
G1 X178.988 Y56.396 E17.30916
G1 X179.541 Y57.458 E17.41989
G1 X179.802 Y58.006 E17.47601
G1 X180.257 Y59.106 E17.58614
G1 X180.470 Y59.674 E17.64224
G1 X180.829 Y60.816 E17.75297
G1 X180.990 Y61.398 E17.80880
G1 X181.249 Y62.560 E17.91895
G1 X181.359 Y63.158 E17.97520
G1 X181.572 Y64.936 E18.14078
G1 X181.636 Y66.500 E18.28557
G1 X181.630 Y123.750 E23.58064
G1 X181.577 Y124.949 E23.69171
G1 X181.529 Y125.549 E23.74739
G1 X181.374 Y126.729 E23.85742
G1 X181.273 Y127.328 E23.91364
G1 X180.864 Y129.075 E24.07956
G1 X180.301 Y130.789 E24.24639
G1 X179.594 Y132.440 E24.41258
G1 X178.743 Y134.028 E24.57916
G1 X178.103 Y135.033 E24.68936
G1 X177.758 Y135.534 E24.74567
G1 X177.030 Y136.483 E24.85631
G1 X176.646 Y136.948 E24.91201
G1 X175.840 Y137.828 E25.02240
G1 X175.412 Y138.263 E25.07884
G1 X174.074 Y139.460 E25.24491
G1 X173.125 Y140.188 E25.35555
G1 X172.629 Y140.542 E25.41188
G1 X171.104 Y141.488 E25.57790
G1 X170.042 Y142.041 E25.68862
G1 X169.494 Y142.302 E25.74474
G1 X167.826 Y142.969 E25.91094
G1 X166.102 Y143.490 E26.07748
G1 X164.940 Y143.749 E26.18764
G1 X164.342 Y143.859 E26.24389
G1 X162.564 Y144.072 E26.40946
G1 X161.000 Y144.136 E26.55425
G1 X38.750 Y144.130 E37.86124
G1 X37.551 Y144.077 E37.97231
G1 X36.951 Y144.029 E38.02798
G1 X35.715 Y143.867 E38.14325
G1 X35.172 Y143.773 E38.19423
G1 X34.009 Y143.515 E38.30438
G1 X33.425 Y143.364 E38.36018
G1 X32.283 Y143.004 E38.47090
G1 X31.711 Y142.801 E38.52703
G1 X30.611 Y142.345 E38.63717
G1 X30.060 Y142.094 E38.69324
G1 X28.472 Y141.243 E38.85982
G1 X26.966 Y140.258 E39.02632
G1 X25.552 Y139.146 E39.19262
G1 X24.672 Y138.340 E39.30303
G1 X24.237 Y137.912 E39.35946
G1 X23.431 Y137.032 E39.46986
G1 X23.040 Y136.574 E39.52556
G1 X21.958 Y135.129 E39.69250
G1 X21.012 Y133.604 E39.85851
G1 X20.459 Y132.542 E39.96923
G1 X20.198 Y131.994 E40.02536
G1 X19.530 Y130.326 E40.19156
G1 X19.171 Y129.184 E40.30227
G1 X19.009 Y128.602 E40.35813
G1 X18.751 Y127.440 E40.46828
G1 X18.641 Y126.842 E40.52452
G1 X18.486 Y125.662 E40.63453
G1 X18.428 Y125.064 E40.69012
G1 X18.364 Y123.500 E40.83491
G1 X18.370 Y66.250 E46.12999
G1 X18.423 Y65.051 E46.24105
G1 X18.471 Y64.451 E46.29674
G1 X18.626 Y63.271 E46.40675
G1 X18.727 Y62.672 E46.46298
G1 X18.985 Y61.509 E46.57312
G1 X19.136 Y60.925 E46.62893
G1 X19.496 Y59.783 E46.73965
G1 X19.699 Y59.211 E46.79578
G1 X20.406 Y57.560 E46.96197
G1 X20.959 Y56.498 E47.07269
G1 X21.257 Y55.972 E47.12857
G1 X22.242 Y54.466 E47.29507
G1 X22.970 Y53.517 E47.40567
G1 X23.354 Y53.052 E47.46140
G1 X24.588 Y51.737 E47.62821
G1 X25.468 Y50.931 E47.73861
G1 X25.926 Y50.540 E47.79430
G1 X26.875 Y49.812 E47.90491
G1 X27.371 Y49.458 E47.96127
G1 X28.578 Y48.699 E48.09319
G1 F2400.000 E45.09319
G92 E0
G1 X31.014 Y131.486 F6000.000
G1 E3.00000 F2400.000
G1 X31.014 Y55.514 E10.02665 F720.000
G1 X168.986 Y55.514 E22.78774
G1 X168.986 Y131.486 E29.81439
G1 X31.074 Y131.486 E42.56994
G1 X100.650 Y130.850 F6000.000
G1 X100.650 Y56.150 E49.47901 F360.000
G1 X168.350 Y56.150 E55.74065
G1 X168.350 Y130.850 E62.64972
G1 X100.710 Y130.850 E68.90581
G1 X100.850 Y130.504 F6000.000
G1 X99.350 Y130.850 F6000.000
G1 X31.650 Y130.850 E75.16744 F360.000
G1 X31.650 Y56.150 E82.07652
G1 X99.350 Y56.150 E88.33815
G1 X99.350 Y130.790 E95.24168
G1 X99.350 Y131.250 F6000.000
G1 X30.379 Y132.121 F6000.000
G1 X169.621 Y132.121 E108.12035 F720.000
G1 X169.621 Y56.274 E115.13556
G1 X170.459 Y57.041 E115.24063
G1 X171.247 Y57.901 E115.34852
G1 X171.959 Y58.828 E115.45664
G1 X172.584 Y59.810 E115.56430
G1 X173.124 Y60.848 E115.67255
G1 X173.570 Y61.923 E115.78013
G1 X173.921 Y63.039 E115.88839
G1 X174.174 Y64.175 E115.99601
G1 X174.325 Y65.327 E116.10350
G1 X174.379 Y66.536 E116.21538
G1 X174.379 Y123.464 E121.48072
G1 X174.325 Y124.673 E121.59260
G1 X174.174 Y125.825 E121.70009
G1 X173.921 Y126.961 E121.80771
G1 X173.570 Y128.077 E121.91597
G1 X173.124 Y129.152 E122.02355
G1 X172.584 Y130.190 E122.13180
G1 X171.959 Y131.172 E122.23946
G1 X171.247 Y132.099 E122.34758
G1 X170.459 Y132.959 E122.45547
G1 X169.599 Y133.747 E122.56335
G1 X168.672 Y134.459 E122.67147
G1 X167.690 Y135.084 E122.77913
G1 X166.652 Y135.624 E122.88738
G1 X165.577 Y136.070 E122.99497
G1 X164.461 Y136.421 E123.10323
G1 X163.325 Y136.674 E123.21084
G1 X162.173 Y136.825 E123.31833
G1 X160.964 Y136.879 E123.43022
G1 X39.036 Y136.879 E134.70746
G1 X37.827 Y136.825 E134.81935
G1 X36.675 Y136.674 E134.92684
G1 X35.539 Y136.421 E135.03445
G1 X34.423 Y136.070 E135.14271
G1 X33.348 Y135.624 E135.25029
G1 X32.310 Y135.084 E135.35855
G1 X31.328 Y134.459 E135.46620
G1 X30.401 Y133.747 E135.57433
G1 X29.541 Y132.959 E135.68221
G1 X28.753 Y132.099 E135.79009
G1 X28.041 Y131.172 E135.89822
G1 X27.416 Y130.190 E136.00588
G1 X26.876 Y129.152 E136.11413
G1 X26.430 Y128.077 E136.22172
G1 X26.079 Y126.961 E136.32997
G1 X25.826 Y125.825 E136.43759
G1 X25.675 Y124.673 E136.54507
G1 X25.621 Y123.464 E136.65696
G1 X25.621 Y66.536 E141.92230
G1 X25.675 Y65.327 E142.03418
G1 X25.826 Y64.175 E142.14167
G1 X26.079 Y63.039 E142.24929
G1 X26.430 Y61.923 E142.35754
G1 X26.876 Y60.848 E142.46513
G1 X27.416 Y59.810 E142.57338
G1 X28.041 Y58.828 E142.68104
G1 X28.753 Y57.901 E142.78916
G1 X29.541 Y57.041 E142.89705
G1 X30.379 Y56.274 E143.00212
G1 X30.379 Y132.061 E150.01178
G1 F2400.000 E147.01178
G92 E0
G1 X33.221 Y54.879 F6000.000
G1 E3.00000 F2400.000
G1 X33.126 Y54.491 E3.03691 F720.000
G1 X33.348 Y54.376 E3.06006
G1 X34.423 Y53.930 E3.16764
G1 X35.539 Y53.579 E3.27590
G1 X36.675 Y53.326 E3.38351
G1 X37.827 Y53.175 E3.49100
G1 X39.036 Y53.121 E3.60289
G1 X160.964 Y53.121 E14.88014
G1 X162.173 Y53.175 E14.99202
G1 X163.325 Y53.326 E15.09951
G1 X164.461 Y53.579 E15.20713
G1 X165.577 Y53.930 E15.31538
G1 X166.652 Y54.376 E15.42297
G1 X166.874 Y54.491 E15.44612
G1 X166.779 Y54.879 E15.48303
G1 X33.281 Y54.879 E27.83035
G1 X32.749 Y53.971 F6000.000
G1 X33.079 Y53.799 E27.86484 F720.000
G1 X34.205 Y53.333 E27.97757
G1 X35.375 Y52.964 E28.09095
G1 X36.565 Y52.700 E28.20370
G1 X37.772 Y52.541 E28.31631
G1 X39.022 Y52.486 E28.43204
G1 X160.978 Y52.486 E39.71189 F720.000
G1 X162.228 Y52.541 E39.82763
G1 X163.435 Y52.700 E39.94024
G1 X164.625 Y52.964 E40.05299
G1 X165.795 Y53.333 E40.16637
G1 X166.921 Y53.799 E40.27909
G1 X168.008 Y54.365 E40.39247
G1 X168.986 Y54.981 E40.49936
G1 X170.008 Y55.766 E40.61855
G1 X170.909 Y56.591 E40.73157
G1 X171.734 Y57.492 E40.84458
G1 X172.480 Y58.463 E40.95784
G1 X173.135 Y59.492 E41.07064
G1 X173.701 Y60.579 E41.18402
G1 X174.167 Y61.705 E41.29674
G1 X174.536 Y62.875 E41.41012
G1 X174.800 Y64.065 E41.52287
G1 X174.959 Y65.272 E41.63548
G1 X175.014 Y66.522 E41.75121
G1 X175.014 Y123.478 E47.01916
G1 X174.959 Y124.728 E47.13489
G1 X174.800 Y125.935 E47.24750
G1 X174.536 Y127.125 E47.36025
G1 X174.167 Y128.295 E47.47363
G1 X173.701 Y129.421 E47.58635
G1 X173.135 Y130.508 E47.69973
G1 X172.480 Y131.537 E47.81253
G1 X171.734 Y132.508 E47.92578
G1 X170.909 Y133.409 E48.03880
G1 X170.008 Y134.234 E48.15182
G1 X169.037 Y134.980 E48.26508
G1 X168.008 Y135.635 E48.37787
G1 X166.921 Y136.201 E48.49125
G1 X165.795 Y136.667 E48.60398
G1 X164.625 Y137.036 E48.71736
G1 X163.435 Y137.300 E48.83010
G1 X162.228 Y137.459 E48.94272
G1 X160.978 Y137.514 E49.05845
G1 X39.022 Y137.514 E60.33830
G1 X37.772 Y137.459 E60.45404
G1 X36.565 Y137.300 E60.56665
G1 X35.375 Y137.036 E60.67939
G1 X34.205 Y136.667 E60.79278
G1 X33.079 Y136.201 E60.90550
G1 X31.992 Y135.635 E61.01888
G1 X30.963 Y134.980 E61.13167
G1 X29.992 Y134.234 E61.24493
G1 X29.091 Y133.409 E61.35795
G1 X28.266 Y132.508 E61.47097
G1 X27.520 Y131.537 E61.58423
G1 X26.865 Y130.508 E61.69702
G1 X26.299 Y129.421 E61.81040
G1 X25.833 Y128.295 E61.92312
G1 X25.464 Y127.125 E62.03650
G1 X25.200 Y125.935 E62.14925
G1 X25.041 Y124.728 E62.26186
G1 X24.986 Y123.478 E62.37760
G1 X24.986 Y66.522 E67.64554
G1 X25.041 Y65.272 E67.76127
G1 X25.200 Y64.065 E67.87388
G1 X25.464 Y62.875 E67.98663
G1 X25.833 Y61.705 E68.10001
G1 X26.299 Y60.579 E68.21273
G1 X26.865 Y59.492 E68.32611
G1 X27.520 Y58.463 E68.43891
G1 X28.266 Y57.492 E68.55217
G1 X29.091 Y56.591 E68.66519
G1 X29.992 Y55.766 E68.77820
G1 X31.014 Y54.981 E68.89740
G1 X31.992 Y54.365 E69.00428
G1 X32.695 Y53.999 E69.07761
G1 X32.455 Y53.407 F6000.000
G1 X32.811 Y53.222 E69.11468 F360.000
G1 X33.988 Y52.735 E69.23254
G1 X35.210 Y52.350 E69.35105
G1 X36.454 Y52.073 E69.46893
G1 X37.618 Y51.920 E69.57752
G1 X39.008 Y51.850 E69.70621
G1 X160.992 Y51.850 E80.98867
G1 X162.184 Y51.903 E81.09900
G1 X163.546 Y52.073 E81.22595 F360.000
G1 X164.790 Y52.350 E81.34383
G1 X166.012 Y52.735 E81.46234
G1 X167.189 Y53.222 E81.58020
G1 X168.326 Y53.814 E81.69871
G1 X169.401 Y54.499 E81.81664
G1 X170.417 Y55.278 E81.93503
G1 X171.359 Y56.141 E82.05319
G1 X172.222 Y57.083 E82.17134
G1 X173.001 Y58.099 E82.28973
G1 X173.686 Y59.174 E82.40766
G1 X174.278 Y60.311 E82.52617
G1 X174.765 Y61.488 E82.64403
G1 X175.150 Y62.710 E82.76253
G1 X175.427 Y63.954 E82.88042
G1 X175.593 Y65.216 E82.99815
G1 X175.650 Y66.508 E83.11773
G1 X175.650 Y123.492 E88.38828
G1 X175.593 Y124.784 E88.50786
G1 X175.427 Y126.046 E88.62559
G1 X175.150 Y127.290 E88.74347
G1 X174.765 Y128.512 E88.86198
G1 X174.278 Y129.689 E88.97984
G1 X173.686 Y130.826 E89.09835
G1 X173.001 Y131.901 E89.21628
G1 X172.222 Y132.917 E89.33467
G1 X171.359 Y133.859 E89.45282
G1 X170.417 Y134.722 E89.57098
G1 X169.401 Y135.501 E89.68936
G1 X168.326 Y136.186 E89.80730
G1 X167.189 Y136.778 E89.92580
G1 X166.012 Y137.265 E90.04367
G1 X164.790 Y137.650 E90.16217
G1 X163.546 Y137.927 E90.28006
G1 X162.284 Y138.093 E90.39779
G1 X160.992 Y138.150 E90.51737
G1 X39.008 Y138.150 E101.79983
G1 X37.716 Y138.093 E101.91941
G1 X36.454 Y137.927 E102.03714
G1 X35.210 Y137.650 E102.15502
G1 X33.988 Y137.265 E102.27353
G1 X32.811 Y136.778 E102.39139
G1 X31.674 Y136.186 E102.50990
G1 X30.599 Y135.501 E102.62783
G1 X29.583 Y134.722 E102.74622
G1 X28.641 Y133.859 E102.86437
G1 X27.778 Y132.917 E102.98253
G1 X26.999 Y131.901 E103.10091
G1 X26.314 Y130.826 E103.21885
G1 X25.722 Y129.689 E103.33735
G1 X25.235 Y128.512 E103.45522
G1 X24.850 Y127.290 E103.57372
G1 X24.573 Y126.046 E103.69161
G1 X24.407 Y124.784 E103.80934
G1 X24.350 Y123.492 E103.92892
G1 X24.350 Y66.508 E109.19947
G1 X24.407 Y65.216 E109.31905
G1 X24.573 Y63.954 E109.43678
G1 X24.850 Y62.710 E109.55466
G1 X25.235 Y61.488 E109.67317
G1 X25.722 Y60.311 E109.79103
G1 X26.314 Y59.174 E109.90953
G1 X26.999 Y58.099 E110.02747
G1 X27.778 Y57.083 E110.14586
G1 X28.641 Y56.141 E110.26401
G1 X29.583 Y55.278 E110.38216
G1 X30.599 Y54.499 E110.50055
G1 X31.674 Y53.814 E110.61849
G1 X32.402 Y53.435 E110.69438
G1 X162.356 Y52.264 F6000.000
G1 X170.062 Y57.297 F6000.000
G1 X170.428 Y57.663 E110.74226 F1260.000
G1 X170.062 Y58.199 E110.80228
G1 X172.536 Y60.673 E111.12590
G1 X173.210 Y62.249 F6000.000
G1 X170.062 Y59.101 E111.53767 F1260.000
G1 X170.062 Y60.003 E111.62108
G1 X173.576 Y63.516 E112.08068
G1 X173.789 Y64.631 E112.18568
G1 X170.062 Y60.904 E112.67318
G1 X170.062 Y61.806 E112.75659
G1 X173.898 Y65.642 E113.25832
G1 X173.938 Y66.584 E113.34552
G1 X170.062 Y62.708 E113.85250
G1 X170.062 Y63.610 E113.93591
G1 X173.938 Y67.486 E114.44288
G1 X173.938 Y68.388 E114.52629
G1 X170.062 Y64.512 E115.03327
G1 X170.062 Y65.413 E115.11668
G1 X173.938 Y69.289 E115.62366
G1 X173.938 Y70.191 E115.70707
G1 X170.062 Y66.315 E116.21405
G1 X170.062 Y67.217 E116.29746
G1 X173.938 Y71.093 E116.80443
G1 X173.938 Y71.995 E116.88784
G1 X170.062 Y68.119 E117.39482
G1 X170.062 Y69.021 E117.47823
G1 X173.938 Y72.897 E117.98521
G1 X173.938 Y73.799 E118.06862
G1 X170.062 Y69.923 E118.57560
G1 X170.062 Y70.824 E118.65901
G1 X173.938 Y74.700 E119.16598
G1 X173.938 Y75.602 E119.24939
G1 X170.062 Y71.726 E119.75637
G1 X170.062 Y72.628 E119.83978
G1 X173.938 Y76.504 E120.34676
G1 X173.938 Y77.406 E120.43017
G1 X170.062 Y73.530 E120.93715
G1 X170.062 Y74.432 E121.02056
G1 X173.938 Y78.308 E121.52753
G1 X173.938 Y79.209 E121.61094
G1 X170.062 Y75.334 E122.11792
G1 X170.062 Y76.235 E122.20133
G1 X173.938 Y80.111 E122.70831
G1 X173.938 Y81.013 E122.79172
G1 X170.062 Y77.137 E123.29870
G1 X170.062 Y78.039 E123.38211
G1 X173.938 Y81.915 E123.88908
G1 X173.938 Y82.817 E123.97249
G1 X170.062 Y78.941 E124.47947
G1 X170.062 Y79.843 E124.56288
G1 X173.938 Y83.719 E125.06986
G1 X173.938 Y84.620 E125.15327
G1 X170.062 Y80.744 E125.66025
G1 X170.062 Y81.646 E125.74366
G1 X173.938 Y85.522 E126.25063
G1 X173.938 Y86.424 E126.33404
G1 X170.062 Y82.548 E126.84102
G1 X170.062 Y83.450 E126.92443
G1 X173.938 Y87.326 E127.43141
G1 X173.938 Y88.228 E127.51482
G1 X170.062 Y84.352 E128.02180
G1 X170.062 Y85.254 E128.10521
G1 X173.938 Y89.130 E128.61218
G1 X173.938 Y90.031 E128.69560
G1 X170.062 Y86.155 E129.20257
G1 X170.062 Y87.057 E129.28598
G1 X173.938 Y90.933 E129.79296
G1 X173.938 Y91.835 E129.87637
G1 X170.062 Y87.959 E130.38335
G1 X170.062 Y88.861 E130.46676
G1 X173.938 Y92.737 E130.97374
G1 X173.938 Y93.639 E131.05715
G1 X170.062 Y89.763 E131.56412
G1 X170.062 Y90.665 E131.64753
G1 X173.938 Y94.540 E132.15451
G1 X173.938 Y95.442 E132.23792
G1 X170.062 Y91.566 E132.74490
G1 X170.062 Y92.468 E132.82831
G1 X173.938 Y96.344 E133.33529
G1 X173.938 Y97.246 E133.41870
G1 X170.062 Y93.370 E133.92567
G1 X170.062 Y94.272 E134.00908
G1 X173.938 Y98.148 E134.51606
G1 X173.938 Y99.050 E134.59947
G1 X170.062 Y95.174 E135.10645
G1 X170.062 Y96.075 E135.18986
G1 X173.938 Y99.951 E135.69684
G1 X173.938 Y100.853 E135.78025
G1 X170.062 Y96.977 E136.28722
G1 X170.062 Y97.879 E136.37063
G1 X173.938 Y101.755 E136.87761
G1 X173.938 Y102.657 E136.96102
G1 X170.062 Y98.781 E137.46800
G1 X170.062 Y99.683 E137.55141
G1 X173.938 Y103.559 E138.05839
G1 X173.938 Y104.460 E138.14180
G1 X170.062 Y100.585 E138.64877
G1 X170.062 Y101.486 E138.73218
G1 X173.938 Y105.362 E139.23916
G1 X173.938 Y106.264 E139.32257
G1 X170.062 Y102.388 E139.82955
G1 X170.062 Y103.290 E139.91296
G1 X173.938 Y107.166 E140.41994
G1 X173.938 Y108.068 E140.50335
G1 X170.062 Y104.192 E141.01033
G1 X170.062 Y105.094 E141.09374
G1 X173.938 Y108.970 E141.60071
G1 X173.938 Y109.871 E141.68412
