; generated by Slic3r 1.1.7 on 2015-03-29 at 17:39:00

; perimeters extrusion width = 0.40mm
; infill extrusion width = 0.67mm
; solid infill extrusion width = 0.67mm
; top infill extrusion width = 0.67mm
; support material extrusion width = 0.40mm

G21 ; set units to millimeters
M107
M190 S65 ; wait for bed temperature to be reached
M104 S220 ; set temperature
G28 ; home all axes
G1 Z5 F5000 ; lift nozzle
M109 S220 ; wait for temperature to be reached
G90 ; use absolute coordinates
G92 E0
M82 ; use absolute distances for extrusion
G1 F2400.000 E-3.00000
G92 E0
G1 Z-3.450 F6000.000
G1 X55.343 Y23.704 F6000.000
G1 E3.00000 F2400.000
G1 X55.405 Y23.560 E3.01448 F1080.000
G1 X56.256 Y21.972 E3.18106
G1 X57.241 Y20.466 E3.34755
G1 X58.011 Y19.462 E3.46453
G1 X58.352 Y19.052 E3.51388
G1 X59.586 Y17.737 E3.68070
G1 X60.925 Y16.540 E3.84677
G1 X61.928 Y15.770 E3.96375
G1 X62.370 Y15.458 E4.01374
G1 X63.433 Y14.781 E4.13029
G1 X63.895 Y14.512 E4.17978
G1 X65.505 Y13.698 E4.34661
G1 X66.668 Y13.216 E4.46309
G1 X67.173 Y13.030 E4.51283
G1 X68.380 Y12.650 E4.62992
G1 X68.897 Y12.509 E4.67941
G1 X70.126 Y12.236 E4.79591
G1 X70.657 Y12.141 E4.84581
G1 X71.904 Y11.977 E4.96214
G1 X72.435 Y11.928 E5.01141
G1 X73.999 Y11.864 E5.15620
G1 X134.249 Y11.870 E10.72875
G1 X135.517 Y11.926 E10.84621 F1080.000
G1 X136.048 Y11.971 E10.89550
G1 X137.295 Y12.135 E11.01184
G1 X137.827 Y12.227 E11.06175
G1 X139.574 Y12.636 E11.22768
G1 X141.287 Y13.199 E11.39450
G1 X142.939 Y13.906 E11.56070
G1 X144.062 Y14.491 E11.67780
G1 X144.527 Y14.757 E11.72730
G1 X146.033 Y15.742 E11.89379
G1 X147.447 Y16.854 E12.06011
G1 X148.762 Y18.088 E12.22691
G1 X149.959 Y19.426 E12.39299
G1 X151.041 Y20.871 E12.55993
G1 X151.717 Y21.934 E12.67647
G1 X151.987 Y22.396 E12.72597
G1 X152.801 Y24.006 E12.89280
G1 X153.468 Y25.674 E13.05898
G1 X153.849 Y26.881 E13.17608
G1 X153.989 Y27.398 E13.22557
G1 X154.358 Y29.158 E13.39194
G1 X154.571 Y30.936 E13.55751
G1 X154.634 Y32.500 E13.70231
G1 X154.629 Y157.750 E25.28677
G1 X154.528 Y159.549 E25.45349
G1 X154.364 Y160.797 E25.56985
G1 X154.272 Y161.328 E25.61973
G1 X153.999 Y162.558 E25.73625
G1 X153.863 Y163.075 E25.78570
G1 X153.300 Y164.789 E25.95251
G1 X152.818 Y165.952 E26.06902
G1 X152.593 Y166.440 E26.11874
G1 X152.008 Y167.564 E26.23588
G1 X151.742 Y168.028 E26.28535
G1 X151.065 Y169.091 E26.40191
G1 X150.757 Y169.534 E26.45187
G1 X149.645 Y170.948 E26.61817
G1 X148.792 Y171.879 E26.73498
G1 X148.411 Y172.263 E26.78501
G1 X147.480 Y173.116 E26.90182
G1 X147.073 Y173.460 E26.95112
G1 X145.628 Y174.542 E27.11806
G1 X144.565 Y175.219 E27.23462
G1 X144.103 Y175.488 E27.28410
G1 X142.980 Y176.073 E27.40121
G1 X142.493 Y176.302 E27.45094
G1 X141.329 Y176.784 E27.56750
G1 X140.825 Y176.970 E27.61718
G1 X139.101 Y177.490 E27.78372
G1 X137.341 Y177.859 E27.95009
G1 X135.563 Y178.072 E28.11568
G1 X133.999 Y178.136 E28.26047
G1 X73.749 Y178.130 E33.83301
G1 X72.480 Y178.074 E33.95053
G1 X71.949 Y178.029 E33.99977
G1 X70.702 Y177.865 E34.11612
G1 X70.171 Y177.773 E34.16601
G1 X68.941 Y177.500 E34.28253
G1 X68.424 Y177.364 E34.33196
G1 X67.216 Y176.983 E34.44912
G1 X66.710 Y176.801 E34.49883
G1 X65.059 Y176.094 E34.66501
G1 X63.471 Y175.243 E34.83159
G1 X61.964 Y174.258 E34.99808
G1 X60.961 Y173.488 E35.11507
G1 X60.551 Y173.146 E35.16442
G1 X59.236 Y171.912 E35.33123
G1 X58.039 Y170.574 E35.49731
G1 X57.269 Y169.571 E35.61429
G1 X56.957 Y169.129 E35.66427
G1 X56.011 Y167.604 E35.83029
G1 X55.221 Y166.051 E35.99143
G1 X46.654 Y145.991 E38.00896
G1 X46.201 Y143.777 E38.21792
G1 X46.201 Y47.364 E47.13523
G1 X46.610 Y45.256 E47.33390
G1 X54.698 Y25.211 E49.33304
G1 X55.320 Y23.759 E49.47920
G1 F2400.000 E46.47920
G92 E0
G1 X123.901 Y92.076 F6000.000
G1 E3.00000 F2400.000
G1 X124.436 Y91.929 E3.05131 F720.000
G1 X124.707 Y91.892 E3.07663
G1 X125.089 Y91.881 E3.11196
G1 X125.560 Y91.929 E3.15576 F720.000
G1 X125.831 Y91.990 E3.18150
G1 X126.097 Y92.077 E3.20733
G1 X126.356 Y92.188 E3.23342
G1 X126.833 Y92.473 E3.28476
G1 X127.052 Y92.647 E3.31066
G1 X127.259 Y92.845 E3.33714
G1 X127.604 Y93.278 E3.38835
G1 X127.747 Y93.517 E3.41414
G1 X127.871 Y93.775 E3.44062
G1 X128.043 Y94.304 E3.49201
G1 X128.093 Y94.578 E3.51782
G1 X128.118 Y94.861 E3.54409
G1 X128.093 Y95.419 E3.59576
G1 X128.044 Y95.692 E3.62141
G1 X127.969 Y95.964 E3.64752
G1 X127.869 Y96.230 E3.67375
G1 X127.749 Y96.480 E3.69945
G1 X127.606 Y96.719 E3.72517
G1 X127.440 Y96.946 E3.75117
G1 X127.254 Y97.160 E3.77744
G1 X127.052 Y97.353 E3.80326
G1 X126.601 Y97.680 E3.85479
G1 X126.096 Y97.924 E3.90664
G1 X125.562 Y98.071 E3.95792
G1 X124.996 Y98.123 E4.01047
G1 X124.437 Y98.071 E4.06235
G1 X124.166 Y98.010 E4.08807
G1 X123.901 Y97.923 E4.11390
G1 X123.641 Y97.812 E4.13999
G1 X123.396 Y97.679 E4.16585
G1 X122.946 Y97.353 E4.21723
G1 X122.739 Y97.155 E4.24372
G1 X122.556 Y96.945 E4.26946
G1 X122.251 Y96.483 E4.32072
G1 X122.126 Y96.224 E4.34731
G1 X122.028 Y95.962 E4.37311
G1 X121.954 Y95.695 E4.39872
G1 X121.905 Y95.422 E4.42443
G1 X121.880 Y95.139 E4.45072
G1 X121.880 Y94.856 E4.47685
G1 X121.904 Y94.581 E4.50243
G1 X121.954 Y94.308 E4.52810
G1 X122.129 Y93.770 E4.58038
G1 X122.249 Y93.520 E4.60608
G1 X122.392 Y93.281 E4.63179
G1 X122.743 Y92.841 E4.68392
G1 X122.945 Y92.647 E4.70983
G1 X123.164 Y92.473 E4.73565
G1 X123.397 Y92.320 E4.76141
G1 X123.846 Y92.100 E4.80768
G1 X124.125 Y92.672 F6000.000
G1 X124.550 Y92.555 E4.84847 F720.000
G1 X124.814 Y92.523 E4.87307
G1 X125.000 Y92.513 E4.89033 F720.000
G1 X125.447 Y92.555 E4.93177
G1 X125.873 Y92.672 E4.97269
G1 X126.275 Y92.866 E5.01399
G1 X126.634 Y93.126 E5.05497
G1 X126.943 Y93.451 E5.09646
G1 X127.187 Y93.820 E5.13734
G1 X127.364 Y94.234 E5.17896
G1 X127.463 Y94.664 E5.21983
G1 X127.482 Y95.114 E5.26147
G1 X127.423 Y95.551 E5.30227
G1 X127.284 Y95.979 E5.34386
G1 X127.075 Y96.368 E5.38478
G1 X126.794 Y96.720 E5.42634
G1 X126.460 Y97.012 E5.46738
G1 X126.078 Y97.240 E5.50857
G1 X125.662 Y97.396 E5.54968
G1 X125.230 Y97.475 E5.59026
G1 X124.768 Y97.475 E5.63299
G1 X124.335 Y97.396 E5.67369
G1 X123.919 Y97.239 E5.71485
G1 X123.538 Y97.012 E5.75589
G1 X123.200 Y96.717 E5.79738
G1 X122.924 Y96.371 E5.83832
G1 X122.810 Y96.180 E5.85883
G1 X122.634 Y95.767 E5.90044
G1 X122.535 Y95.336 E5.94131
G1 X122.515 Y94.886 E5.98295
G1 X122.574 Y94.449 E6.02376
G1 X122.713 Y94.021 E6.06535
G1 X122.923 Y93.632 E6.10627
G1 X123.203 Y93.281 E6.14777
G1 X123.537 Y92.988 E6.18887
G1 X123.723 Y92.866 E6.20944
G1 X124.070 Y92.696 E6.24516
G1 X124.349 Y93.268 F6000.000
G1 X124.664 Y93.181 E6.27544 F360.000
G1 X125.022 Y93.151 E6.30864
G1 X125.333 Y93.181 E6.33753 F360.000
G1 X125.493 Y93.217 E6.35273
G1 X125.801 Y93.333 E6.38319
G1 X126.087 Y93.503 E6.41392
G1 X126.336 Y93.722 E6.44457
G1 X126.543 Y93.981 E6.47526
G1 X126.700 Y94.273 E6.50591
G1 X126.803 Y94.589 E6.53662
G1 X126.847 Y94.917 E6.56725
G1 X126.832 Y95.249 E6.59799
G1 X126.758 Y95.571 E6.62857
G1 X126.628 Y95.877 E6.65935
G1 X126.445 Y96.153 E6.68993
G1 X126.216 Y96.394 E6.72072
G1 X125.948 Y96.588 E6.75130
G1 X125.649 Y96.732 E6.78202
G1 X125.333 Y96.819 E6.81229
G1 X124.998 Y96.850 E6.84342
G1 X124.665 Y96.819 E6.87441
G1 X124.349 Y96.732 E6.90472
G1 X124.050 Y96.588 E6.93545
G1 X123.782 Y96.394 E6.96600
G1 X123.552 Y96.153 E6.99682
G1 X123.370 Y95.878 E7.02732
G1 X123.239 Y95.571 E7.05819
G1 X123.166 Y95.250 E7.08867
G1 X123.151 Y94.916 E7.11957
G1 X123.195 Y94.590 E7.15002
G1 X123.298 Y94.272 E7.18092
G1 X123.454 Y93.982 E7.21139
G1 X123.662 Y93.721 E7.24227
G1 X123.911 Y93.504 E7.27279
G1 X124.050 Y93.412 E7.28817
G1 X124.294 Y93.291 E7.31334
G1 X125.172 Y92.877 F6000.000
G1 X86.118 Y94.861 F6000.000
G1 X86.093 Y95.419 E7.36497 F720.000
G1 X86.023 Y95.769 E7.39798
G1 X85.869 Y96.230 E7.44298
G1 X85.749 Y96.480 E7.46865
G1 X85.605 Y96.720 E7.49445
G1 X85.254 Y97.160 E7.54653
G1 X85.052 Y97.353 E7.57237
G1 X84.601 Y97.680 E7.62394
G1 X84.096 Y97.924 E7.67576
G1 X83.561 Y98.071 E7.72708
G1 X82.996 Y98.123 E7.77961
G1 X82.437 Y98.071 E7.83149
G1 X82.166 Y98.010 E7.85721
G1 X81.901 Y97.923 E7.88304
G1 X81.641 Y97.812 E7.90913
G1 X81.396 Y97.679 E7.93497
G1 X80.946 Y97.353 E7.98634
G1 X80.739 Y97.155 E8.01283
G1 X80.394 Y96.722 E8.06408
G1 X80.216 Y96.411 E8.09722
G1 X80.028 Y95.962 E8.14220
G1 X79.905 Y95.423 E8.19337
G1 X79.880 Y95.139 E8.21974
G1 X79.904 Y94.581 E8.27136
G1 X79.975 Y94.231 E8.30438
G1 X80.129 Y93.770 E8.34932
G1 X80.249 Y93.520 E8.37504
G1 X80.392 Y93.280 E8.40084
G1 X80.743 Y92.840 E8.45291
G1 X80.945 Y92.647 E8.47877
G1 X81.397 Y92.320 E8.53032
G1 X81.901 Y92.076 E8.58215
G1 X82.167 Y91.990 E8.60796
G1 X82.707 Y91.892 E8.65875
G1 X83.089 Y91.881 E8.69409
G1 X83.560 Y91.929 E8.73789 F720.000
G1 X83.831 Y91.990 E8.76363
G1 X84.097 Y92.077 E8.78946
G1 X84.356 Y92.188 E8.81554
G1 X84.832 Y92.472 E8.86684
G1 X85.052 Y92.647 E8.89277
G1 X85.258 Y92.845 E8.91925
G1 X85.604 Y93.278 E8.97050
G1 X85.747 Y93.517 E8.99628
G1 X85.871 Y93.776 E9.02278
G1 X86.043 Y94.304 E9.07415
G1 X86.113 Y94.801 E9.12063
G1 X85.482 Y94.889 F6000.000
G1 X85.463 Y95.334 E9.16181 F720.000
G1 X85.423 Y95.551 E9.18227
G1 X85.347 Y95.812 E9.20742
G1 X85.188 Y96.179 E9.24435
G1 X84.943 Y96.550 E9.28548
G1 X84.634 Y96.873 E9.32686
G1 X84.419 Y97.038 E9.35190
G1 X84.078 Y97.240 E9.38857
G1 X83.873 Y97.328 E9.40924
G1 X83.447 Y97.445 E9.45004
G1 X82.997 Y97.487 E9.49187
G1 X82.768 Y97.475 E9.51304
G1 X82.335 Y97.396 E9.55376
G1 X82.125 Y97.328 E9.57425
G1 X81.723 Y97.134 E9.61555
G1 X81.364 Y96.874 E9.65651
G1 X81.054 Y96.549 E9.69803
G1 X80.810 Y96.180 E9.73890
G1 X80.712 Y95.976 E9.75988
G1 X80.575 Y95.554 E9.80092
G1 X80.531 Y95.286 E9.82601
G1 X80.515 Y94.886 E9.86303
G1 X80.574 Y94.449 E9.90388
G1 X80.634 Y94.232 E9.92463
G1 X80.809 Y93.821 E9.96596
G1 X80.952 Y93.591 E9.99105
G1 X81.203 Y93.281 E10.02794
G1 X81.537 Y92.989 E10.06897
G1 X81.920 Y92.760 E10.11019
G1 X82.125 Y92.672 E10.13086
G1 X82.550 Y92.555 E10.17165
G1 X82.814 Y92.523 E10.19623
G1 X83.000 Y92.513 E10.21350 F720.000
G1 X83.447 Y92.555 E10.25494
G1 X83.873 Y92.672 E10.29585
G1 X84.275 Y92.866 E10.33716
G1 X84.634 Y93.126 E10.37812
G1 X84.944 Y93.451 E10.41964
G1 X85.187 Y93.820 E10.46051
G1 X85.364 Y94.234 E10.50212
G1 X85.423 Y94.446 E10.52253
G1 X85.477 Y94.829 E10.55831
G1 X84.847 Y94.917 F6000.000
G1 X84.832 Y95.249 E10.58905 F360.000
G1 X84.797 Y95.431 E10.60616
G1 X84.699 Y95.728 E10.63515
G1 X84.543 Y96.018 E10.66563
G1 X84.335 Y96.279 E10.69650
G1 X84.216 Y96.394 E10.71181
G1 X83.948 Y96.588 E10.74240
G1 X83.649 Y96.732 E10.77311
G1 X83.333 Y96.819 E10.80339
G1 X82.998 Y96.850 E10.83451
G1 X82.665 Y96.819 E10.86550
G1 X82.504 Y96.783 E10.88070
G1 X82.349 Y96.732 E10.89585
G1 X82.050 Y96.588 E10.92658
G1 X81.782 Y96.394 E10.95712
G1 X81.662 Y96.278 E10.97257
G1 X81.455 Y96.019 E11.00326
G1 X81.361 Y95.859 E11.02040
G1 X81.239 Y95.571 E11.04935
G1 X81.166 Y95.250 E11.07981
G1 X81.151 Y95.083 E11.09527
G1 X81.165 Y94.751 E11.12601
G1 X81.200 Y94.569 E11.14312
G1 X81.298 Y94.272 E11.17210
G1 X81.454 Y93.982 E11.20259
G1 X81.662 Y93.721 E11.23346
G1 X81.782 Y93.606 E11.24877
G1 X82.050 Y93.412 E11.27935
G1 X82.349 Y93.268 E11.31007
G1 X82.505 Y93.217 E11.32522
G1 X82.828 Y93.158 E11.35560
G1 X83.022 Y93.151 E11.37359
G1 X83.333 Y93.181 E11.40248 F360.000
G1 X83.649 Y93.268 E11.43280
G1 X83.948 Y93.412 E11.46353
G1 X84.216 Y93.606 E11.49407
G1 X84.446 Y93.847 E11.52490
G1 X84.628 Y94.122 E11.55539
G1 X84.758 Y94.429 E11.58627
G1 X84.803 Y94.589 E11.60157
G1 X84.842 Y94.857 E11.62665
G1 F2400.000 E8.62665
G92 E0
G1 X82.950 Y92.847 F6000.000
G1 X60.620 Y94.917 F6000.000
G1 E3.00000 F2400.000
G1 X60.620 Y32.536 E8.76967 F720.000
G1 X60.674 Y31.327 E8.88155
G1 X60.825 Y30.175 E8.98904
G1 X61.077 Y29.039 E9.09665
G1 X61.429 Y27.923 E9.20491
G1 X61.874 Y26.848 E9.31250
G1 X62.415 Y25.810 E9.42075
G1 X63.040 Y24.828 E9.52840
G1 X63.752 Y23.901 E9.63653
G1 X64.540 Y23.041 E9.74441
G1 X65.400 Y22.253 E9.85230
G1 X66.327 Y21.541 E9.96042
G1 X67.309 Y20.916 E10.06808
G1 X68.347 Y20.376 E10.17634
G1 X69.422 Y19.930 E10.28392
G1 X70.538 Y19.579 E10.39217
G1 X71.674 Y19.326 E10.49979
G1 X72.826 Y19.175 E10.60727
G1 X74.035 Y19.121 E10.71916
G1 X133.963 Y19.121 E16.26197
G1 X135.171 Y19.175 E16.37386
G1 X136.324 Y19.326 E16.48135 F720.000
G1 X137.460 Y19.579 E16.58896
G1 X138.576 Y19.930 E16.69722
G1 X139.650 Y20.376 E16.80480
G1 X140.689 Y20.916 E16.91305
G1 X141.670 Y21.541 E17.02071
G1 X142.598 Y22.253 E17.12884
G1 X143.458 Y23.041 E17.23672
G1 X144.246 Y23.901 E17.34461
G1 X144.958 Y24.828 E17.45273
G1 X145.583 Y25.810 E17.56039
G1 X146.123 Y26.848 E17.66864
G1 X146.568 Y27.923 E17.77623
G1 X146.920 Y29.039 E17.88448
G1 X147.172 Y30.175 E17.99210
G1 X147.324 Y31.327 E18.09959
G1 X147.378 Y32.536 E18.21147
G1 X147.378 Y157.464 E29.76619
G1 X147.324 Y158.673 E29.87808
G1 X147.172 Y159.825 E29.98556
G1 X146.920 Y160.961 E30.09318
G1 X146.568 Y162.077 E30.20144
G1 X146.123 Y163.152 E30.30902
G1 X145.583 Y164.190 E30.41727
G1 X144.958 Y165.172 E30.52493
G1 X144.246 Y166.099 E30.63306
G1 X143.458 Y166.959 E30.74094
G1 X142.598 Y167.747 E30.84882
G1 X141.670 Y168.459 E30.95695
G1 X140.689 Y169.084 E31.06461
G1 X139.650 Y169.624 E31.17286
G1 X138.576 Y170.070 E31.28044
G1 X137.459 Y170.421 E31.38871
G1 X136.324 Y170.674 E31.49632
G1 X135.171 Y170.825 E31.60380
G1 X133.963 Y170.879 E31.71570
G1 X74.035 Y170.879 E37.25850
G1 X72.826 Y170.825 E37.37038
G1 X71.674 Y170.674 E37.47787
G1 X70.538 Y170.421 E37.58549
G1 X69.422 Y170.070 E37.69374
G1 X68.347 Y169.624 E37.80134
G1 X67.309 Y169.084 E37.90959
G1 X66.327 Y168.459 E38.01724
G1 X65.400 Y167.747 E38.12536
G1 X64.540 Y166.959 E38.23325
G1 X63.752 Y166.099 E38.34113
G1 X63.040 Y165.172 E38.44926
G1 X62.415 Y164.190 E38.55692
G1 X61.874 Y163.152 E38.66517
G1 X61.429 Y162.077 E38.77275
G1 X61.077 Y160.961 E38.88101
G1 X60.825 Y159.825 E38.98862
G1 X60.674 Y158.673 E39.09611
G1 X60.620 Y157.464 E39.20800
G1 X60.620 Y94.977 E44.98750
G1 X59.984 Y94.917 F6000.000
G1 X59.984 Y32.522 E50.75847 F720.000
G1 X60.040 Y31.272 E50.87420
G1 X60.199 Y30.065 E50.98682
G1 X60.463 Y28.875 E51.09956
G1 X60.831 Y27.705 E51.21295
G1 X61.298 Y26.579 E51.32567
G1 X61.864 Y25.492 E51.43905
G1 X62.519 Y24.463 E51.55184
G1 X63.265 Y23.492 E51.66510
G1 X64.090 Y22.591 E51.77812
G1 X64.991 Y21.766 E51.89114
G1 X65.962 Y21.020 E52.00439
G1 X66.991 Y20.365 E52.11719
G1 X68.078 Y19.799 E52.23057
G1 X69.204 Y19.333 E52.34329
G1 X70.373 Y18.964 E52.45667
G1 X71.563 Y18.700 E52.56942
G1 X72.771 Y18.541 E52.68203
G1 X74.021 Y18.486 E52.79776
G1 X133.977 Y18.486 E58.34318 F720.000
G1 X135.227 Y18.541 E58.45891
G1 X136.434 Y18.700 E58.57153
G1 X137.624 Y18.964 E58.68427
G1 X138.793 Y19.333 E58.79766
G1 X139.919 Y19.799 E58.91038
G1 X141.007 Y20.365 E59.02375
G1 X142.035 Y21.020 E59.13656
G1 X143.007 Y21.766 E59.24981
G1 X143.908 Y22.591 E59.36283
G1 X144.733 Y23.492 E59.47585
G1 X145.479 Y24.463 E59.58911
G1 X146.134 Y25.492 E59.70190
G1 X146.700 Y26.579 E59.81528
G1 X147.166 Y27.705 E59.92800
G1 X147.535 Y28.875 E60.04138
G1 X147.799 Y30.065 E60.15413
G1 X147.958 Y31.272 E60.26674
G1 X148.013 Y32.522 E60.38247
G1 X148.013 Y157.478 E71.93980
G1 X147.958 Y158.728 E72.05554
G1 X147.799 Y159.935 E72.16814
G1 X147.535 Y161.125 E72.28089
G1 X147.166 Y162.295 E72.39428
G1 X146.700 Y163.421 E72.50699
G1 X146.134 Y164.508 E72.62037
G1 X145.479 Y165.536 E72.73317
G1 X144.733 Y166.508 E72.84643
G1 X143.908 Y167.409 E72.95945
G1 X143.007 Y168.234 E73.07246
G1 X142.035 Y168.980 E73.18572
G1 X141.007 Y169.635 E73.29852
G1 X139.919 Y170.201 E73.41190
G1 X138.793 Y170.667 E73.52462
