; generated by Slic3r 1.1.7 on 2015-03-30 at 01:58:55

; perimeters extrusion width = 0.40mm
; infill extrusion width = 0.67mm
; solid infill extrusion width = 0.67mm
; top infill extrusion width = 0.67mm
; support material extrusion width = 0.40mm

G21 ; set units to millimeters
M107
M190 S65 ; wait for bed temperature to be reached
M104 S220 ; set temperature
G28 ; home all axes
G1 Z5 F5000 ; lift nozzle
M109 S220 ; wait for temperature to be reached
G90 ; use absolute coordinates
G92 E0
M82 ; use absolute distances for extrusion
G1 F2400.000 E-3.00000
G92 E0
G1 Z-3.450 F6000.000
G1 X28.183 Y50.449 F6000.000
G1 E3.00000 F2400.000
G1 X114.449 Y2.258 E12.13942 F1080.000
G1 X117.198 Y1.542 E12.40211
G1 X121.798 Y1.542 E12.82757
G1 X123.874 Y1.938 E13.02308
G1 X125.870 Y3.282 E13.24568 F1080.000
G1 X178.244 Y58.044 E20.25418
G1 X179.392 Y59.819 E20.44969
G1 X179.801 Y61.683 E20.62617
G1 X182.465 Y120.226 E26.04652
G1 X182.465 Y184.149 E31.95877
G1 X182.068 Y186.225 E32.15429
G1 X180.935 Y188.010 E32.34980
G1 X179.223 Y189.251 E32.54532
G1 X176.829 Y189.785 E32.77221
G1 X25.329 Y189.785 E46.78459
G1 X23.253 Y189.388 E46.98011
G1 X21.469 Y188.255 E47.17562
G1 X20.227 Y186.543 E47.37114
G1 X19.707 Y184.537 E47.56281
G1 X13.584 Y95.875 E55.78284
G1 X13.535 Y94.117 E55.94551
G1 X13.535 Y61.940 E58.92159
G1 X13.932 Y59.863 E59.11710
G1 X15.065 Y58.079 E59.31262
G1 X16.422 Y57.020 E59.47185
G1 X28.131 Y50.479 E60.71231
G1 F2400.000 E57.71231
G92 E0
G1 X29.671 Y121.848 F6000.000
G1 E3.00000 F2400.000
G1 X172.488 Y121.848 E16.20925 F720.000
G1 X172.176 Y122.407 E16.26848
G1 X171.980 Y122.853 E16.31354
G1 X171.830 Y123.349 E16.36149
G1 X171.742 Y123.858 E16.40921
G1 X171.706 Y124.402 E16.45965
G1 X171.742 Y124.945 E16.51003
G1 X171.829 Y125.452 E16.55761
G1 X171.897 Y125.706 E16.58189
G1 X172.070 Y126.173 E16.62800
G1 X172.294 Y126.609 E16.67331
G1 X172.572 Y127.008 E16.71826
G1 X172.909 Y127.371 E16.76406
G1 X173.292 Y127.672 E16.80915
G1 X173.734 Y127.915 E16.85577
G1 X174.202 Y128.072 E16.90148
G1 X174.693 Y128.143 E16.94735
G1 X175.208 Y128.145 E16.99496
G1 X175.208 Y163.088 E20.22682
G1 X174.712 Y163.086 E20.27267
G1 X174.461 Y163.109 E20.29598
G1 X173.984 Y163.220 E20.34133
G1 X173.747 Y163.309 E20.36468
G1 X173.303 Y163.551 E20.41151
G1 X172.916 Y163.853 E20.45689
G1 X172.738 Y164.030 E20.48009
G1 X172.577 Y164.216 E20.50287
G1 X172.297 Y164.616 E20.54800
G1 X172.072 Y165.053 E20.59343
G1 X171.898 Y165.521 E20.63965
G1 X171.830 Y165.776 E20.66402
G1 X171.742 Y166.284 E20.71174
G1 X171.706 Y166.828 E20.76218
G1 X171.719 Y167.117 E20.78892
G1 X171.778 Y167.624 E20.83616
G1 X171.829 Y167.879 E20.86016
G1 X171.897 Y168.132 E20.88443
G1 X172.070 Y168.600 E20.93055
G1 X172.294 Y169.035 E20.97584
G1 X172.428 Y169.241 E20.99856
G1 X172.731 Y169.620 E21.04344
G1 X172.909 Y169.797 E21.06666
G1 X173.292 Y170.099 E21.11175
G1 X173.505 Y170.228 E21.13477
G1 X173.968 Y170.431 E21.18152
G1 X174.443 Y170.545 E21.22671
G1 X174.693 Y170.570 E21.24996
G1 X175.208 Y170.572 E21.29759
G1 X175.208 Y182.528 E22.40340
G1 X26.950 Y182.528 E36.11588
G1 X26.950 Y170.569 E37.22195
G1 X27.446 Y170.571 E37.26782
G1 X27.698 Y170.548 E37.29117
G1 X28.175 Y170.436 E37.33649
G1 X28.641 Y170.235 E37.38348
G1 X28.856 Y170.105 E37.40666
G1 X29.242 Y169.803 E37.45201
G1 X29.421 Y169.627 E37.47527
G1 X29.727 Y169.247 E37.52035
G1 X29.861 Y169.041 E37.54313
G1 X30.086 Y168.604 E37.58857
G1 X30.261 Y168.135 E37.63481
G1 X30.329 Y167.881 E37.65914
G1 X30.380 Y167.626 E37.68320
G1 X30.439 Y167.118 E37.73055
G1 X30.452 Y166.828 E37.75734
G1 X30.416 Y166.285 E37.80769
G1 X30.329 Y165.778 E37.85529
G1 X30.261 Y165.524 E37.87956
G1 X30.088 Y165.057 E37.92568
G1 X29.864 Y164.621 E37.97098
G1 X29.586 Y164.223 E38.01593
G1 X29.427 Y164.037 E38.03857
G1 X29.249 Y163.860 E38.06179
G1 X28.866 Y163.558 E38.10684
G1 X28.425 Y163.315 E38.15346
G1 X28.191 Y163.226 E38.17664
G1 X27.715 Y163.112 E38.22185
G1 X27.465 Y163.087 E38.24510
G1 X26.950 Y163.085 E38.29273
G1 X26.950 Y128.143 E41.52458
G1 X27.447 Y128.144 E41.57047
G1 X27.940 Y128.076 E41.61651
G1 X28.410 Y127.921 E41.66234
G1 X28.856 Y127.679 E41.70921
G1 X29.242 Y127.377 E41.75455
G1 X29.582 Y127.014 E41.80055
G1 X29.861 Y126.614 E41.84567
G1 X30.086 Y126.178 E41.89111
G1 X30.261 Y125.709 E41.93735
G1 X30.380 Y125.200 E41.98571
G1 X30.439 Y124.691 E42.03306
G1 X30.440 Y124.113 E42.08654
G1 X30.380 Y123.606 E42.13377
G1 X30.261 Y123.098 E42.18202
G1 X30.088 Y122.631 E42.22813
G1 X29.700 Y121.900 E42.30462
G1 X28.493 Y121.212 F6000.000
G1 X173.666 Y121.212 E55.73186 F720.000
G1 X173.780 Y121.564 E55.76611
G1 X173.345 Y121.896 E55.81667
G1 X173.202 Y122.038 E55.83529
G1 X172.953 Y122.348 E55.87210
G1 X172.842 Y122.518 E55.89092
G1 X172.654 Y122.883 E55.92885
G1 X172.506 Y123.279 E55.96798
G1 X172.449 Y123.494 E55.98855
G1 X172.353 Y124.155 E56.05031
G1 X172.353 Y124.648 E56.09595
G1 X172.448 Y125.308 E56.15755
G1 X172.574 Y125.726 E56.19796
G1 X172.739 Y126.102 E56.23592
G1 X172.839 Y126.281 E56.25493
G1 X173.068 Y126.610 E56.29199
G1 X173.340 Y126.902 E56.32889
G1 X173.645 Y127.143 E56.36486
G1 X173.811 Y127.245 E56.38287
G1 X174.169 Y127.401 E56.41899
G1 X174.535 Y127.489 E56.45382
G1 X174.726 Y127.508 E56.47152
G1 X174.918 Y127.509 E56.48933
G1 X175.843 Y127.423 E56.57526
G1 X175.843 Y163.965 E59.95508
G1 X175.489 Y163.829 E59.99019
G1 X175.123 Y163.741 E60.02500
G1 X174.740 Y163.722 E60.06046
G1 X174.549 Y163.739 E60.07821
G1 X174.182 Y163.825 E60.11311
G1 X173.999 Y163.894 E60.13113
G1 X173.821 Y163.981 E60.14949
G1 X173.497 Y164.195 E60.18541
G1 X173.202 Y164.464 E60.22231
G1 X173.072 Y164.615 E60.24076
G1 X172.842 Y164.945 E60.27795
G1 X172.654 Y165.309 E60.31588
G1 X172.506 Y165.706 E60.35501
G1 X172.449 Y165.921 E60.37559
G1 X172.373 Y166.358 E60.41664
G1 X172.343 Y166.828 E60.46023
G1 X172.373 Y167.298 E60.50375
G1 X172.448 Y167.734 E60.54469
G1 X172.505 Y167.948 E60.56520
G1 X172.652 Y168.344 E60.60424
G1 X172.839 Y168.708 E60.64206
G1 X173.068 Y169.037 E60.67912
G1 X173.197 Y169.187 E60.69747
G1 X173.490 Y169.456 E60.73422
G1 X173.812 Y169.671 E60.77002
G1 X173.989 Y169.758 E60.78829
G1 X174.169 Y169.828 E60.80617
G1 X174.535 Y169.915 E60.84097
G1 X174.918 Y169.935 E60.87645
G1 X175.110 Y169.917 E60.89422
G1 X175.477 Y169.832 E60.92912
G1 X175.843 Y169.693 E60.96535
G1 X175.843 Y183.163 E62.21119
G1 X26.315 Y183.163 E76.04125
G1 X26.315 Y169.692 E77.28726
G1 X26.669 Y169.828 E77.32239
G1 X27.035 Y169.915 E77.35717
G1 X27.418 Y169.935 E77.39266
G1 X27.609 Y169.917 E77.41043
G1 X27.977 Y169.832 E77.44532
G1 X28.159 Y169.763 E77.46330
G1 X28.337 Y169.676 E77.48164
G1 X28.661 Y169.462 E77.51761
G1 X28.956 Y169.192 E77.55453
G1 X29.086 Y169.042 E77.57295
G1 X29.316 Y168.712 E77.61013
G1 X29.504 Y168.348 E77.64807
G1 X29.652 Y167.951 E77.68721
G1 X29.710 Y167.736 E77.70777
G1 X29.785 Y167.299 E77.74881
G1 X29.816 Y166.828 E77.79242
G1 X29.785 Y166.359 E77.83593
G1 X29.710 Y165.923 E77.87688
G1 X29.653 Y165.709 E77.89738
G1 X29.506 Y165.313 E77.93642
G1 X29.319 Y164.949 E77.97425
G1 X29.090 Y164.620 E78.01130
G1 X28.864 Y164.373 E78.04227
G1 X28.669 Y164.200 E78.06640
G1 X28.347 Y163.986 E78.10220
G1 X28.170 Y163.898 E78.12044
G1 X27.989 Y163.829 E78.13834
G1 X27.623 Y163.741 E78.17315
G1 X27.240 Y163.722 E78.20861
G1 X27.049 Y163.739 E78.22636
G1 X26.682 Y163.825 E78.26126
G1 X26.315 Y163.963 E78.29753
G1 X26.315 Y127.265 E81.69178
G1 X26.851 Y127.453 E81.74430
G1 X27.226 Y127.508 E81.77937
G1 X27.609 Y127.491 E81.81489
G1 X27.977 Y127.405 E81.84979
G1 X28.159 Y127.337 E81.86775
G1 X28.505 Y127.148 E81.90418
G1 X28.813 Y126.908 E81.94034
G1 X28.956 Y126.766 E81.95898
G1 X29.205 Y126.456 E81.99577
G1 X29.316 Y126.286 E82.01459
G1 X29.417 Y126.106 E82.03366
G1 X29.583 Y125.729 E82.07171
G1 X29.709 Y125.310 E82.11222
G1 X29.805 Y124.649 E82.17397
G1 X29.805 Y124.155 E82.21963
G1 X29.710 Y123.496 E82.28123
G1 X29.653 Y123.282 E82.30173
G1 X29.506 Y122.886 E82.34077
G1 X29.319 Y122.523 E82.37860
G1 X29.209 Y122.352 E82.39736
G1 X28.961 Y122.043 E82.43401
G1 X28.819 Y121.902 E82.45257
G1 X28.379 Y121.564 E82.50389
G1 X28.474 Y121.269 E82.53252
G1 X25.679 Y120.576 F6000.000
G1 X176.479 Y120.576 E96.48016 F360.000
G1 X176.479 Y123.040 E96.70805
G1 X175.888 Y122.370 E96.79076
G1 X175.660 Y122.190 E96.81762
G1 X175.415 Y122.055 E96.84350
G1 X175.031 Y121.944 E96.88046
G1 X174.768 Y121.931 E96.90477
G1 X174.508 Y121.967 E96.92909
G1 X174.251 Y122.052 E96.95405
G1 X174.005 Y122.186 E96.98004
G1 X173.667 Y122.472 E97.02094
G1 X173.474 Y122.712 E97.04946
G1 X173.307 Y122.990 E97.07942
G1 X173.171 Y123.297 E97.11047
G1 X173.068 Y123.639 E97.14354
G1 X173.005 Y124.006 E97.17792
G1 X172.979 Y124.402 E97.21467
G1 X173.005 Y124.797 E97.25133
G1 X173.067 Y125.163 E97.28563
G1 X173.171 Y125.504 E97.31862
G1 X173.305 Y125.811 E97.34959
G1 X173.471 Y126.088 E97.37946
G1 X173.663 Y126.328 E97.40789
G1 X173.883 Y126.530 E97.43546
G1 X174.244 Y126.749 E97.47451
G1 X174.499 Y126.834 E97.49940
G1 X174.758 Y126.872 E97.52367
G1 X175.348 Y126.831 E97.57832
G1 X175.348 Y126.781 E97.58290
G1 X175.654 Y126.618 E97.61496
G1 X175.883 Y126.438 E97.64193
G1 X176.479 Y125.766 E97.72501
G1 X176.479 Y165.467 E101.39698
G1 X175.888 Y164.796 E101.47970
G1 X175.660 Y164.616 E101.50654
G1 X175.415 Y164.481 E101.53242
G1 X175.031 Y164.371 E101.56938
G1 X174.768 Y164.357 E101.59369
G1 X174.508 Y164.394 E101.61802
G1 X174.251 Y164.478 E101.64299
G1 X174.005 Y164.612 E101.66896
G1 X173.667 Y164.898 E101.70986
G1 X173.474 Y165.139 E101.73839
G1 X173.307 Y165.416 E101.76835
G1 X173.171 Y165.723 E101.79940
G1 X173.068 Y166.066 E101.83247
G1 X173.005 Y166.432 E101.86685
G1 X172.979 Y166.828 E101.90359
G1 X173.005 Y167.224 E101.94026
G1 X173.067 Y167.589 E101.97456
G1 X173.171 Y167.931 E102.00754
G1 X173.305 Y168.237 E102.03852
G1 X173.471 Y168.514 E102.06839
G1 X173.663 Y168.754 E102.09682
G1 X173.968 Y169.018 E102.13410
G1 X174.244 Y169.175 E102.16343
G1 X174.627 Y169.286 E102.20038
G1 X174.890 Y169.299 E102.22470
G1 X175.151 Y169.263 E102.24902
G1 X175.407 Y169.179 E102.27399
G1 X175.654 Y169.044 E102.29997
G1 X175.884 Y168.865 E102.32695
G1 X176.479 Y168.192 E102.41002
G1 X176.479 Y183.799 E103.85347
G1 X25.679 Y183.799 E117.80110
G1 X25.679 Y168.190 E119.24479
G1 X26.270 Y168.861 E119.32749
G1 X26.499 Y169.040 E119.35435
G1 X26.744 Y169.175 E119.38022
G1 X27.127 Y169.286 E119.41716
G1 X27.390 Y169.299 E119.44149
G1 X27.651 Y169.263 E119.46581
G1 X27.907 Y169.179 E119.49078
G1 X28.270 Y168.960 E119.52998
G1 X28.491 Y168.758 E119.55766
G1 X28.684 Y168.518 E119.58618
G1 X28.851 Y168.241 E119.61613
G1 X28.987 Y167.933 E119.64718
G1 X29.090 Y167.591 E119.68025
G1 X29.153 Y167.225 E119.71463
G1 X29.179 Y166.828 E119.75138
G1 X29.153 Y166.433 E119.78805
G1 X29.091 Y166.067 E119.82235
G1 X28.988 Y165.726 E119.85533
G1 X28.853 Y165.419 E119.88630
G1 X28.687 Y165.142 E119.91618
G1 X28.495 Y164.902 E119.94460
G1 X28.276 Y164.701 E119.97217
G1 X27.915 Y164.481 E120.01122
G1 X27.531 Y164.371 E120.04817
G1 X27.268 Y164.357 E120.07248
G1 X27.008 Y164.394 E120.09682
G1 X26.751 Y164.478 E120.12179
G1 X26.505 Y164.612 E120.14776
G1 X26.275 Y164.792 E120.17474
G1 X25.679 Y165.464 E120.25781
G1 X25.679 Y125.764 E123.92977
G1 X26.270 Y126.434 E124.01247
G1 X26.499 Y126.614 E124.03933
G1 X26.744 Y126.749 E124.06520
G1 X27.128 Y126.859 E124.10216
G1 X27.390 Y126.873 E124.12647
G1 X27.651 Y126.836 E124.15080
G1 X27.907 Y126.752 E124.17575
G1 X28.154 Y126.618 E124.20174
G1 X28.491 Y126.332 E124.24265
G1 X28.684 Y126.092 E124.27116
G1 X28.851 Y125.814 E124.30112
G1 X28.987 Y125.507 E124.33217
G1 X29.090 Y125.165 E124.36524
G1 X29.153 Y124.798 E124.39962
G1 X29.179 Y124.402 E124.43637
G1 X29.153 Y124.006 E124.47303
G1 X29.091 Y123.641 E124.50733
G1 X28.988 Y123.299 E124.54032
G1 X28.853 Y122.993 E124.57129
G1 X28.687 Y122.716 E124.60117
G1 X28.495 Y122.476 E124.62959
G1 X28.276 Y122.274 E124.65716
G1 X27.915 Y122.055 E124.69621
G1 X27.531 Y121.944 E124.73317
G1 X27.268 Y121.931 E124.75748
G1 X27.008 Y121.967 E124.78181
G1 X26.751 Y122.052 E124.80676
G1 X26.505 Y122.186 E124.83275
G1 X26.275 Y122.366 E124.85972
G1 X25.679 Y123.038 E124.94279
G1 X25.679 Y120.636 E125.16489
G1 X26.026 Y120.776 F6000.000
G1 F2400.000 E122.16489
G92 E0
G1 X176.223 Y165.815 F6000.000
G1 E3.00000 F2400.000
G1 X176.390 Y166.119 E3.03208 F360.000
G1 X176.569 Y166.509 E3.07176
G1 X176.579 Y166.839 E3.10235
G1 X176.569 Y167.154 E3.13152
G1 X176.390 Y167.540 E3.17081
G1 X176.221 Y167.848 E3.20331
G1 F2400.000 E0.20331
G92 E0
G1 X25.935 Y167.842 F6000.000
G1 E3.00000 F2400.000
G1 X25.769 Y167.538 E3.03212 F360.000
G1 X25.589 Y167.149 E3.07176
G1 X25.579 Y166.818 E3.10239
G1 X25.589 Y166.503 E3.13155
G1 X25.768 Y166.117 E3.17086
G1 X25.937 Y165.809 E3.20335
G1 F2400.000 E0.20335
G92 E0
G1 X176.228 Y123.386 F6000.000
G1 E3.00000 F2400.000
G1 X176.569 Y124.082 E3.07175 F360.000
G1 X176.579 Y124.413 E3.10235
G1 X176.569 Y124.728 E3.13152
G1 X176.390 Y125.113 E3.17081
G1 X176.221 Y125.421 E3.20331
G1 F2400.000 E0.20331
G92 E0
G1 X25.931 Y125.419 F6000.000
G1 E3.00000 F2400.000
G1 X25.589 Y124.722 E3.07175 F360.000
G1 X25.579 Y124.391 E3.10238
G1 X25.589 Y124.076 E3.13156
G1 X25.768 Y123.691 E3.17085
G1 X25.937 Y123.383 E3.20336
G1 F2400.000 E0.20336
G92 E0
G1 X27.391 Y162.269 F6000.000
G1 E3.00000 F2400.000
G1 X27.801 Y162.679 E3.05358 F1260.000
G1 F2400.000 E0.05358
G92 E0
G1 X27.391 Y182.047 F6000.000
G1 E3.00000 F2400.000
G1 X27.431 Y182.087 E3.00523 F1260.000
G1 X28.330 Y182.087 E3.08838
G1 X27.391 Y181.148 E3.21120
G1 X27.391 Y180.249 E3.29435
G1 X29.229 Y182.087 E3.53476
G1 X30.128 Y182.087 E3.61790
G1 X27.391 Y179.350 E3.97590
G1 X27.391 Y178.451 E4.05905
G1 X31.027 Y182.087 E4.53464
G1 X31.926 Y182.087 E4.61778
G1 X27.391 Y177.552 E5.21096
G1 X27.391 Y176.653 E5.29411
G1 X32.825 Y182.087 E6.00487
G1 X33.724 Y182.087 E6.08802
G1 X27.391 Y175.754 E6.91637
G1 X27.391 Y174.855 E6.99952
G1 X34.623 Y182.087 E7.94546
G1 X35.522 Y182.087 E8.02861
G1 X27.391 Y173.956 E9.09214
G1 X27.391 Y173.057 E9.17529
G1 X36.421 Y182.087 E10.35640
G1 X37.320 Y182.087 E10.43955
G1 X27.391 Y172.158 E11.73826
G1 X27.391 Y171.259 E11.82141
G1 X38.219 Y182.087 E13.23770
G1 X39.118 Y182.087 E13.32085
G1 X27.968 Y170.937 E14.77926
G1 X28.644 Y170.714 E14.84510
G1 X40.017 Y182.087 E16.33269
G1 X40.916 Y182.087 E16.41583
G1 X29.214 Y170.385 E17.94648
G1 X29.699 Y169.971 E18.00546
G1 X41.815 Y182.087 E19.59021
G1 X42.714 Y182.087 E19.67336
G1 X30.103 Y169.476 E21.32284
G1 X30.428 Y168.902 E21.38385
G1 X43.613 Y182.087 E23.10841
G1 X44.512 Y182.087 E23.19156
G1 X30.684 Y168.259 E25.00029
G1 X30.837 Y167.513 E25.07071
G1 X45.411 Y182.087 E26.97699
G1 X46.310 Y182.087 E27.06014
G1 X30.883 Y166.660 E29.07805
G1 X30.744 Y165.622 E29.17488
G1 X47.209 Y182.087 E31.32852
G1 X48.108 Y182.087 E31.41167
G1 X27.391 Y161.370 E34.12144
G1 X27.391 Y160.471 E34.20459
G1 X49.007 Y182.087 E37.03195
G1 X49.906 Y182.087 E37.11509
G1 X27.391 Y159.572 E40.06004
G1 X27.391 Y158.673 E40.14319
G1 X50.805 Y182.087 E43.20573
G1 X51.704 Y182.087 E43.28887
G1 X27.391 Y157.774 E46.46900
G1 X27.391 Y156.875 E46.55215
G1 X52.603 Y182.087 E49.84986
G1 X53.502 Y182.087 E49.93301
G1 X27.391 Y155.976 E53.34831
G1 X27.391 Y155.077 E53.43146
G1 X54.401 Y182.087 E56.96435
G1 X55.300 Y182.087 E57.04750
G1 X27.391 Y154.178 E60.69797
G1 X27.391 Y153.279 E60.78112
G1 X56.199 Y182.087 E64.54919
G1 X57.098 Y182.087 E64.63234
G1 X27.391 Y152.380 E68.51799
G1 X27.391 Y151.481 E68.60114
G1 X57.997 Y182.087 E72.60439
G1 X58.896 Y182.087 E72.68753
