; generated by Slic3r 1.1.7 on 2015-03-29 at 17:45:21

; perimeters extrusion width = 0.40mm
; infill extrusion width = 0.67mm
; solid infill extrusion width = 0.67mm
; top infill extrusion width = 0.67mm
; support material extrusion width = 0.40mm

G21 ; set units to millimeters
M107
M190 S65 ; wait for bed temperature to be reached
M104 S220 ; set temperature
G28 ; home all axes
G1 Z5 F5000 ; lift nozzle
M109 S220 ; wait for temperature to be reached
G90 ; use absolute coordinates
G92 E0
M82 ; use absolute distances for extrusion
G1 F2400.000 E-3.00000
G92 E0
G1 Z-3.450 F6000.000
G1 X48.027 Y41.763 F6000.000
G1 E3.00000 F2400.000
G1 X49.765 Y40.560 E3.19551 F1080.000
G1 X51.824 Y40.082 E3.39103
G1 X53.964 Y40.415 E3.59135
G1 X74.012 Y47.683 E5.56373 F1080.000
G1 X151.661 Y80.472 E13.35957
G1 X152.559 Y80.876 E13.45064
G1 X171.226 Y89.929 E15.36947
G1 X172.921 Y91.192 E15.56499
G1 X174.031 Y92.991 E15.76050
G1 X174.401 Y95.072 E15.95602
G1 X173.958 Y97.192 E16.15636
G1 X153.144 Y146.484 E21.10514
G1 X151.970 Y148.241 E21.30066
G1 X150.230 Y149.442 E21.49617
G1 X148.170 Y149.918 E21.69169
G1 X145.762 Y149.478 E21.91808
G1 X29.041 Y100.192 E33.63670
G1 X27.283 Y99.019 E33.83222
G1 X26.080 Y97.280 E34.02773
G1 X25.603 Y95.221 E34.22325
G1 X26.042 Y92.808 E34.45013
G1 X46.854 Y43.521 E39.39840
G1 X47.993 Y41.813 E39.58836
G1 F2400.000 E36.58836
G92 E0
G1 X147.592 Y136.459 F6000.000
G1 E3.00000 F2400.000
G1 X163.293 Y99.277 E6.73307 F720.000
G1 X163.739 Y99.324 E6.77455
G1 X164.218 Y99.314 E6.81887
G1 X164.563 Y99.261 E6.85115
G1 X165.293 Y99.057 E6.92130
G1 X148.830 Y138.046 E10.83575
G1 X148.567 Y137.552 E10.88756
G1 X148.309 Y137.154 E10.93137
G1 X148.080 Y136.886 E10.96401
G1 X147.638 Y136.497 E11.01838
G1 X146.785 Y136.736 F6000.000
G1 X162.928 Y98.506 E14.85662 F720.000
G1 X163.335 Y98.625 E14.89581
G1 X163.722 Y98.686 E14.93205
G1 X163.989 Y98.692 E14.95677
G1 X164.424 Y98.640 E14.99732
G1 X164.844 Y98.513 E15.03788
G1 X165.217 Y98.326 E15.07644
G1 X165.399 Y98.203 E15.09677
G1 X165.727 Y97.910 E15.13743
G1 X165.997 Y97.565 E15.17796
G1 X166.205 Y97.174 E15.21892
G1 X166.341 Y96.748 E15.26034
G1 X166.380 Y96.530 E15.28082
G1 X166.399 Y96.308 E15.30138
G1 X166.377 Y95.864 E15.34255
G1 X166.336 Y95.644 E15.36322
G1 X166.144 Y94.963 E15.42869
G1 X167.475 Y95.525 E15.56230
G1 X147.430 Y142.995 E20.32825
G1 X144.640 Y141.817 E20.60838
G1 X144.840 Y141.343 E20.65589
G1 X145.417 Y141.497 E20.71110
G1 X145.900 Y141.530 E20.75592
G1 X146.118 Y141.514 E20.77614
G1 X146.503 Y141.437 E20.81243
G1 X146.952 Y141.261 E20.85706
G1 X147.310 Y141.040 E20.89597
G1 X147.638 Y140.748 E20.93662
G1 X147.909 Y140.403 E20.97715
G1 X148.117 Y140.013 E21.01804
G1 X148.251 Y139.592 E21.05893
G1 X148.310 Y139.157 E21.09947
G1 X148.291 Y138.718 E21.14012
G1 X148.252 Y138.502 E21.16046
G1 X148.126 Y138.103 E21.19916
G1 X147.900 Y137.676 E21.24383
G1 X147.625 Y137.331 E21.28462
G1 X147.298 Y137.043 E21.32497
G1 X146.838 Y136.765 E21.37466
G1 F2400.000 E18.37466
G92 E0
G1 X163.252 Y93.741 F6000.000
G1 E3.00000 F2400.000
G1 X162.612 Y94.090 E3.06743 F720.000
G1 X162.188 Y94.409 E3.11646
G1 X148.854 Y88.778 E4.45520
G1 X149.254 Y87.831 E4.55035
G1 X163.197 Y93.718 E5.95018
G1 F2400.000 E2.95018
G92 E0
G1 X110.557 Y72.607 F6000.000
G1 E3.00000 F2400.000
G1 X90.912 Y119.130 E7.67079 F720.000
G1 X89.964 Y118.730 E7.76594
G1 X109.609 Y72.207 E12.43674
G1 X90.631 Y64.194 E14.34205
G1 X91.032 Y63.246 E14.43720
G1 X129.013 Y79.284 E18.25049
G1 X128.613 Y80.232 E18.34564
G1 X110.612 Y72.631 E20.15291
G1 F2400.000 E17.15291
G92 E0
G1 X70.391 Y55.647 F6000.000
G1 E3.00000 F2400.000
G1 X56.135 Y49.627 E4.43123 F720.000
G1 X56.060 Y49.066 E4.48358
G1 X55.870 Y48.399 E4.54780
G1 X70.791 Y54.699 E6.04585
G1 X70.414 Y55.592 E6.13545
G1 F2400.000 E3.13545
G92 E0
G1 X52.782 Y52.654 F6000.000
G1 E3.00000 F2400.000
G1 X37.111 Y89.768 E6.72617 F720.000
G1 X36.671 Y89.568 E6.77084
G1 X36.337 Y89.461 E6.80330
G1 X35.820 Y89.370 E6.85186
G1 X35.378 Y89.353 E6.89275
G1 X51.277 Y51.701 E10.67300
G1 X51.598 Y52.005 E10.71389
G1 X52.024 Y52.314 E10.76255
G1 X52.336 Y52.479 E10.79525
G1 X52.726 Y52.633 E10.83402
G1 X53.683 Y52.156 F6000.000
G1 X37.382 Y90.760 E14.70985 F720.000
G1 X36.984 Y90.449 E14.75656
G1 X36.645 Y90.249 E14.79295
G1 X36.393 Y90.143 E14.81822
G1 X35.967 Y90.031 E14.85899
G1 X35.525 Y89.997 E14.90002
G1 X35.131 Y90.033 E14.93654
G1 X34.881 Y90.088 E14.96022
G1 X34.296 Y90.282 E15.01728
G1 X51.188 Y50.277 E19.03370
G1 X51.458 Y50.832 E19.09076
G1 X51.592 Y51.050 E19.11441
G1 X51.841 Y51.357 E19.15099
G1 X52.174 Y51.650 E19.19203
G1 X52.553 Y51.879 E19.23296
G1 X52.803 Y51.984 E19.25801
G1 X53.182 Y52.087 E19.29441
G1 X53.623 Y52.148 E19.33558
G1 X33.100 Y93.115 F6000.000
G1 X33.369 Y93.670 E19.39264 F720.000
G1 X33.504 Y93.887 E19.41629
G1 X33.752 Y94.195 E19.45289
G1 X34.085 Y94.488 E19.49391
G1 X34.464 Y94.716 E19.53481
G1 X34.714 Y94.822 E19.55992
G1 X35.094 Y94.925 E19.59631
G1 X35.594 Y94.993 E19.64301
G1 X35.315 Y95.654 E19.70931
G1 X32.525 Y94.475 E19.98945
G1 X33.076 Y93.170 E20.12050
G1 X36.159 Y95.289 F6000.000
G1 X89.637 Y117.870 E25.48960 F360.000
G1 X108.776 Y72.545 E30.04015
G1 X89.799 Y64.532 E31.94546
G1 X90.693 Y62.413 E32.15819
G1 X129.008 Y78.592 E36.00489
G1 X129.846 Y78.946 E36.08906
G1 X128.951 Y81.064 E36.30179
G1 X110.895 Y73.440 E38.11461
G1 X91.756 Y118.765 E42.66516
G1 X144.313 Y140.957 E47.94177
G1 X144.539 Y140.422 E47.99547
G1 X145.060 Y140.729 E48.05143
G1 X145.386 Y140.842 E48.08334
G1 X145.691 Y140.890 E48.11186
G1 X145.873 Y140.895 E48.12872
G1 X146.179 Y140.861 E48.15724
G1 X146.356 Y140.817 E48.17410
G1 X146.643 Y140.705 E48.20253
G1 X146.795 Y140.621 E48.21863
G1 X147.047 Y140.434 E48.24762
G1 X147.281 Y140.188 E48.27905
G1 X147.459 Y139.914 E48.30928
G1 X147.530 Y139.765 E48.32456
G1 X147.631 Y139.451 E48.35504
G1 X147.660 Y139.291 E48.37008
G1 X147.674 Y138.969 E48.39988
G1 X147.660 Y138.802 E48.41545
G1 X147.590 Y138.490 E48.44497
G1 X147.457 Y138.173 E48.47682
G1 X147.289 Y137.914 E48.50532
G1 X147.184 Y137.789 E48.52041
G1 X147.054 Y137.662 E48.53723
G1 X146.807 Y137.477 E48.56577
G1 X146.498 Y137.322 E48.59772
G1 X145.915 Y137.162 E48.65365
G1 X162.627 Y97.585 E52.62717
G1 X163.149 Y97.892 E52.68314
G1 X163.318 Y97.959 E52.69998
G1 X163.617 Y98.033 E52.72845
G1 X163.798 Y98.054 E52.74533
G1 X164.106 Y98.048 E52.77381
G1 X164.286 Y98.020 E52.79069
G1 X164.582 Y97.933 E52.81915
G1 X164.747 Y97.860 E52.83586
G1 X165.019 Y97.692 E52.86540
G1 X165.263 Y97.474 E52.89571
G1 X165.369 Y97.351 E52.91079
G1 X165.539 Y97.091 E52.93942
G1 X165.619 Y96.927 E52.95632
G1 X165.720 Y96.609 E52.98723
G1 X165.749 Y96.447 E53.00243
G1 X165.762 Y96.122 E53.03247
G1 X165.716 Y95.788 E53.06368
G1 X165.616 Y95.483 E53.09343
G1 X165.536 Y95.318 E53.11034
G1 X165.350 Y95.042 E53.14113
G1 X165.130 Y94.813 E53.17055
G1 X164.858 Y94.617 E53.20156
G1 X164.572 Y94.479 E53.23093
G1 X164.389 Y94.420 E53.24866
G1 X164.059 Y94.364 E53.27966
G1 X163.738 Y94.366 E53.30930
G1 X163.409 Y94.428 E53.34033
G1 X163.110 Y94.542 E53.36987
G1 X162.817 Y94.718 E53.40152
G1 X162.576 Y94.931 E53.43127
G1 X162.364 Y95.173 E53.46101
G1 X148.021 Y89.117 E54.90109
G1 X148.916 Y86.998 E55.11382
G1 X168.308 Y95.186 E57.06076
G1 X147.768 Y143.828 E61.94428
G1 X31.692 Y94.814 E73.59814
G1 X52.232 Y46.172 E78.48166
G1 X71.624 Y54.361 E80.42860
G1 X70.729 Y56.480 E80.64133
G1 X55.464 Y50.034 E82.17390
G1 X55.491 Y49.715 E82.20352
G1 X55.473 Y49.379 E82.23465
G1 X55.400 Y49.069 E82.26404
G1 X55.274 Y48.774 E82.29378
G1 X55.080 Y48.481 E82.32620
G1 X54.862 Y48.254 E82.35538
G1 X54.594 Y48.059 E82.38606
G1 X54.424 Y47.968 E82.40380
G1 X54.119 Y47.857 E82.43390
G1 X53.800 Y47.801 E82.46384
G1 X53.480 Y47.802 E82.49345
G1 X53.298 Y47.827 E82.51043
G1 X52.980 Y47.917 E82.54095
G1 X52.686 Y48.060 E82.57122
G1 X52.430 Y48.247 E82.60051
G1 X52.297 Y48.374 E82.61748
G1 X52.094 Y48.631 E82.64779
G1 X51.937 Y48.925 E82.67861
G1 X51.836 Y49.242 E82.70944
G1 X51.793 Y49.567 E82.73975
G1 X51.809 Y49.898 E82.77040
G1 X51.884 Y50.220 E82.80094
G1 X52.017 Y50.529 E82.83205
G1 X52.208 Y50.813 E82.86374
G1 X52.431 Y51.043 E82.89336
G1 X52.709 Y51.241 E82.92493
G1 X53.009 Y51.383 E82.95559
G1 X53.328 Y51.467 E82.98616
G1 X53.657 Y51.494 E83.01668
G1 X53.987 Y51.462 E83.04732
G1 X54.769 Y51.218 E83.12307
G1 X37.467 Y92.192 E87.23676
G1 X37.097 Y91.461 E87.31251
G1 X36.987 Y91.313 E87.32958
G1 X36.771 Y91.089 E87.35841
G1 X36.503 Y90.894 E87.38901
G1 X36.340 Y90.808 E87.40605
G1 X36.030 Y90.695 E87.43659
G1 X35.711 Y90.638 E87.46651
G1 X35.391 Y90.640 E87.49613
G1 X35.209 Y90.664 E87.51310
G1 X34.892 Y90.755 E87.54364
G1 X34.598 Y90.898 E87.57389
G1 X34.328 Y91.096 E87.60481
G1 X34.103 Y91.334 E87.63515
G1 X33.922 Y91.610 E87.66567
G1 X33.791 Y91.921 E87.69686
G1 X33.719 Y92.243 E87.72739
G1 X33.705 Y92.423 E87.74408
G1 X33.721 Y92.736 E87.77306
G1 X33.795 Y93.057 E87.80358
G1 X33.928 Y93.366 E87.83471
G1 X34.021 Y93.518 E87.85114
G1 X34.218 Y93.762 E87.88011
G1 X34.466 Y93.979 E87.91063
G1 X34.751 Y94.149 E87.94126
G1 X34.920 Y94.220 E87.95829
G1 X35.240 Y94.305 E87.98886
G1 X35.550 Y94.332 E88.01765
G1 X35.734 Y94.323 E88.03471
G1 X36.040 Y94.267 E88.06348
G1 X36.680 Y94.056 E88.12582
G1 X36.183 Y95.234 E88.24406
G1 X36.004 Y95.657 F6000.000
G1 F2400.000 E85.24406
G92 E0
G1 X148.411 Y136.779 F6000.000
G1 E3.00000 F2400.000
G1 X163.854 Y100.206 E8.63179 F360.000
G1 X164.706 Y99.631 E8.77755
G1 F2400.000 E5.77755
G92 E0
G1 X162.316 Y93.905 F6000.000
G1 E3.00000 F2400.000
G1 X149.347 Y88.428 E3.73901 F360.000
G1 F2400.000 E0.73901
G92 E0
G1 X128.520 Y79.634 F6000.000
G1 E3.00000 F2400.000
G1 X110.464 Y72.010 E4.02882 F360.000
G1 X110.264 Y71.979 E4.03946
G1 X110.102 Y71.857 E4.05009
G1 X91.124 Y63.843 E5.13141
G1 F2400.000 E2.13141
G92 E0
G1 X91.211 Y119.240 F6000.000
G1 E3.00000 F2400.000
G1 X144.353 Y141.680 E6.02797 F360.000
G1 X90.562 Y118.637 F6000.000
G1 X110.359 Y71.752 E8.69939 F360.000
G1 X89.677 Y118.593 F6000.000
G1 X35.614 Y95.764 E11.77985 F360.000
G1 F2400.000 E8.77985
G92 E0
G1 X56.392 Y48.964 F6000.000
G1 E3.00000 F2400.000
G1 X56.619 Y49.273 E3.02011 F360.000
G1 X70.298 Y55.049 E3.79954
G1 F2400.000 E0.79954
G92 E0
G1 X51.370 Y52.298 F6000.000
G1 E3.00000 F2400.000
G1 X51.638 Y53.106 E3.12069 F360.000
G1 X36.416 Y89.153 E8.67152
G1 F2400.000 E5.67152
G92 E0
G1 X35.422 Y91.573 F6000.000
G1 E3.00000 F2400.000
G1 X34.747 Y92.921 E3.08778 F1080.000
G1 X35.407 Y93.389 E3.13488
G1 X35.938 Y92.329 E3.20388
G1 F2400.000 E0.20388
G92 E0
G1 X37.386 Y94.797 F6000.000
G1 E3.00000 F2400.000
G1 X39.463 Y90.653 E3.26981 F1080.000
G1 X40.342 Y90.685 E3.32100
G1 X38.124 Y95.109 E3.60904
G1 X38.863 Y95.421 E3.65570
G1 X41.199 Y90.760 E3.95914
G1 X41.418 Y92.108 E4.03861
G1 X39.602 Y95.733 E4.27462
G1 X40.454 Y95.818 E4.32447
G1 X41.334 Y94.062 E4.43877
G1 F2400.000 E1.43877
G92 E0
G1 X44.166 Y88.411 F6000.000
G1 E3.00000 F2400.000
G1 X43.819 Y89.103 E3.04501 F1080.000
G1 X44.137 Y90.254 E3.11455
G1 X48.905 Y80.742 E3.73385
G1 X48.801 Y82.735 F6000.000
G1 X44.438 Y91.440 E4.30060 F1080.000
G1 X44.757 Y92.589 E4.36999
G1 X48.838 Y84.446 E4.90012
G1 X48.973 Y85.963 E4.98873
G1 X45.168 Y93.554 E5.48297
G1 X45.539 Y94.598 E5.54749
G1 X49.178 Y87.338 E6.02018
G1 X49.438 Y88.606 E6.09550
G1 X45.990 Y95.484 E6.54331
G1 X46.401 Y96.449 E6.60437
G1 X49.754 Y89.759 E7.03994
G1 X50.105 Y90.845 E7.10637
G1 X46.892 Y97.255 E7.52371
G1 X47.342 Y98.143 E7.58163
G1 X50.483 Y91.877 E7.98958
G1 X50.894 Y92.842 E8.05064
G1 X47.866 Y98.883 E8.44398
G1 X48.464 Y99.475 E8.49296
G1 X51.334 Y93.750 E8.86571
G1 X51.789 Y94.627 E8.92324
G1 X49.203 Y99.787 E9.25918
G1 X49.941 Y100.099 E9.30585
G1 X52.274 Y95.444 E9.60892
G1 X52.776 Y96.229 E9.66315
G1 X50.680 Y100.411 E9.93538
G1 X51.418 Y100.722 E9.98204
G1 X53.294 Y96.981 E10.22562
G1 X53.834 Y97.688 E10.27743
G1 X52.157 Y101.034 E10.49527
G1 X52.896 Y101.346 E10.54193
G1 X54.382 Y98.380 E10.73502
G1 X54.957 Y99.018 E10.78501
G1 X53.634 Y101.658 E10.95688
G1 X54.373 Y101.970 E11.00355
G1 X55.537 Y99.647 E11.15476
G1 X56.140 Y100.229 E11.20354
G1 X55.111 Y102.282 E11.33718
G1 X55.850 Y102.594 E11.38385
G1 X56.749 Y100.799 E11.50066
G1 X57.378 Y101.330 E11.54855
G1 X56.588 Y102.906 E11.65115
G1 X57.327 Y103.217 E11.69781
G1 X58.015 Y101.845 E11.78718
G1 X58.669 Y102.325 E11.83442
G1 X58.065 Y103.529 E11.91282
G1 X58.804 Y103.841 E11.95948
G1 X59.332 Y102.788 E12.02801
G1 X60.010 Y103.220 E12.07482
G1 X59.542 Y104.153 E12.13554
G1 X60.281 Y104.465 E12.18221
G1 X60.688 Y103.652 E12.23512
G1 F2400.000 E9.23512
G92 E0
G1 X66.928 Y107.272 F6000.000
G1 E3.00000 F2400.000
G1 X67.375 Y106.380 E3.05807 F1080.000
G1 X68.175 Y106.570 E3.10591
G1 X67.667 Y107.583 E3.17192
G1 X68.405 Y107.895 E3.21859
G1 X68.984 Y106.740 E3.29377
G1 X69.809 Y106.879 E3.34248
G1 X69.144 Y108.207 E3.42893
G1 X69.882 Y108.519 E3.47559
G1 X70.647 Y106.992 E3.57499
G1 X71.499 Y107.078 E3.62483
G1 X70.621 Y108.831 E3.73894
G1 X71.359 Y109.143 E3.78560
G1 X72.370 Y107.127 E3.91683
G1 X73.250 Y107.157 E3.96808
G1 X72.098 Y109.455 E4.11768
G1 X72.836 Y109.766 E4.16434
G1 X74.155 Y107.135 E4.33565
G1 X75.069 Y107.097 E4.38890
G1 X73.575 Y110.078 E4.58299
G1 X74.314 Y110.390 E4.62966
G1 X76.011 Y107.003 E4.85018
G1 X76.970 Y106.876 E4.90645
G1 X75.052 Y110.702 E5.15552
G1 X75.791 Y111.014 E5.20218
G1 X77.946 Y106.713 E5.48219
G1 X78.957 Y106.482 E5.54254
G1 X76.529 Y111.326 E5.85789
G1 X77.268 Y111.638 E5.90455
G1 X79.988 Y106.210 E6.25794
G1 X81.046 Y105.884 E6.32239
G1 X78.006 Y111.949 E6.71731
G1 X78.761 Y112.229 E6.76416
G1 X82.151 Y105.465 E7.20449
G1 X83.293 Y104.972 E7.27693
G1 X79.723 Y112.096 E7.74076
G1 X80.781 Y111.770 E7.80521
G1 X84.483 Y104.383 E8.28614
G1 X85.736 Y103.670 E8.37001
G1 X81.798 Y111.526 E8.88153
G1 X82.898 Y111.118 E8.94982
G1 X87.073 Y102.787 E9.49223
G1 X88.532 Y101.661 F6000.000
G1 X83.956 Y110.792 E10.08670 F1080.000
G1 X85.110 Y110.274 E10.16033
G1 X85.719 Y109.059 E10.23945
G1 X86.230 Y108.039 F6000.000
G1 X90.179 Y100.160 E10.75243 F1080.000
G1 X92.303 Y97.709 F6000.000
G1 X87.462 Y107.367 E11.38124 F1080.000
G1 X88.167 Y107.746 F6000.000
G1 X102.349 Y79.450 E13.22350 F1080.000
G1 X102.491 Y80.951 E13.31126
G1 X88.699 Y108.469 E15.10282
G1 X90.112 Y107.436 E15.20464
G1 X102.595 Y82.529 E16.82627
G1 X102.676 Y84.153 E16.92091
G1 X91.524 Y106.404 E18.36959
G1 X93.078 Y105.088 F6000.000
G1 X99.089 Y93.096 E19.15036 F1080.000
G1 X96.078 Y90.177 F6000.000
G1 X102.154 Y78.054 E19.93967 F1080.000
G1 X97.046 Y82.888 F6000.000
G1 X101.259 Y74.482 E20.48695 F1080.000
G1 X100.855 Y73.503 E20.54863
G1 X96.951 Y81.293 E21.05585
G1 X96.772 Y79.865 E21.13962
G1 X100.489 Y72.448 E21.62250
G1 X100.048 Y71.543 E21.68111
G1 X96.527 Y78.567 E22.13841
G1 X96.235 Y77.365 E22.21040
G1 X99.645 Y70.562 E22.65333
G1 X99.165 Y69.734 E22.70905
G1 X95.905 Y76.239 E23.13258
G1 X95.544 Y75.173 E23.19808
G1 X98.525 Y69.226 E23.58524
G1 X97.786 Y68.914 E23.63190
G1 X95.140 Y74.193 E23.97558
G1 X94.715 Y73.256 E24.03545
G1 X97.047 Y68.602 E24.33845
G1 X96.309 Y68.290 E24.38511
G1 X94.272 Y72.355 E24.64976
G1 X93.793 Y71.524 E24.70557
G1 X95.570 Y67.979 E24.93641
G1 X94.832 Y67.667 E24.98307
G1 X93.303 Y70.717 E25.18165
G1 X92.791 Y69.953 E25.23518
G1 X94.093 Y67.355 E25.40431
G1 X93.355 Y67.043 E25.45098
G1 X92.260 Y69.226 E25.59313
G1 X91.718 Y68.523 E25.64483
G1 X92.616 Y66.731 E25.76148
G1 X91.878 Y66.419 E25.80814
G1 X91.151 Y67.868 E25.90247
G1 X90.580 Y67.223 E25.95262
G1 X91.139 Y66.107 E26.02528
G1 X90.400 Y65.796 E26.07194
G1 X89.982 Y66.631 E26.12630
