; generated by Slic3r 1.0.0RC3 on 2015-03-27 at 06:18:06

; layer_height = 0.2
; perimeters = 3
; top_solid_layers = 8
; bottom_solid_layers = 8
; fill_density = 0.2
; perimeter_speed = 40
; infill_speed = 70
; travel_speed = 100
; nozzle_diameter = 0.4
; filament_diameter = 1.75
; extrusion_multiplier = 1
; perimeters extrusion width = 0.40mm
; infill extrusion width = 0.67mm
; solid infill extrusion width = 0.67mm
; top infill extrusion width = 0.67mm
; support material extrusion width = 0.40mm
; first layer extrusion width = 0.70mm

G21 ; set units to millimeters
M107
M190 S65 ; wait for bed temperature to be reached
M104 S220 ; set temperature
G28 ; home all axes
G1 Z5 F5000 ; lift nozzle
M109 S220 ; wait for temperature to be reached
G90 ; use absolute coordinates
G92 E0
M82 ; use absolute distances for extrusion
G1 F2400.000 E-3.00000
G92 E0
G1 Z-3.450 F6000.000
G1 X42.690 Y38.590 F6000.000
G1 E3.00000 F2400.000
G1 X43.590 Y37.690 E3.11772 F720.000
G1 X44.650 Y37.020 E3.23370
G1 X45.850 Y36.610 E3.35099
G1 X47.100 Y36.460 E3.46744
G1 X132.100 Y36.460 E11.32917
G1 X133.280 Y36.590 E11.43897
G1 X134.410 Y36.960 E11.54894
G1 X135.440 Y37.560 E11.65919
G1 X136.320 Y38.360 E11.76919
G1 X137.010 Y39.330 E11.87929
G1 X137.480 Y40.420 E11.98908
G1 X137.710 Y41.580 E12.09846
G1 X142.510 Y93.580 E16.92843
G1 X142.540 Y94.100 E16.97661
G1 X142.540 Y143.900 E21.58266
G1 X142.390 Y145.150 E21.69910
G1 X141.980 Y146.350 E21.81639
G1 X141.310 Y147.410 E21.93237
G1 X140.410 Y148.310 E22.05009
G1 X139.350 Y148.980 E22.16608
G1 X138.150 Y149.390 E22.28336
G1 X136.900 Y149.540 E22.39981
G1 X47.100 Y149.540 E30.70550
G1 X45.850 Y149.390 E30.82194
G1 X44.650 Y148.980 E30.93923
G1 X43.590 Y148.310 E31.05521
G1 X42.690 Y147.410 E31.17293
G1 X42.020 Y146.350 E31.28892
G1 X41.610 Y145.150 E31.40620
G1 X41.460 Y143.900 E31.52265
G1 X41.460 Y42.100 E40.93823
G1 X41.610 Y40.850 E41.05467
G1 X42.020 Y39.650 E41.17196
G1 X42.639 Y38.671 E41.27912
G1 F2400.000 E38.27912
G92 E0
G1 X90.517 Y96.115 F6000.000
G1 E3.00000 F2400.000
G1 X90.896 Y95.864 E3.04207 F540.000
G1 X91.316 Y95.685 E3.08426
G1 X91.759 Y95.584 E3.12631
G1 X92.213 Y95.564 E3.16836
G1 X92.665 Y95.625 E3.21055
G1 X92.884 Y95.685 E3.23153
G1 X93.304 Y95.864 E3.27372
G1 X93.683 Y96.115 E3.31579
G1 X94.012 Y96.429 E3.35783
G1 X94.280 Y96.798 E3.40000
G1 X94.387 Y96.998 E3.42101
G1 X94.548 Y97.425 E3.46315
G1 X94.628 Y97.870 E3.50499
G1 X94.628 Y98.330 E3.54760
G1 X94.548 Y98.775 E3.58944
G1 X94.387 Y99.202 E3.63158
G1 X94.280 Y99.402 E3.65259
G1 X94.012 Y99.771 E3.69475
G1 X93.683 Y100.085 E3.73679
G1 X93.304 Y100.336 E3.77887
G1 X92.884 Y100.515 E3.82105
G1 X92.441 Y100.616 E3.86310
G1 X91.987 Y100.636 E3.90516
G1 X91.535 Y100.575 E3.94735
G1 X91.316 Y100.515 E3.96833
G1 X90.896 Y100.336 E4.01051
G1 X90.517 Y100.085 E4.05259
G1 X90.188 Y99.771 E4.09463
G1 X89.920 Y99.402 E4.13679
G1 X89.813 Y99.202 E4.15780
G1 X89.652 Y98.775 E4.19994
G1 X89.572 Y98.330 E4.24178
G1 X89.572 Y97.870 E4.28439
G1 X89.652 Y97.425 E4.32623
G1 X89.813 Y96.998 E4.36837
G1 X90.046 Y96.608 E4.41041
G1 X90.188 Y96.429 E4.43154
G1 X90.445 Y96.178 E4.46477
G1 X90.463 Y95.664 F6000.000
G1 F2400.000 E1.46477
G92 E0
G1 X112.288 Y116.532 F6000.000
G1 E3.00000 F2400.000
G1 X112.466 Y116.345 E3.02385 F540.000
G1 X112.724 Y116.120 E3.05551
G1 X113.000 Y115.919 E3.08714
G1 X113.294 Y115.744 E3.11875
G1 X113.602 Y115.595 E3.15042
G1 X113.922 Y115.475 E3.18202
G1 X114.252 Y115.384 E3.21366
G1 X114.769 Y115.291 E3.26230
G1 X114.769 Y113.759 E3.40391
G1 X117.734 Y116.345 E3.76776
G1 X117.970 Y116.592 E3.79939
G1 X118.183 Y116.860 E3.83099
G1 X118.372 Y117.145 E3.86266
G1 X118.534 Y117.446 E3.89430
G1 X118.668 Y117.761 E3.92590
G1 X118.774 Y118.086 E3.95750
G1 X118.850 Y118.418 E3.98902
G1 X118.895 Y118.754 E4.02043
G1 X118.912 Y119.100 E4.05245
G1 X118.895 Y119.446 E4.08445
G1 X118.850 Y119.782 E4.11585
G1 X118.774 Y120.114 E4.14737
G1 X118.668 Y120.439 E4.17898
G1 X118.534 Y120.754 E4.21057
G1 X118.372 Y121.055 E4.24222
G1 X118.183 Y121.340 E4.27388
G1 X117.970 Y121.608 E4.30548
G1 X117.734 Y121.855 E4.33710
G1 X117.476 Y122.080 E4.36876
G1 X117.200 Y122.281 E4.40039
G1 X116.906 Y122.456 E4.43200
G1 X116.598 Y122.605 E4.46365
G1 X116.278 Y122.725 E4.49527
G1 X115.948 Y122.816 E4.52690
G1 X115.612 Y122.877 E4.55854
G1 X115.271 Y122.908 E4.59017
G1 X114.929 Y122.908 E4.62180
G1 X114.588 Y122.877 E4.65344
G1 X114.252 Y122.816 E4.68507
G1 X113.922 Y122.725 E4.71669
G1 X113.602 Y122.605 E4.74832
G1 X113.294 Y122.456 E4.77998
G1 X113.000 Y122.281 E4.81160
G1 X112.724 Y122.080 E4.84321
G1 X112.466 Y121.855 E4.87486
G1 X112.230 Y121.608 E4.90649
G1 X112.017 Y121.340 E4.93810
G1 X111.828 Y121.055 E4.96976
G1 X111.666 Y120.754 E5.00139
G1 X111.532 Y120.439 E5.03300
G1 X111.426 Y120.114 E5.06459
G1 X111.350 Y119.782 E5.09612
G1 X111.305 Y119.446 E5.12752
G1 X111.288 Y119.100 E5.15953
G1 X111.305 Y118.754 E5.19154
G1 X111.350 Y118.418 E5.22294
G1 X111.426 Y118.086 E5.25446
G1 X111.532 Y117.761 E5.28606
G1 X111.666 Y117.447 E5.31767
G1 X111.828 Y117.145 E5.34931
G1 X112.017 Y116.860 E5.38096
G1 X112.223 Y116.601 E5.41153
G1 X112.709 Y117.011 F6000.000
G1 X112.905 Y116.805 E5.43783 F540.000
G1 X113.120 Y116.618 E5.46421
G1 X113.351 Y116.450 E5.49059
G1 X113.595 Y116.304 E5.51689
G1 X113.852 Y116.180 E5.54327
G1 X114.119 Y116.080 E5.56964
G1 X114.393 Y116.004 E5.59594
G1 X114.674 Y115.954 E5.62231
G1 X114.958 Y115.928 E5.64870
G1 X115.405 Y115.928 E5.69005
G1 X115.405 Y115.157 E5.76134
G1 X117.294 Y116.805 E5.99323
G1 X117.491 Y117.011 E6.01954
G1 X117.669 Y117.234 E6.04591
G1 X117.826 Y117.472 E6.07229
G1 X117.961 Y117.722 E6.09861
G1 X118.073 Y117.984 E6.12497
G1 X118.161 Y118.255 E6.15130
G1 X118.224 Y118.531 E6.17751
G1 X118.262 Y118.812 E6.20370
G1 X118.275 Y119.100 E6.23038
G1 X118.262 Y119.388 E6.25704
G1 X118.224 Y119.669 E6.28323
G1 X118.161 Y119.945 E6.30944
G1 X118.073 Y120.216 E6.33577
G1 X117.961 Y120.478 E6.36214
G1 X117.826 Y120.728 E6.38846
G1 X117.669 Y120.966 E6.41483
G1 X117.491 Y121.189 E6.44120
G1 X117.295 Y121.395 E6.46750
G1 X117.080 Y121.582 E6.49388
G1 X116.849 Y121.750 E6.52026
G1 X116.605 Y121.896 E6.54656
G1 X116.348 Y122.020 E6.57293
G1 X116.081 Y122.120 E6.59930
G1 X115.807 Y122.196 E6.62561
G1 X115.526 Y122.246 E6.65199
G1 X115.242 Y122.272 E6.67836
G1 X114.958 Y122.272 E6.70467
G1 X114.674 Y122.246 E6.73104
G1 X114.393 Y122.196 E6.75742
G1 X114.119 Y122.120 E6.78372
G1 X113.852 Y122.019 E6.81009
G1 X113.595 Y121.896 E6.83647
G1 X113.351 Y121.750 E6.86278
G1 X113.120 Y121.582 E6.88915
G1 X112.906 Y121.395 E6.91552
G1 X112.709 Y121.189 E6.94183
G1 X112.531 Y120.966 E6.96820
G1 X112.374 Y120.728 E6.99457
G1 X112.239 Y120.478 E7.02089
G1 X112.127 Y120.216 E7.04726
G1 X112.039 Y119.945 E7.07358
G1 X111.976 Y119.669 E7.09980
G1 X111.938 Y119.388 E7.12599
G1 X111.925 Y119.100 E7.15265
G1 X111.938 Y118.812 E7.17932
G1 X111.976 Y118.531 E7.20551
G1 X112.039 Y118.255 E7.23172
G1 X112.127 Y117.985 E7.25805
G1 X112.239 Y117.722 E7.28442
G1 X112.374 Y117.472 E7.31074
G1 X112.650 Y117.085 E7.35462
G1 X113.188 Y117.429 F6000.000
G1 X113.517 Y117.115 E7.39666 F540.000
G1 X113.896 Y116.864 E7.43873
G1 X114.316 Y116.685 E7.48092
G1 X114.535 Y116.625 E7.50190
G1 X114.987 Y116.564 E7.54409
G1 X115.441 Y116.584 E7.58614
G1 X116.041 Y116.693 E7.64252
G1 X116.041 Y116.555 E7.65525
G1 X116.855 Y117.265 E7.75518
G1 X117.154 Y117.608 E7.79726
G1 X117.387 Y117.998 E7.83930
G1 X117.548 Y118.425 E7.88145
G1 X117.598 Y118.645 E7.90235
G1 X117.639 Y119.100 E7.94461
G1 X117.598 Y119.555 E7.98688
G1 X117.477 Y119.992 E8.02879
G1 X117.280 Y120.402 E8.07089
G1 X117.012 Y120.771 E8.11305
G1 X116.683 Y121.085 E8.15509
G1 X116.304 Y121.336 E8.19717
G1 X115.884 Y121.515 E8.23935
G1 X115.665 Y121.575 E8.26033
G1 X115.213 Y121.636 E8.30252
G1 X114.759 Y121.616 E8.34458
G1 X114.316 Y121.515 E8.38663
G1 X113.896 Y121.336 E8.42881
G1 X113.517 Y121.085 E8.47089
G1 X113.188 Y120.771 E8.51293
G1 X112.920 Y120.402 E8.55509
G1 X112.813 Y120.202 E8.57610
G1 X112.652 Y119.775 E8.61824
G1 X112.572 Y119.330 E8.66008
G1 X112.572 Y118.870 E8.70269
G1 X112.652 Y118.425 E8.74453
G1 X112.813 Y117.998 E8.78667
G1 X112.920 Y117.798 E8.80768
G1 X113.129 Y117.504 E8.84104
G1 X113.054 Y116.995 F6000.000
G1 X72.699 Y118.837 F6000.000
G1 X72.712 Y119.100 E8.86540 F540.000
G1 X72.695 Y119.446 E8.89741
G1 X72.650 Y119.782 E8.92882
G1 X72.574 Y120.115 E8.96035
G1 X72.468 Y120.439 E8.99195
G1 X72.334 Y120.754 E9.02354
G1 X72.172 Y121.055 E9.05518
G1 X71.983 Y121.340 E9.08684
G1 X71.770 Y121.608 E9.11845
G1 X71.534 Y121.855 E9.15006
G1 X71.276 Y122.080 E9.18172
G1 X71.000 Y122.281 E9.21335
G1 X70.706 Y122.456 E9.24497
G1 X70.398 Y122.605 E9.27662
G1 X70.078 Y122.725 E9.30824
G1 X69.748 Y122.816 E9.33987
G1 X69.412 Y122.877 E9.37151
G1 X69.071 Y122.908 E9.40314
G1 X68.729 Y122.908 E9.43477
G1 X68.388 Y122.877 E9.46640
G1 X68.052 Y122.816 E9.49805
G1 X67.722 Y122.725 E9.52965
G1 X67.402 Y122.605 E9.56128
G1 X67.094 Y122.456 E9.59294
G1 X66.800 Y122.281 E9.62456
G1 X66.524 Y122.080 E9.65617
G1 X66.266 Y121.855 E9.68782
G1 X66.030 Y121.608 E9.71946
G1 X65.817 Y121.340 E9.75106
G1 X65.628 Y121.055 E9.78272
G1 X65.466 Y120.754 E9.81435
G1 X65.332 Y120.439 E9.84596
G1 X65.226 Y120.115 E9.87755
G1 X65.150 Y119.782 E9.90908
G1 X65.105 Y119.446 E9.94048
G1 X65.088 Y119.100 E9.97250
G1 X65.105 Y118.754 E10.00451
G1 X65.150 Y118.418 E10.03591
G1 X65.226 Y118.086 E10.06742
G1 X65.332 Y117.761 E10.09904
G1 X65.466 Y117.446 E10.13064
G1 X65.628 Y117.145 E10.16228
G1 X65.817 Y116.860 E10.19393
G1 X66.030 Y116.592 E10.22553
G1 X66.266 Y116.345 E10.25716
G1 X66.524 Y116.120 E10.28882
G1 X66.800 Y115.919 E10.32044
G1 X67.094 Y115.744 E10.35206
G1 X67.402 Y115.595 E10.38372
G1 X67.722 Y115.475 E10.41533
G1 X68.052 Y115.384 E10.44697
G1 X68.388 Y115.323 E10.47860
G1 X68.729 Y115.292 E10.51024
G1 X69.071 Y115.292 E10.54185
G1 X69.411 Y115.323 E10.57348
G1 X69.748 Y115.384 E10.60513
G1 X70.078 Y115.475 E10.63676
G1 X70.398 Y115.595 E10.66839
G1 X70.706 Y115.744 E10.70003
G1 X71.000 Y115.919 E10.73167
G1 X71.276 Y116.120 E10.76327
G1 X71.534 Y116.345 E10.79493
G1 X71.770 Y116.592 E10.82656
G1 X71.983 Y116.860 E10.85817
G1 X72.172 Y117.145 E10.88983
G1 X72.334 Y117.446 E10.92146
G1 X72.468 Y117.761 E10.95305
G1 X72.574 Y118.086 E10.98467
G1 X72.650 Y118.418 E11.01618
G1 X72.694 Y118.742 E11.04642
G1 X72.062 Y118.812 F6000.000
G1 X72.075 Y119.100 E11.07309 F540.000
G1 X72.062 Y119.388 E11.09976
G1 X72.024 Y119.669 E11.12595
G1 X71.961 Y119.945 E11.15217
G1 X71.873 Y120.216 E11.17849
G1 X71.761 Y120.478 E11.20486
G1 X71.626 Y120.728 E11.23118
G1 X71.469 Y120.966 E11.25754
G1 X71.291 Y121.189 E11.28392
G1 X71.095 Y121.395 E11.31022
G1 X70.880 Y121.582 E11.33660
G1 X70.649 Y121.750 E11.36297
G1 X70.405 Y121.896 E11.38928
G1 X70.148 Y122.020 E11.41565
G1 X69.881 Y122.120 E11.44203
G1 X69.607 Y122.196 E11.46833
G1 X69.326 Y122.246 E11.49471
G1 X69.042 Y122.272 E11.52108
G1 X68.758 Y122.272 E11.54739
G1 X68.474 Y122.246 E11.57376
G1 X68.193 Y122.196 E11.60014
G1 X67.919 Y122.120 E11.62643
G1 X67.652 Y122.019 E11.65281
G1 X67.395 Y121.896 E11.67919
G1 X67.151 Y121.750 E11.70549
G1 X66.920 Y121.582 E11.73186
G1 X66.706 Y121.395 E11.75823
G1 X66.509 Y121.189 E11.78455
G1 X66.331 Y120.966 E11.81092
G1 X66.174 Y120.728 E11.83728
G1 X66.039 Y120.478 E11.86360
G1 X65.927 Y120.216 E11.88997
G1 X65.839 Y119.945 E11.91630
G1 X65.776 Y119.669 E11.94251
G1 X65.738 Y119.388 E11.96870
G1 X65.725 Y119.100 E11.99537
G1 X65.738 Y118.812 E12.02204
G1 X65.776 Y118.531 E12.04823
G1 X65.839 Y118.255 E12.07444
G1 X65.927 Y117.984 E12.10077
G1 X66.039 Y117.722 E12.12714
G1 X66.174 Y117.472 E12.15346
G1 X66.331 Y117.234 E12.17982
G1 X66.509 Y117.011 E12.20619
G1 X66.705 Y116.805 E12.23251
G1 X66.920 Y116.618 E12.25888
G1 X67.151 Y116.450 E12.28525
G1 X67.395 Y116.304 E12.31156
G1 X67.652 Y116.180 E12.33794
G1 X67.919 Y116.080 E12.36430
G1 X68.193 Y116.004 E12.39061
G1 X68.474 Y115.954 E12.41698
G1 X68.758 Y115.928 E12.44337
G1 X69.042 Y115.928 E12.46966
G1 X69.326 Y115.954 E12.49604
G1 X69.607 Y116.004 E12.52241
G1 X69.881 Y116.080 E12.54872
G1 X70.148 Y116.181 E12.57510
G1 X70.405 Y116.304 E12.60147
G1 X70.649 Y116.450 E12.62778
G1 X70.880 Y116.618 E12.65415
G1 X71.094 Y116.805 E12.68052
G1 X71.291 Y117.011 E12.70684
G1 X71.469 Y117.234 E12.73321
G1 X71.626 Y117.472 E12.75957
G1 X71.761 Y117.722 E12.78590
G1 X71.873 Y117.984 E12.81226
G1 X71.961 Y118.255 E12.83859
G1 X72.049 Y118.718 E12.88213
G1 X71.428 Y118.870 F6000.000
G1 X71.428 Y119.330 E12.92474 F540.000
G1 X71.348 Y119.775 E12.96658
G1 X71.187 Y120.202 E13.00872
G1 X70.954 Y120.592 E13.05076
G1 X70.655 Y120.935 E13.09284
G1 X70.298 Y121.219 E13.13502
G1 X70.104 Y121.336 E13.15601
G1 X69.684 Y121.515 E13.19819
G1 X69.241 Y121.616 E13.24024
G1 X68.787 Y121.636 E13.28230
G1 X68.335 Y121.575 E13.32449
G1 X68.116 Y121.515 E13.34547
G1 X67.696 Y121.336 E13.38766
G1 X67.317 Y121.085 E13.42973
G1 X66.988 Y120.771 E13.47177
G1 X66.720 Y120.402 E13.51394
G1 X66.613 Y120.202 E13.53494
G1 X66.452 Y119.775 E13.57708
G1 X66.372 Y119.330 E13.61892
G1 X66.372 Y118.870 E13.66153
G1 X66.452 Y118.425 E13.70337
G1 X66.613 Y117.998 E13.74551
G1 X66.846 Y117.608 E13.78755
G1 X67.145 Y117.265 E13.82964
G1 X67.502 Y116.981 E13.87181
G1 X67.696 Y116.864 E13.89280
G1 X68.116 Y116.685 E13.93498
G1 X68.559 Y116.584 E13.97703
G1 X69.013 Y116.564 E14.01909
G1 X69.465 Y116.625 E14.06128
G1 X69.684 Y116.685 E14.08226
G1 X70.104 Y116.864 E14.12445
G1 X70.483 Y117.115 E14.16652
G1 X70.812 Y117.429 E14.20856
G1 X71.080 Y117.798 E14.25073
G1 X71.277 Y118.208 E14.29283
G1 X71.348 Y118.425 E14.31388
G1 X71.415 Y118.775 E14.34691
G1 X71.840 Y119.076 F6000.000
G1 X90.345 Y138.065 F6000.000
G1 X90.702 Y137.781 E14.38909 F540.000
G1 X91.102 Y137.566 E14.43113
G1 X91.535 Y137.425 E14.47320
G1 X91.987 Y137.364 E14.51539
G1 X92.441 Y137.384 E14.55744
G1 X92.884 Y137.485 E14.59949
G1 X93.304 Y137.664 E14.64168
G1 X93.498 Y137.781 E14.66266
G1 X93.855 Y138.065 E14.70484
G1 X94.154 Y138.408 E14.74693
G1 X94.387 Y138.798 E14.78897
G1 X94.548 Y139.225 E14.83111
G1 X94.598 Y139.445 E14.85201
G1 X94.639 Y139.900 E14.89428
G1 X94.598 Y140.355 E14.93654
G1 X94.548 Y140.575 E14.95744
G1 X94.387 Y141.002 E14.99959
G1 X94.154 Y141.392 E15.04162
G1 X93.855 Y141.735 E15.08371
G1 X93.498 Y142.019 E15.12589
G1 X93.098 Y142.234 E15.16793
G1 X92.665 Y142.375 E15.21000
G1 X92.213 Y142.436 E15.25218
G1 X91.759 Y142.416 E15.29424
G1 X91.316 Y142.315 E15.33629
G1 X90.896 Y142.136 E15.37848
G1 X90.702 Y142.019 E15.39946
G1 X90.345 Y141.735 E15.44164
G1 X90.046 Y141.392 E15.48372
G1 X89.813 Y141.002 E15.52576
G1 X89.652 Y140.575 E15.56790
G1 X89.602 Y140.355 E15.58881
G1 X89.561 Y139.900 E15.63107
G1 X89.602 Y139.445 E15.67334
G1 X89.723 Y139.008 E15.71525
G1 X89.920 Y138.598 E15.75734
G1 X90.046 Y138.408 E15.77842
G1 X90.279 Y138.134 E15.81170
G1 X90.250 Y137.619 F6000.000
G1 X89.724 Y136.920 F6000.000
G1 X89.466 Y137.145 E15.84336 F720.000
G1 X89.230 Y137.392 E15.87499
G1 X89.017 Y137.660 E15.90659
G1 X88.828 Y137.945 E15.93825
G1 X88.666 Y138.246 E15.96988
G1 X88.532 Y138.561 E16.00148
G1 X88.426 Y138.886 E16.03310
G1 X88.350 Y139.218 E16.06461
G1 X88.305 Y139.554 E16.09601
G1 X88.288 Y139.900 E16.12802
G1 X88.305 Y140.246 E16.16004
G1 X88.350 Y140.582 E16.19143
G1 X88.426 Y140.914 E16.22296
G1 X88.532 Y141.239 E16.25456
G1 X88.666 Y141.554 E16.28617
G1 X89.056 Y142.279 E16.36231
G1 X48.721 Y142.279 E20.09288
G1 X48.721 Y95.721 E24.39903
G1 X89.056 Y95.721 E28.12959
G1 X88.666 Y96.447 E28.20574
