; generated by Slic3r 1.0.0RC3 on 2015-03-27 at 07:44:27

; layer_height = 0.2
; perimeters = 3
; top_solid_layers = 8
; bottom_solid_layers = 8
; fill_density = 0.2
; perimeter_speed = 40
; infill_speed = 70
; travel_speed = 100
; nozzle_diameter = 0.4
; filament_diameter = 1.75
; extrusion_multiplier = 1
; perimeters extrusion width = 0.40mm
; infill extrusion width = 0.67mm
; solid infill extrusion width = 0.67mm
; top infill extrusion width = 0.67mm
; support material extrusion width = 0.40mm
; first layer extrusion width = 0.70mm

G21 ; set units to millimeters
M107
M190 S65 ; wait for bed temperature to be reached
M104 S220 ; set temperature
G28 ; home all axes
G1 Z5 F5000 ; lift nozzle
M109 S220 ; wait for temperature to be reached
G90 ; use absolute coordinates
G92 E0
M82 ; use absolute distances for extrusion
G1 F2400.000 E-3.00000
G92 E0
G1 Z-3.450 F6000.000
G1 X33.384 Y29.375 F6000.000
G1 E3.00000 F2400.000
G1 X34.514 Y28.255 E3.14715 F720.000
G1 X35.684 Y27.225 E3.29133
G1 X35.984 Y26.985 E3.32686
G1 X37.234 Y26.045 E3.47152
G1 X38.264 Y25.355 E3.58618
G1 X38.574 Y25.155 E3.62030
G1 X39.934 Y24.385 E3.76485
G1 X41.354 Y23.675 E3.91169
G1 X42.494 Y23.185 E4.02646
G1 X44.344 Y22.535 E4.20782
G1 X45.534 Y22.195 E4.32229
G1 X47.064 Y21.845 E4.46746
G1 X48.644 Y21.585 E4.61556
G1 X50.214 Y21.425 E4.76152
G1 X51.994 Y21.365 E4.92625
G1 X91.994 Y21.365 E8.62589
G1 X93.794 Y21.425 E8.79246
G1 X95.024 Y21.545 E8.90677
G1 X96.564 Y21.775 E9.05078
G1 X98.454 Y22.195 E9.22986
G1 X99.954 Y22.635 E9.37444
G1 X101.494 Y23.185 E9.52569
G1 X102.944 Y23.825 E9.67228
G1 X104.344 Y24.535 E9.81747
G1 X105.414 Y25.155 E9.93185
G1 X106.754 Y26.045 E10.08063
G1 X108.284 Y27.205 E10.25821
G1 X109.504 Y28.275 E10.40830
G1 X110.604 Y29.375 E10.55219
G1 X111.434 Y30.295 E10.66679
G1 X112.654 Y31.825 E10.84778
G1 X113.364 Y32.845 E10.96273
G1 X114.374 Y34.485 E11.14087
G1 X114.954 Y35.585 E11.25589
G1 X115.614 Y37.025 E11.40240
G1 X116.184 Y38.505 E11.54908
G1 X116.754 Y40.375 E11.72990
G1 X117.114 Y41.895 E11.87437
G1 X117.334 Y43.115 E11.98903
G1 X117.554 Y45.025 E12.16686
G1 X117.634 Y46.585 E12.31133
G1 X117.634 Y112.565 E18.41389
G1 X117.594 Y114.165 E18.56192
G1 X117.514 Y115.405 E18.67685
G1 X117.474 Y115.825 E18.71587
G1 X117.304 Y117.045 E18.82980
G1 X117.014 Y118.575 E18.97383
G1 X116.494 Y120.535 E19.16138
G1 X116.024 Y121.935 E19.29797
G1 X115.414 Y123.445 E19.44860
G1 X114.884 Y124.555 E19.56237
G1 X114.134 Y125.935 E19.70764
G1 X113.234 Y127.355 E19.86313
G1 X112.124 Y128.875 E20.03721
G1 X111.344 Y129.825 E20.15090
G1 X110.234 Y131.015 E20.30141
G1 X89.984 Y151.265 E22.95015
G1 X89.074 Y152.115 E23.06533
G1 X87.874 Y153.125 E23.21040
G1 X87.564 Y153.365 E23.24666
G1 X86.514 Y154.125 E23.36654
G1 X84.874 Y155.165 E23.54616
G1 X83.874 Y155.715 E23.65171
G1 X82.364 Y156.445 E23.80684
G1 X80.474 Y157.195 E23.99491
G1 X79.384 Y157.545 E24.10079
G1 X77.424 Y158.045 E24.28788
G1 X76.184 Y158.285 E24.40470
G1 X74.664 Y158.485 E24.54650
G1 X72.624 Y158.625 E24.73562
G1 X71.044 Y158.615 E24.88176
G1 X69.794 Y158.545 E24.99755
G1 X69.394 Y158.505 E25.03473
G1 X68.154 Y158.345 E25.15037
G1 X66.114 Y157.945 E25.34265
G1 X64.714 Y157.575 E25.47658
G1 X63.134 Y157.055 E25.63043
G1 X61.544 Y156.405 E25.78930
G1 X60.234 Y155.775 E25.92375
G1 X58.824 Y154.995 E26.07279
G1 X57.714 Y154.295 E26.19416
G1 X56.104 Y153.115 E26.37878
G1 X55.184 Y152.345 E26.48975
G1 X54.024 Y151.275 E26.63571
G1 X33.754 Y131.015 E29.28641
G1 X32.904 Y130.115 E29.40091
G1 X32.644 Y129.825 E29.43693
G1 X31.864 Y128.875 E29.55062
G1 X30.954 Y127.645 E29.69214
G1 X29.864 Y125.935 E29.87969
G1 X29.264 Y124.845 E29.99477
G1 X28.634 Y123.545 E30.12839
G1 X27.984 Y121.985 E30.28470
G1 X27.374 Y120.135 E30.46487
G1 X26.974 Y118.575 E30.61382
G1 X26.674 Y116.995 E30.76257
G1 X26.514 Y115.775 E30.87637
G1 X26.374 Y113.855 E31.05443
G1 X26.364 Y46.585 E37.27629
G1 X26.434 Y45.075 E37.41610
G1 X26.654 Y43.115 E37.59853
G1 X26.944 Y41.575 E37.74346
G1 X27.234 Y40.375 E37.85765
G1 X27.684 Y38.875 E38.00249
G1 X27.804 Y38.505 E38.03847
G1 X28.374 Y37.025 E38.18516
G1 X29.034 Y35.585 E38.33167
G1 X29.614 Y34.485 E38.44668
G1 X30.624 Y32.845 E38.62483
G1 X31.334 Y31.825 E38.73977
G1 X31.554 Y31.545 E38.77271
G1 X32.554 Y30.295 E38.92077
G1 X33.321 Y29.446 E39.02655
G1 F2400.000 E36.02655
G92 E0
G1 X47.489 Y95.189 F6000.000
G1 E3.00000 F2400.000
G1 X48.602 Y94.944 E3.10548 F720.000
G1 X49.723 Y94.768 E3.21038
G1 X50.856 Y94.663 E3.31560
G1 X52.025 Y94.626 E3.42386
G1 X91.974 Y94.626 E7.11878
G1 X93.145 Y94.663 E7.22706
G1 X94.277 Y94.768 E7.33227
G1 X95.398 Y94.944 E7.43716
G1 X96.511 Y95.189 E7.54264
G1 X97.608 Y95.503 E7.64818
G1 X98.679 Y95.884 E7.75327
G1 X99.729 Y96.331 E7.85886
G1 X100.748 Y96.842 E7.96424
G1 X101.731 Y97.414 E8.06943
G1 X102.680 Y98.049 E8.17506
G1 X103.585 Y98.738 E8.28024
G1 X104.446 Y99.483 E8.38563
G1 X105.262 Y100.282 E8.49122
G1 X106.023 Y101.126 E8.59631
G1 X106.732 Y102.019 E8.70176
G1 X107.384 Y102.951 E8.80702
G1 X108.003 Y103.971 E8.91734
G1 X108.509 Y104.930 E9.01759
G1 X108.977 Y105.967 E9.12286
G1 X109.397 Y107.085 E9.23333
G1 X109.717 Y108.121 E9.33359
G1 X109.985 Y109.225 E9.43869
G1 X110.192 Y110.404 E9.54937
G1 X110.315 Y111.480 E9.64955
G1 X110.374 Y112.614 E9.75459
G1 X110.359 Y113.812 E9.86539
G1 X110.281 Y114.891 E9.96544
G1 X110.129 Y116.017 E10.07058
G1 X109.907 Y117.137 E10.17610
G1 X109.618 Y118.236 E10.28129
G1 X109.239 Y119.370 E10.39187
G1 X108.835 Y120.376 E10.49211
G1 X108.348 Y121.402 E10.59715
G1 X107.795 Y122.399 E10.70259
G1 X107.176 Y123.370 E10.80911
G1 X106.506 Y124.289 E10.91434
G1 X105.781 Y125.164 E11.01940
G1 X104.981 Y126.015 E11.12744
G1 X85.014 Y145.982 E13.73915
G1 X84.144 Y146.799 E13.84953
G1 X83.260 Y147.529 E13.95556
G1 X82.329 Y148.206 E14.06207
G1 X81.345 Y148.829 E14.16973
G1 X80.333 Y149.385 E14.27657
G1 X79.292 Y149.874 E14.38289
G1 X78.218 Y150.299 E14.48974
G1 X77.121 Y150.655 E14.59647
G1 X76.006 Y150.941 E14.70285
G1 X74.871 Y151.157 E14.80977
G1 X73.783 Y151.295 E14.91117
G1 X72.578 Y151.373 E15.02285
G1 X71.422 Y151.373 E15.12982
G1 X70.217 Y151.295 E15.24150
G1 X69.129 Y151.157 E15.34290
G1 X67.994 Y150.941 E15.44982
G1 X66.879 Y150.655 E15.55620
G1 X65.729 Y150.278 E15.66817
G1 X64.708 Y149.874 E15.76977
G1 X63.667 Y149.385 E15.87609
G1 X62.655 Y148.829 E15.98293
G1 X61.671 Y148.206 E16.09059
G1 X60.740 Y147.529 E16.19710
G1 X59.853 Y146.796 E16.30354
G1 X58.989 Y145.986 E16.41305
G1 X39.022 Y126.019 E19.02479
G1 X38.217 Y125.160 E19.13365
G1 X37.494 Y124.289 E19.23831
G1 X36.824 Y123.370 E19.34355
G1 X36.205 Y122.399 E19.45007
G1 X35.652 Y121.402 E19.55551
G1 X35.189 Y120.428 E19.65529
G1 X34.740 Y119.317 E19.76610
G1 X34.382 Y118.236 E19.87137
G1 X34.107 Y117.192 E19.97126
G1 X33.871 Y116.017 E20.08208
G1 X33.719 Y114.891 E20.18722
G1 X33.637 Y113.755 E20.29256
G1 X33.626 Y112.614 E20.39807
G1 X33.682 Y111.537 E20.49786
G1 X33.815 Y110.347 E20.60860
G1 X34.015 Y109.225 E20.71397
G1 X34.283 Y108.121 E20.81907
G1 X34.620 Y107.031 E20.92462
G1 X35.002 Y106.020 E21.02457
G1 X35.491 Y104.930 E21.13507
G1 X36.024 Y103.921 E21.24056
G1 X36.616 Y102.951 E21.34565
G1 X37.267 Y102.019 E21.45082
G1 X37.977 Y101.126 E21.55636
G1 X38.738 Y100.282 E21.66145
G1 X39.553 Y99.483 E21.76703
G1 X40.415 Y98.738 E21.87242
G1 X41.320 Y98.049 E21.97761
G1 X42.269 Y97.414 E22.08324
G1 X43.252 Y96.842 E22.18843
G1 X44.271 Y96.331 E22.29380
G1 X45.321 Y95.884 E22.39940
G1 X46.392 Y95.503 E22.50449
G1 X47.397 Y95.216 E22.60120
G1 X47.310 Y94.579 F6000.000
G1 X48.485 Y94.319 E22.71251 F720.000
G1 X49.644 Y94.137 E22.82105
G1 X50.816 Y94.028 E22.92990
G1 X52.015 Y93.990 E23.04088
G1 X91.984 Y93.990 E26.73765
G1 X93.207 Y94.030 E26.85082
G1 X94.356 Y94.137 E26.95748
G1 X95.515 Y94.319 E27.06602
G1 X96.667 Y94.573 E27.17513
G1 X97.802 Y94.898 E27.28431
G1 X98.910 Y95.291 E27.39304
G1 X99.996 Y95.754 E27.50227
G1 X101.050 Y96.283 E27.61128
G1 X102.067 Y96.875 E27.72012
G1 X103.049 Y97.531 E27.82937
G1 X103.985 Y98.244 E27.93820
G1 X104.893 Y99.031 E28.04942
G1 X105.720 Y99.841 E28.15645
G1 X106.507 Y100.714 E28.26517
G1 X107.242 Y101.638 E28.37430
G1 X107.916 Y102.602 E28.48317
G1 X108.564 Y103.673 E28.59894
G1 X109.079 Y104.649 E28.70099
G1 X109.564 Y105.722 E28.80987
G1 X110.004 Y106.895 E28.92580
G1 X110.329 Y107.950 E29.02786
G1 X110.607 Y109.092 E29.13659
G1 X110.813 Y110.252 E29.24559
G1 X110.948 Y111.424 E29.35470
G1 X111.009 Y112.675 E29.47048
G1 X110.998 Y113.778 E29.57250
G1 X110.914 Y114.953 E29.68146
G1 X110.757 Y116.118 E29.79024
G1 X110.528 Y117.276 E29.89939
G1 X110.205 Y118.486 E30.01525
G1 X109.858 Y119.531 E30.11710
G1 X109.419 Y120.627 E30.22626
G1 X108.879 Y121.756 E30.34199
G1 X108.344 Y122.720 E30.44399
G1 X107.706 Y123.722 E30.55388
G1 X107.004 Y124.685 E30.66410
G1 X106.255 Y125.587 E30.77257
G1 X105.436 Y126.459 E30.88316
G1 X85.456 Y146.439 E33.49656
G1 X84.566 Y147.274 E33.60948
G1 X83.655 Y148.028 E33.71883
G1 X82.678 Y148.738 E33.83057
G1 X81.665 Y149.379 E33.94139
G1 X80.618 Y149.953 E34.05187
G1 X79.542 Y150.459 E34.16185
G1 X78.431 Y150.898 E34.27234
G1 X77.296 Y151.266 E34.38272
G1 X76.143 Y151.562 E34.49276
G1 X74.969 Y151.785 E34.60330
G1 X73.787 Y151.935 E34.71354
G1 X72.598 Y152.009 E34.82370
G1 X71.402 Y152.009 E34.93429
G1 X70.213 Y151.935 E35.04445
G1 X69.031 Y151.785 E35.15469
G1 X67.857 Y151.562 E35.26523
G1 X66.704 Y151.266 E35.37527
G1 X65.569 Y150.898 E35.48565
G1 X64.458 Y150.459 E35.59614
G1 X63.382 Y149.953 E35.70612
G1 X62.269 Y149.338 E35.82370
G1 X61.320 Y148.736 E35.92772
G1 X60.355 Y148.036 E36.03793
G1 X59.430 Y147.270 E36.14905
G1 X58.546 Y146.441 E36.26114
G1 X38.566 Y126.461 E38.87457
G1 X37.743 Y125.585 E38.98568
G1 X36.996 Y124.685 E39.09388
G1 X36.292 Y123.719 E39.20449
G1 X35.656 Y122.720 E39.31399
G1 X35.085 Y121.688 E39.42305
G1 X34.581 Y120.627 E39.53173
G1 X34.142 Y119.531 E39.64089
G1 X33.772 Y118.414 E39.74980
G1 X33.472 Y117.276 E39.85861
G1 X33.257 Y116.194 E39.96066
G1 X33.086 Y114.953 E40.07653
G1 X33.002 Y113.778 E40.18548
G1 X32.991 Y112.598 E40.29462
G1 X33.052 Y111.424 E40.40329
G1 X33.177 Y110.329 E40.50528
G1 X33.393 Y109.092 E40.62140
G1 X33.671 Y107.950 E40.73013
G1 X34.020 Y106.822 E40.83929
G1 X34.436 Y105.722 E40.94813
G1 X34.889 Y104.719 E41.04990
G1 X35.472 Y103.606 E41.16611
G1 X36.084 Y102.602 E41.27483
G1 X36.758 Y101.638 E41.38366
G1 X37.493 Y100.714 E41.49282
G1 X38.280 Y99.841 E41.60155
G1 X39.124 Y99.015 E41.71077
G1 X40.015 Y98.244 E41.81980
G1 X40.951 Y97.531 E41.92863
G1 X41.914 Y96.888 E42.03570
G1 X42.950 Y96.283 E42.14672
G1 X44.004 Y95.754 E42.25573
G1 X45.090 Y95.291 E42.36496
G1 X46.198 Y94.898 E42.47369
G1 X47.218 Y94.606 E42.57185
G1 X47.135 Y93.968 F6000.000
G1 X48.368 Y93.694 E42.68860 F360.000
G1 X49.566 Y93.506 E42.80079
G1 X50.777 Y93.393 E42.91325
G1 X52.005 Y93.355 E43.02697
G1 X91.994 Y93.355 E46.72559
G1 X93.223 Y93.393 E46.83930
G1 X94.434 Y93.506 E46.95177
G1 X95.675 Y93.703 E47.06794
G1 X96.823 Y93.956 E47.17670
G1 X97.995 Y94.292 E47.28951
G1 X99.141 Y94.698 E47.40188
G1 X100.263 Y95.177 E47.51474
G1 X101.389 Y95.745 E47.63138
G1 X102.403 Y96.335 E47.73987
G1 X103.418 Y97.013 E47.85276
G1 X104.418 Y97.778 E47.96922
G1 X105.306 Y98.546 E48.07790
G1 X106.178 Y99.400 E48.19075
G1 X107.019 Y100.336 E48.30710
G1 X107.751 Y101.257 E48.41590
G1 X108.448 Y102.253 E48.52838
G1 X109.080 Y103.290 E48.64073
G1 X109.650 Y104.368 E48.75347
G1 X110.185 Y105.566 E48.87486
G1 X110.581 Y106.614 E48.97843
G1 X110.942 Y107.779 E49.09120
G1 X111.229 Y108.959 E49.20356
G1 X111.442 Y110.158 E49.31619
G1 X111.587 Y111.465 E49.43781
G1 X111.645 Y112.581 E49.54121
G1 X111.633 Y113.800 E49.65398
G1 X111.535 Y115.110 E49.77546
G1 X111.385 Y116.219 E49.87895
G1 X111.148 Y117.415 E49.99173
G1 X110.810 Y118.682 E50.11304
G1 X110.457 Y119.746 E50.21670
G1 X110.003 Y120.878 E50.32946
G1 X109.437 Y122.060 E50.45066
G1 X108.893 Y123.041 E50.55445
G1 X108.232 Y124.079 E50.66823
G1 X107.500 Y125.082 E50.78316
G1 X106.728 Y126.012 E50.89493
G1 X105.891 Y126.903 E51.00792
G1 X85.899 Y146.895 E53.62303
G1 X84.994 Y147.744 E53.73774
G1 X84.052 Y148.524 E53.85086
G1 X83.028 Y149.268 E53.96792
G1 X81.985 Y149.928 E54.08210
G1 X80.903 Y150.522 E54.19622
G1 X79.791 Y151.044 E54.30986
G1 X78.643 Y151.497 E54.42399
G1 X77.471 Y151.878 E54.53802
G1 X76.280 Y152.183 E54.65172
G1 X75.067 Y152.413 E54.76589
G1 X73.845 Y152.568 E54.87980
G1 X72.617 Y152.645 E54.99361
G1 X71.383 Y152.645 E55.10780
G1 X70.155 Y152.568 E55.22160
G1 X68.933 Y152.413 E55.33551
G1 X67.720 Y152.183 E55.44969
G1 X66.529 Y151.878 E55.56338
G1 X65.357 Y151.497 E55.67742
G1 X64.209 Y151.044 E55.79154
G1 X63.097 Y150.522 E55.90518
G1 X61.933 Y149.877 E56.02823
G1 X60.968 Y149.265 E56.13391
G1 X59.974 Y148.544 E56.24746
G1 X59.005 Y147.743 E56.36375
G1 X58.102 Y146.896 E56.47827
G1 X38.109 Y126.903 E59.09338
G1 X37.272 Y126.011 E59.20656
G1 X36.500 Y125.082 E59.31823
G1 X35.762 Y124.070 E59.43411
G1 X35.107 Y123.041 E59.54694
G1 X34.517 Y121.975 E59.65963
G1 X33.997 Y120.878 E59.77194
G1 X33.543 Y119.746 E59.88471
G1 X33.161 Y118.591 E59.99726
G1 X32.852 Y117.415 E60.10968
G1 X32.633 Y116.314 E60.21355
G1 X32.453 Y115.014 E60.33486
G1 X32.367 Y113.800 E60.44743
G1 X32.355 Y112.581 E60.56020
G1 X32.419 Y111.369 E60.67250
G1 X32.546 Y110.254 E60.77629
G1 X32.771 Y108.959 E60.89786
G1 X33.058 Y107.779 E61.01021
G1 X33.419 Y106.614 E61.12298
G1 X33.849 Y105.476 E61.23547
G1 X34.310 Y104.456 E61.33904
G1 X34.920 Y103.290 E61.46068
G1 X35.552 Y102.253 E61.57303
G1 X36.195 Y101.334 E61.67678
G1 X37.008 Y100.302 E61.79828
G1 X37.822 Y99.400 E61.91065
G1 X38.663 Y98.577 E62.01950
G1 X39.615 Y97.749 E62.13617
G1 X40.582 Y97.013 E62.24864
G1 X41.561 Y96.359 E62.35752
G1 X42.648 Y95.723 E62.47400
G1 X43.737 Y95.177 E62.58666
G1 X44.859 Y94.698 E62.69952
G1 X46.005 Y94.292 E62.81190
G1 X47.044 Y93.994 E62.91188
G1 X47.575 Y94.428 F6000.000
G1 F2400.000 E59.91188
G92 E0
G1 X59.851 Y80.794 F6000.000
G1 E3.00000 F2400.000
G1 X58.986 Y79.982 E3.10976 F720.000
G1 X39.022 Y60.019 E5.72103
G1 X38.221 Y59.165 E5.82929
G1 X37.495 Y58.290 E5.93451
G1 X36.826 Y57.373 E6.03940
G1 X36.213 Y56.412 E6.14489
G1 X35.659 Y55.414 E6.25043
G1 X35.171 Y54.389 E6.35551
G1 X34.745 Y53.329 E6.46111
G1 X34.386 Y52.248 E6.56649
G1 X34.096 Y51.148 E6.67167
G1 X33.884 Y50.086 E6.77189
G1 X33.720 Y48.901 E6.88248
G1 X33.638 Y47.765 E6.98786
G1 X33.626 Y46.623 E7.09346
G1 X33.685 Y45.489 E7.19854
G1 X33.814 Y44.355 E7.30408
G1 X34.013 Y43.232 E7.40955
G1 X34.281 Y42.128 E7.51466
G1 X34.618 Y41.036 E7.62029
G1 X35.021 Y39.972 E7.72557
G1 X35.489 Y38.934 E7.83084
G1 X36.022 Y37.924 E7.93648
G1 X36.614 Y36.954 E8.04159
G1 X37.267 Y36.019 E8.14706
G1 X37.977 Y35.126 E8.25260
G1 X38.738 Y34.282 E8.35768
G1 X39.554 Y33.483 E8.46328
G1 X40.415 Y32.738 E8.56866
G1 X41.320 Y32.049 E8.67384
G1 X42.221 Y31.447 E8.77406
G1 X43.252 Y30.842 E8.88465
G1 X44.271 Y30.331 E8.99003
G1 X45.321 Y29.884 E9.09563
G1 X46.392 Y29.503 E9.20071
G1 X47.489 Y29.189 E9.30625
G1 X48.602 Y28.944 E9.41173
G1 X49.723 Y28.768 E9.51663
G1 X50.856 Y28.663 E9.62185
G1 X52.026 Y28.626 E9.73011
G1 X91.974 Y28.626 E13.42502
G1 X93.144 Y28.663 E13.53328
G1 X94.277 Y28.768 E13.63850
G1 X95.398 Y28.944 E13.74339
G1 X96.511 Y29.189 E13.84887
G1 X97.608 Y29.503 E13.95442
G1 X98.679 Y29.884 E14.05950
G1 X99.729 Y30.331 E14.16509
G1 X100.748 Y30.842 E14.27048
G1 X101.730 Y31.414 E14.37565
G1 X102.680 Y32.049 E14.48130
G1 X103.585 Y32.738 E14.58647
G1 X104.446 Y33.483 E14.69186
G1 X105.450 Y34.466 E14.82176
G1 X105.438 Y34.478 E14.82327
