; generated by Slic3r 1.1.7 on 2015-03-28 at 16:27:16

; perimeters extrusion width = 0.40mm
; infill extrusion width = 0.67mm
; solid infill extrusion width = 0.67mm
; top infill extrusion width = 0.67mm
; support material extrusion width = 0.40mm

G21 ; set units to millimeters
M107
M190 S65 ; wait for bed temperature to be reached
M104 S220 ; set temperature
G28 ; home all axes
G1 Z5 F5000 ; lift nozzle
M109 S220 ; wait for temperature to be reached
G90 ; use absolute coordinates
G92 E0
M82 ; use absolute distances for extrusion
G1 F2400.000 E-3.00000
G92 E0
G1 Z-3.450 F6000.000
G1 X34.256 Y53.148 F6000.000
G1 E3.00000 F2400.000
G1 X36.629 Y52.614 E3.22500 F1080.000
G1 X122.495 Y52.294 E11.16685
G1 X140.470 Y52.295 E12.82944
G1 X163.429 Y52.615 E14.95307 F1080.000
G1 X165.499 Y53.040 E15.14859
G1 X167.267 Y54.199 E15.34410
G1 X168.485 Y55.927 E15.53962
G1 X168.986 Y58.250 E15.75942
G1 X168.986 Y131.750 E22.55750
G1 X168.589 Y133.826 E22.75302
G1 X167.456 Y135.611 E22.94853
G1 X165.744 Y136.852 E23.14405
G1 X163.350 Y137.386 E23.37095
G1 X36.650 Y137.386 E35.08955
G1 X34.574 Y136.989 E35.28506
G1 X32.789 Y135.856 E35.48058
G1 X31.548 Y134.144 E35.67609
G1 X31.014 Y131.750 E35.90299
G1 X31.014 Y58.250 E42.70108
G1 X31.411 Y56.174 E42.89659
G1 X32.544 Y54.389 E43.09211
G1 X34.207 Y53.184 E43.28207
G1 F2400.000 E40.28207
G92 E0
G1 X157.761 Y62.198 F6000.000
G1 E3.00000 F2400.000
G1 X157.625 Y61.916 E3.02895 F360.000
G1 X157.566 Y61.743 E3.04590
G1 X157.530 Y61.582 E3.06110
G1 X157.500 Y61.251 E3.09183
G1 X157.510 Y61.067 E3.10896
G1 X157.565 Y60.764 E3.13740
G1 X157.620 Y60.595 E3.15380
G1 X157.759 Y60.307 E3.18342
G1 X157.858 Y60.156 E3.20010
G1 X158.067 Y59.917 E3.22949
G1 X158.204 Y59.798 E3.24632
G1 X158.466 Y59.625 E3.27534
G1 X158.628 Y59.547 E3.29197
G1 X158.926 Y59.450 E3.32093
G1 X159.288 Y59.402 E3.35469
G1 X159.587 Y59.416 E3.38242 F360.000
G1 X159.758 Y59.446 E3.39851
G1 X159.929 Y59.493 E3.41492
G1 X160.221 Y59.618 E3.44423
G1 X160.375 Y59.710 E3.46079
G1 X160.623 Y59.908 E3.49013
G1 X160.743 Y60.033 E3.50625
G1 X160.938 Y60.301 E3.53688
G1 X161.082 Y60.600 E3.56761
G1 X161.133 Y60.757 E3.58283
G1 X161.170 Y60.917 E3.59804
G1 X161.200 Y61.250 E3.62898
G1 X161.170 Y61.583 E3.65991
G1 X161.133 Y61.743 E3.67512
G1 X161.011 Y62.063 E3.70678
G1 X160.847 Y62.338 E3.73636
G1 X160.743 Y62.467 E3.75169
G1 X160.512 Y62.689 E3.78137
G1 X160.364 Y62.797 E3.79832
G1 X160.088 Y62.946 E3.82728
G1 X159.916 Y63.011 E3.84435
G1 X159.612 Y63.081 E3.87322
G1 X159.427 Y63.098 E3.89034
G1 X159.116 Y63.085 E3.91912
G1 X158.934 Y63.053 E3.93627
G1 X158.638 Y62.957 E3.96503
G1 X158.470 Y62.877 E3.98218
G1 X158.210 Y62.707 E4.01094
G1 X158.070 Y62.585 E4.02811
G1 X157.955 Y62.465 E4.04351
G1 X157.794 Y62.248 E4.06848
G1 F2400.000 E1.06848
G92 E0
G1 X159.338 Y59.106 F6000.000
G1 X41.500 Y61.250 F6000.000
G1 E3.00000 F2400.000
G1 X41.470 Y61.582 E3.03083 F360.000
G1 X41.428 Y61.760 E3.04775
G1 X41.318 Y62.050 E3.07646
G1 X41.149 Y62.334 E3.10703
G1 X41.033 Y62.477 E3.12406
G1 X40.808 Y62.693 E3.15295
G1 X40.532 Y62.876 E3.18350
G1 X40.366 Y62.956 E3.20057
G1 X40.070 Y63.052 E3.22935
G1 X39.743 Y63.098 E3.25992
G1 X39.559 Y63.098 E3.27694
G1 X39.231 Y63.052 E3.30758
G1 X38.917 Y62.948 E3.33811
G1 X38.641 Y62.800 E3.36705
G1 X38.497 Y62.697 E3.38350
G1 X38.266 Y62.477 E3.41297
G1 X38.153 Y62.338 E3.42957
G1 X37.982 Y62.050 E3.46050
G1 X37.867 Y61.743 E3.49083
G1 X37.830 Y61.582 E3.50614
G1 X37.800 Y61.250 E3.53697
G1 X37.810 Y61.064 E3.55418
G1 X37.867 Y60.757 E3.58310
G1 X37.982 Y60.450 E3.61343
G1 X38.070 Y60.288 E3.63042
G1 X38.254 Y60.036 E3.65930
G1 X38.497 Y59.803 E3.69042
G1 X38.641 Y59.700 E3.70687
G1 X38.917 Y59.552 E3.73582
G1 X39.231 Y59.448 E3.76634
G1 X39.411 Y59.416 E3.78333
G1 X39.737 Y59.402 E3.81344
G1 X40.068 Y59.448 E3.84438 F360.000
G1 X40.381 Y59.551 E3.87486
G1 X40.677 Y59.711 E3.90599
G1 X40.935 Y59.920 E3.93673
G1 X41.144 Y60.158 E3.96599
G1 X41.319 Y60.452 E3.99768
G1 X41.435 Y60.764 E4.02846
G1 X41.497 Y61.190 E4.06824
G1 F2400.000 E1.06824
G92 E0
G1 X39.668 Y59.075 F6000.000
G1 X42.708 Y128.371 F6000.000
G1 E3.00000 F2400.000
G1 X156.292 Y128.371 E13.50549 F720.000
G1 X156.425 Y128.843 E13.55083
G1 X156.666 Y129.346 E13.60243
G1 X156.819 Y129.580 E13.62826
G1 X157.258 Y130.129 E13.69326
G1 X41.742 Y130.129 E24.37742
G1 X42.186 Y129.572 E24.44331
G1 X42.338 Y129.338 E24.46907
G1 X42.576 Y128.839 E24.52021
G1 X42.695 Y128.430 E24.55964
G1 F2400.000 E21.55964
G92 E0
G1 X159.971 Y124.681 F6000.000
G1 E3.00000 F2400.000
G1 X159.971 Y64.315 E8.58333 F720.000
G1 X160.365 Y64.201 E8.62122
G1 X160.808 Y64.010 E8.66580
G1 X161.272 Y63.710 E8.71695
G1 X161.729 Y63.339 E8.77139
G1 X161.729 Y125.661 E14.53565
G1 X161.294 Y125.308 E14.58746
G1 X160.903 Y125.042 E14.63123
G1 X160.588 Y124.884 E14.66381
G1 X160.029 Y124.698 E14.71831
G1 F2400.000 E11.71831
G92 E0
G1 X157.258 Y63.629 F6000.000
G1 E3.00000 F2400.000
G1 X143.221 Y63.629 E4.29827 F720.000
G1 X143.221 Y59.871 E4.64580
G1 X156.518 Y59.871 E5.87563
G1 X156.333 Y60.447 E5.93158
G1 X156.249 Y60.907 E5.97481
G1 X156.227 Y61.257 E6.00724
G1 X156.278 Y61.808 E6.05839
G1 X156.339 Y62.079 E6.08413
G1 X156.425 Y62.343 E6.10982
G1 X156.570 Y62.667 E6.14259
G1 X156.819 Y63.079 E6.18719
G1 X157.220 Y63.582 E6.24667
G1 F2400.000 E3.24667
G92 E0
G1 X119.979 Y63.629 F6000.000
G1 E3.00000 F2400.000
G1 X80.021 Y63.629 E6.69571 F720.000
G1 X80.021 Y59.871 E7.04325
G1 X119.979 Y59.871 E10.73896
G1 X119.979 Y63.569 E11.08094
G1 X101.014 Y64.264 F6000.000
G1 X101.014 Y127.736 E16.95146 F720.000
G1 X156.863 Y127.736 E22.11693
G1 X156.904 Y128.195 E22.15960
G1 X156.953 Y128.411 E22.18005
G1 X157.040 Y128.665 E22.20492
G1 X157.214 Y129.022 E22.24164
G1 X157.336 Y129.208 E22.26220
G1 X157.628 Y129.543 E22.30330
G1 X157.795 Y129.690 E22.32389
G1 X158.015 Y129.846 E22.34881
G1 X158.366 Y130.033 E22.38560
G1 X158.572 Y130.111 E22.40603
G1 X159.005 Y130.212 E22.44715
G1 X159.227 Y130.233 E22.46774
G1 X159.496 Y130.231 E22.49265
G1 X159.890 Y130.177 E22.52941
G1 X160.103 Y130.119 E22.54984
G1 X160.515 Y129.946 E22.59115
G1 X160.884 Y129.706 E22.63188
G1 X161.222 Y129.386 E22.67493
G1 X161.485 Y129.025 E22.71622
G1 X161.678 Y128.624 E22.75739
G1 X161.796 Y128.197 E22.79840
G1 X161.837 Y127.751 E22.83980
G1 X161.797 Y127.310 E22.88077
G1 X161.682 Y126.887 E22.92130
G1 X161.494 Y126.490 E22.96196
G1 X161.374 Y126.305 E22.98230
G1 X161.102 Y125.987 E23.02098
G1 X160.728 Y125.682 E23.06564
G1 X160.342 Y125.471 E23.10639
G1 X159.927 Y125.332 E23.14685
G1 X159.336 Y125.249 E23.20204
G1 X159.336 Y64.264 E28.84259
G1 X142.586 Y64.264 E30.39181
G1 X142.586 Y59.236 E30.85693
G1 X157.780 Y59.236 E32.26231
G1 X157.351 Y59.773 E32.32592
G1 X157.207 Y59.991 E32.35009
G1 X157.027 Y60.364 E32.38836
G1 X156.949 Y60.606 E32.41189
G1 X156.879 Y60.987 E32.44772
G1 X156.863 Y61.254 E32.47250
G1 X156.904 Y61.695 E32.51344
G1 X157.021 Y62.121 E32.55430
G1 X157.214 Y62.522 E32.59546
G1 X157.366 Y62.746 E32.62052
G1 X157.627 Y63.042 E32.65706
G1 X157.973 Y63.320 E32.69812
G1 X158.206 Y63.456 E32.72304
G1 X158.572 Y63.611 E32.75980
G1 X159.006 Y63.712 E32.80102
G1 X159.275 Y63.734 E32.82600
G1 X159.671 Y63.715 E32.86265
G1 X160.103 Y63.619 E32.90358
G1 X160.356 Y63.522 E32.92860
G1 X160.706 Y63.334 E32.96535
G1 X160.922 Y63.175 E32.99016
G1 X161.222 Y62.886 E33.02871
G1 X161.485 Y62.525 E33.07000
G1 X161.678 Y62.124 E33.11117
G1 X161.796 Y61.697 E33.15218
G1 X161.837 Y61.250 E33.19365
G1 X161.796 Y60.803 E33.23514
G1 X161.747 Y60.587 E33.25564
G1 X161.678 Y60.376 E33.27619
G1 X161.485 Y59.975 E33.31736
G1 X161.362 Y59.788 E33.33802
G1 X160.920 Y59.236 E33.40349
G1 X162.364 Y59.236 E33.53711
G1 X162.364 Y130.764 E40.15287
G1 X37.636 Y130.764 E51.68915
G1 X37.636 Y129.287 E51.82575
G1 X38.100 Y129.694 E51.88282
G1 X38.268 Y129.817 E51.90211
G1 X38.499 Y129.952 E51.92686
G1 X38.882 Y130.115 E51.96531
G1 X39.296 Y130.210 E52.00467
G1 X39.739 Y130.234 E52.04563
G1 X40.004 Y130.210 E52.07030
G1 X40.438 Y130.108 E52.11151
G1 X40.842 Y129.931 E52.15227
G1 X41.173 Y129.714 E52.18890
G1 X41.377 Y129.538 E52.21381
G1 X41.668 Y129.203 E52.25486
G1 X41.893 Y128.823 E52.29572
G1 X42.033 Y128.454 E52.33223
G1 X42.096 Y128.193 E52.35702
G1 X42.138 Y127.736 E52.39953
G1 X99.486 Y127.736 E57.70371
G1 X99.486 Y64.264 E63.57422
G1 X79.386 Y64.264 E65.43329
G1 X79.386 Y59.236 E65.89841
G1 X120.614 Y59.236 E69.71169
G1 X120.614 Y64.264 E70.17681
G1 X101.074 Y64.264 E71.98408
G1 F2400.000 E68.98408
G92 E0
G1 X40.029 Y64.357 F6000.000
G1 E3.00000 F2400.000
G1 X40.029 Y124.643 E8.57599 F720.000
G1 X39.546 Y124.630 E8.62069
G1 X39.199 Y124.662 E8.65291
G1 X38.685 Y124.780 E8.70167
G1 X38.271 Y124.936 E8.74256
G1 X38.271 Y64.064 E14.37263
G1 X38.685 Y64.220 E14.41353
G1 X39.198 Y64.338 E14.46221
G1 X39.550 Y64.370 E14.49486
G1 X39.969 Y64.359 E14.53366
G1 X41.742 Y63.629 F6000.000
G1 X42.186 Y63.072 E14.59948 F720.000
G1 X42.338 Y62.839 E14.62526
G1 X42.576 Y62.339 E14.67643
G1 X42.723 Y61.805 E14.72767
G1 X42.773 Y61.249 E14.77930
G1 X42.752 Y60.908 E14.81093
G1 X42.667 Y60.448 E14.85413
G1 X42.482 Y59.871 E14.91019
G1 X56.779 Y59.871 E16.23251
G1 X56.779 Y63.629 E16.58005
G1 X41.802 Y63.629 E17.96525
G1 X40.664 Y64.264 F6000.000
G1 X40.664 Y125.452 E23.62459 F720.000
G1 X40.176 Y125.321 E23.67133
G1 X39.787 Y125.268 E23.70771
G1 X39.513 Y125.268 E23.73299
G1 X39.078 Y125.331 E23.77370
G1 X38.657 Y125.471 E23.81475
G1 X38.308 Y125.658 E23.85130
G1 X38.100 Y125.806 E23.87497
G1 X37.636 Y126.213 E23.93202
G1 X37.636 Y62.787 E29.79827
G1 X38.100 Y63.194 E29.85533
G1 X38.499 Y63.453 E29.89934
G1 X38.882 Y63.615 E29.93778
G1 X39.123 Y63.679 E29.96085
G1 X39.516 Y63.732 E29.99752
G1 X40.005 Y63.710 E30.04282
G1 X40.437 Y63.608 E30.08390
G1 X40.644 Y63.528 E30.10435
G1 X40.991 Y63.342 E30.14084
G1 X41.377 Y63.038 E30.18626
G1 X41.667 Y62.703 E30.22726
G1 X41.789 Y62.517 E30.24779
G1 X41.961 Y62.163 E30.28425
G1 X42.048 Y61.908 E30.30914
G1 X42.096 Y61.693 E30.32950
G1 X42.137 Y61.249 E30.37073
G1 X42.089 Y60.774 E30.41495
G1 X41.989 Y60.409 E30.44991
G1 X41.896 Y60.185 E30.47239
G1 X41.653 Y59.777 E30.51626
G1 X41.218 Y59.236 E30.58049
G1 X57.414 Y59.236 E32.07847
G1 X57.414 Y64.264 E32.54359
G1 X40.724 Y64.264 E34.08726
G1 X41.300 Y64.900 F6000.000
G1 X41.300 Y126.738 E39.80675 F360.000
G1 X40.808 Y126.307 E39.86730
G1 X40.532 Y126.124 E39.89786
G1 X40.229 Y125.993 E39.92838
G1 X39.888 Y125.916 E39.96076
G1 X39.576 Y125.902 E39.98961
G1 X39.412 Y125.916 E40.00492
G1 X39.078 Y125.990 E40.03650
G1 X38.917 Y126.052 E40.05246
G1 X38.641 Y126.200 E40.08141
G1 X38.369 Y126.416 E40.11360
G1 X38.153 Y126.662 E40.14388
G1 X37.990 Y126.934 E40.17319
G1 X37.917 Y127.102 E40.19012
G1 X37.834 Y127.401 E40.21880
G1 X37.808 Y127.581 E40.23568
G1 X37.810 Y127.936 E40.26848
G1 X37.867 Y128.243 E40.29739
G1 X37.917 Y128.398 E40.31244
G1 X37.990 Y128.566 E40.32937
G1 X38.153 Y128.838 E40.35868
G1 X38.266 Y128.977 E40.37527
G1 X38.497 Y129.197 E40.40475
G1 X38.768 Y129.376 E40.43481
G1 X38.934 Y129.455 E40.45179
G1 X39.231 Y129.552 E40.48067
G1 X39.558 Y129.598 E40.51128
G1 X39.743 Y129.598 E40.52833
G1 X40.070 Y129.552 E40.55889
G1 X40.366 Y129.456 E40.58767
G1 X40.532 Y129.376 E40.60474
G1 X40.808 Y129.193 E40.63530
G1 X41.046 Y128.964 E40.66593
G1 X41.230 Y128.712 E40.69472
G1 X41.318 Y128.550 E40.71178
G1 X41.434 Y128.242 E40.74226
G1 X41.490 Y127.937 E40.77093
G1 X41.500 Y127.750 E40.78824
G1 X41.470 Y127.418 E40.81904
G1 X41.400 Y127.100 E40.84919
G1 X98.850 Y127.100 E46.16282
G1 X98.850 Y64.900 E51.91576
G1 X78.750 Y64.900 E53.77483
G1 X78.750 Y58.600 E54.35752
G1 X121.250 Y58.600 E58.28839
G1 X121.250 Y64.900 E58.87108
G1 X101.650 Y64.900 E60.68390
G1 X101.650 Y127.100 E66.43684
G1 X157.596 Y127.100 E71.61136
G1 X157.506 Y127.597 E71.65807
G1 X157.500 Y127.750 E71.67227
G1 X157.530 Y128.082 E71.70312
G1 X157.625 Y128.416 E71.73522
G1 X157.761 Y128.698 E71.76417
G1 X157.852 Y128.836 E71.77946
G1 X157.968 Y128.979 E71.79644
G1 X158.195 Y129.195 E71.82546
G1 X158.487 Y129.386 E71.85771
G1 X158.774 Y129.508 E71.88663
G1 X158.934 Y129.553 E71.90193
G1 X159.116 Y129.585 E71.91903
G1 X159.427 Y129.598 E71.94785
G1 X159.757 Y129.555 E71.97860
G1 X160.071 Y129.453 E72.00916
G1 X160.364 Y129.298 E72.03982
G1 X160.636 Y129.080 E72.07205
G1 X160.847 Y128.838 E72.10176
G1 X160.938 Y128.699 E72.11708
G1 X161.082 Y128.400 E72.14782
G1 X161.170 Y128.083 E72.17822
G1 X161.200 Y127.750 E72.20912
G1 X161.190 Y127.568 E72.22604
G1 X161.135 Y127.263 E72.25465
G1 X161.015 Y126.945 E72.28608
G1 X160.856 Y126.675 E72.31508
G1 X160.760 Y126.552 E72.32953
G1 X160.635 Y126.420 E72.34634
G1 X160.398 Y126.226 E72.37473
G1 X160.096 Y126.057 E72.40673
G1 X159.804 Y125.957 E72.43522
G1 X159.625 Y125.921 E72.45209
G1 X159.300 Y125.901 E72.48228
G1 X158.700 Y125.981 E72.53823
G1 X158.700 Y64.900 E78.18763
G1 X141.950 Y64.900 E79.73685
G1 X141.950 Y58.600 E80.31954
G1 X163.000 Y58.600 E82.26648
G1 X163.000 Y131.400 E88.99982
G1 X37.000 Y131.400 E100.65368
G1 X37.000 Y58.600 E107.38702
G1 X58.050 Y58.600 E109.33395
G1 X58.050 Y64.900 E109.91665
G1 X41.360 Y64.900 E111.46032
G1 X40.900 Y64.900 F6000.000
G1 F2400.000 E108.46032
G92 E0
G1 X143.702 Y63.188 F6000.000
G1 E3.00000 F2400.000
G1 X143.662 Y63.148 E3.00523 F1260.000
G1 X143.662 Y62.208 E3.09220
G1 X144.642 Y63.188 E3.22043
G1 X145.583 Y63.188 E3.30739
G1 X143.662 Y61.267 E3.55861
G1 X143.675 Y60.340 E3.64443
G1 X146.523 Y63.188 E4.01701
G1 X147.463 Y63.188 E4.10398
G1 X144.587 Y60.312 E4.48016
G1 X145.528 Y60.312 E4.56712
G1 X148.404 Y63.188 E4.94330
G1 X149.344 Y63.188 E5.03027
G1 X146.468 Y60.312 E5.40644
G1 X147.408 Y60.312 E5.49341
G1 X150.284 Y63.188 E5.86959
G1 X151.224 Y63.188 E5.95656
G1 X148.349 Y60.312 E6.33273
G1 X149.289 Y60.312 E6.41970
G1 X152.165 Y63.188 E6.79588
G1 X153.105 Y63.188 E6.88285
G1 X150.229 Y60.312 E7.25902
G1 X151.169 Y60.312 E7.34599
G1 X154.045 Y63.188 E7.72217
G1 X154.986 Y63.188 E7.80914
G1 X152.110 Y60.312 E8.18531
G1 X153.050 Y60.312 E8.27228
G1 X155.926 Y63.188 E8.64845
G1 X155.934 Y62.256 E8.73468
G1 X153.990 Y60.312 E8.98892
G1 X154.931 Y60.312 E9.07589
G1 X155.792 Y61.173 E9.18856
G1 X155.908 Y60.349 E9.26558
G1 X155.871 Y60.312 E9.27037
G1 F2400.000 E6.27037
G92 E0
G1 X119.498 Y60.312 F6000.000
G1 E3.00000 F2400.000
G1 X119.538 Y60.352 E3.00523 F1260.000
G1 X119.538 Y61.262 E3.08942
G1 X118.588 Y60.312 E3.21372
G1 X117.677 Y60.312 E3.29791
G1 X119.538 Y62.173 E3.54127
G1 X119.538 Y63.083 E3.62546
G1 X116.767 Y60.312 E3.98788
G1 X115.857 Y60.312 E4.07207
G1 X118.733 Y63.188 E4.44825
G1 X117.823 Y63.188 E4.53244
G1 X114.947 Y60.312 E4.90861
G1 X114.036 Y60.312 E4.99280
G1 X116.912 Y63.188 E5.36898
G1 X116.002 Y63.188 E5.45317
G1 X113.126 Y60.312 E5.82935
G1 X112.216 Y60.312 E5.91354
G1 X115.092 Y63.188 E6.28971
G1 X114.182 Y63.188 E6.37390
G1 X111.306 Y60.312 E6.75008
G1 X110.395 Y60.312 E6.83427
G1 X113.271 Y63.188 E7.21044
G1 X112.361 Y63.188 E7.29463
G1 X109.485 Y60.312 E7.67081
G1 X108.575 Y60.312 E7.75500
G1 X111.451 Y63.188 E8.13118
G1 X110.541 Y63.188 E8.21537
G1 X107.665 Y60.312 E8.59154
G1 X106.754 Y60.312 E8.67573
G1 X109.630 Y63.188 E9.05191
G1 X108.720 Y63.188 E9.13610
G1 X105.844 Y60.312 E9.51227
G1 X104.934 Y60.312 E9.59646
G1 X107.810 Y63.188 E9.97264
G1 X106.900 Y63.188 E10.05683
G1 X104.024 Y60.312 E10.43301
G1 X103.113 Y60.312 E10.51720
G1 X105.989 Y63.188 E10.89337
G1 X105.079 Y63.188 E10.97756
G1 X102.203 Y60.312 E11.35374
G1 X101.293 Y60.312 E11.43793
G1 X104.169 Y63.188 E11.81410
G1 X103.258 Y63.188 E11.89829
