; generated by Slic3r 1.1.7 on 2015-03-27 at 20:25:01

; perimeters extrusion width = 0.40mm
; infill extrusion width = 0.67mm
; solid infill extrusion width = 0.67mm
; top infill extrusion width = 0.67mm
; support material extrusion width = 0.40mm

G21 ; set units to millimeters
M107
M190 S65 ; wait for bed temperature to be reached
M104 S220 ; set temperature
G28 ; home all axes
G1 Z5 F5000 ; lift nozzle
M109 S220 ; wait for temperature to be reached
G90 ; use absolute coordinates
G92 E0
M82 ; use absolute distances for extrusion
G1 F2400.000 E-3.00000
G92 E0
G1 Z-3.450 F6000.000
G1 X32.015 Y29.029 F6000.000
G1 E3.00000 F2400.000
G1 X33.537 Y27.563 E3.19551 F1080.000
G1 X36.264 Y26.658 E3.46125
G1 X37.346 Y26.612 E3.56144
G1 X162.617 Y26.612 E15.14787
G1 X163.736 Y26.658 E15.25143 F1080.000
G1 X165.784 Y27.184 E15.44695
G1 X167.985 Y29.029 E15.71266
G1 X182.075 Y48.955 E17.96987
G1 X182.950 Y50.880 E18.16538
G1 X183.107 Y52.033 E18.27299
G1 X183.136 Y53.459 E18.40497
G1 X183.133 Y138.479 E26.26854
G1 X183.071 Y140.354 E26.44205
G1 X182.958 Y141.785 E26.57478
G1 X182.918 Y142.200 E26.61340
G1 X182.670 Y144.032 E26.78435
G1 X182.325 Y145.818 E26.95256
G1 X181.898 Y147.536 E27.11632
G1 X181.388 Y149.216 E27.27876
G1 X180.803 Y150.809 E27.43568
G1 X180.161 Y152.297 E27.58555
G1 X179.446 Y153.742 E27.73471
G1 X178.678 Y155.086 E27.87790
G1 X178.096 Y155.992 E27.97740
G1 X177.876 Y156.319 E28.01389
G1 X177.005 Y157.511 E28.15041
G1 X176.102 Y158.596 E28.28102
G1 X175.180 Y159.579 E28.40564
G1 X174.191 Y160.515 E28.53159
G1 X173.528 Y161.074 E28.61181
G1 X173.191 Y161.343 E28.65166
G1 X172.183 Y162.077 E28.76700
G1 X171.116 Y162.757 E28.88407
G1 X170.054 Y163.334 E28.99586
G1 X168.988 Y163.826 E29.10441
G1 X168.314 Y164.094 E29.17155
G1 X167.877 Y164.253 E29.21456
G1 X166.776 Y164.589 E29.32101
G1 X165.677 Y164.846 E29.42537
G1 X164.551 Y165.030 E29.53095
G1 X163.415 Y165.134 E29.63643
G1 X162.500 Y165.161 E29.72108
G1 X37.318 Y165.158 E41.29931
G1 X36.645 Y165.136 E41.36153
G1 X36.183 Y165.107 E41.40441
G1 X35.057 Y164.975 E41.50926
G1 X33.959 Y164.769 E41.61256
G1 X32.859 Y164.487 E41.71763
G1 X31.747 Y164.118 E41.82594
G1 X30.683 Y163.683 E41.93233
G1 X30.007 Y163.362 E42.00147
G1 X29.620 Y163.166 E42.04166
G1 X28.547 Y162.553 E42.15586
G1 X27.538 Y161.884 E42.26788
G1 X26.532 Y161.124 E42.38454
G1 X25.869 Y160.565 E42.46474
G1 X25.529 Y160.262 E42.50685
G1 X24.597 Y159.351 E42.62732
G1 X23.676 Y158.341 E42.75381
G1 X22.778 Y157.228 E42.88604
G1 X21.956 Y156.073 E43.01720
G1 X21.375 Y155.168 E43.11671
G1 X21.155 Y154.807 E43.15575
G1 X20.398 Y153.444 E43.30000
G1 X19.721 Y152.038 E43.44433
G1 X19.083 Y150.517 E43.59686
G1 X18.511 Y148.909 E43.75476
G1 X18.135 Y147.649 E43.87629
G1 X17.611 Y145.522 E44.07889
G1 X17.281 Y143.720 E44.24838
G1 X17.052 Y141.913 E44.41682
G1 X16.944 Y140.536 E44.54455
G1 X16.914 Y140.078 E44.58703
G1 X16.864 Y138.312 E44.75044
G1 X16.865 Y53.400 E52.60401
G1 X16.893 Y52.033 E52.73053
G1 X17.355 Y49.970 E52.92605
G1 X17.925 Y48.955 E53.03366
G1 X31.980 Y29.078 E55.28532
G1 F2400.000 E52.28532
G92 E0
G1 X171.423 Y122.446 F6000.000
G1 E3.00000 F2400.000
G1 X171.615 Y122.128 E3.03436 F720.000
G1 X171.839 Y121.843 E3.06782
G1 X172.101 Y121.590 E3.10150
G1 X172.390 Y121.382 E3.13445
G1 X172.712 Y121.218 E3.16793
G1 X173.050 Y121.112 E3.20066
G1 X173.402 Y121.064 E3.23354
G1 X173.632 Y121.068 E3.25483
G1 X173.935 Y121.109 E3.28304 F720.000
G1 X174.105 Y121.153 E3.29933
G1 X174.440 Y121.287 E3.33264
G1 X174.748 Y121.474 E3.36600
G1 X175.026 Y121.704 E3.39936
G1 X175.154 Y121.836 E3.41637
G1 X175.480 Y122.275 E3.46703
G1 X175.655 Y122.606 E3.50165
G1 X175.852 Y123.150 E3.55508
G1 X175.935 Y123.543 E3.59229
G1 X175.986 Y124.170 E3.65044
G1 X175.961 Y124.595 E3.68986
G1 X175.853 Y125.186 E3.74539
G1 X175.731 Y125.557 E3.78149
G1 X175.485 Y126.057 E3.83309
G1 X175.277 Y126.358 E3.86687
G1 X175.034 Y126.628 E3.90051
G1 X174.899 Y126.750 E3.91729
G1 X174.611 Y126.958 E3.95020
G1 X174.288 Y127.122 E3.98371
G1 X173.950 Y127.228 E4.01644
G1 X173.776 Y127.259 E4.03279
G1 X173.419 Y127.277 E4.06589
G1 X173.065 Y127.231 E4.09883
G1 X172.726 Y127.128 E4.13161
G1 X172.560 Y127.053 E4.14843
G1 X172.252 Y126.866 E4.18179
G1 X171.974 Y126.636 E4.21515
G1 X171.621 Y126.219 E4.26570
G1 X171.426 Y125.901 E4.30022
G1 X171.206 Y125.381 E4.35246
G1 X171.101 Y124.994 E4.38954
G1 X171.022 Y124.394 E4.44548
G1 X171.022 Y123.947 E4.48685
G1 X171.100 Y123.350 E4.54256
G1 X171.204 Y122.964 E4.57951
G1 X171.397 Y122.500 E4.62599
G1 X171.986 Y122.741 F6000.000
G1 X172.138 Y122.490 E4.65318 F360.000
G1 X172.312 Y122.269 E4.67918
G1 X172.614 Y121.996 E4.71677
G1 X172.835 Y121.861 E4.74079
G1 X173.070 Y121.765 E4.76426
G1 X173.310 Y121.711 E4.78702
G1 X173.456 Y121.699 E4.80053
G1 X173.800 Y121.730 E4.83245 F360.000
G1 X174.038 Y121.803 E4.85553
G1 X174.269 Y121.919 E4.87937
G1 X174.586 Y122.163 E4.91641
G1 X174.858 Y122.484 E4.95529
G1 X175.011 Y122.736 E4.98258
G1 X175.191 Y123.160 E5.02518
G1 X175.276 Y123.476 E5.05550
G1 X175.343 Y123.985 E5.10290
G1 X175.343 Y124.354 E5.13711
G1 X175.277 Y124.861 E5.18432
G1 X175.192 Y125.176 E5.21453
G1 X175.014 Y125.599 E5.25697
G1 X174.862 Y125.850 E5.28416
G1 X174.592 Y126.171 E5.32290
G1 X174.386 Y126.343 E5.34775
G1 X174.165 Y126.479 E5.37177
G1 X173.810 Y126.607 E5.40663
G1 X173.444 Y126.641 E5.44064
G1 X173.200 Y126.609 E5.46337
G1 X172.844 Y126.484 E5.49827
G1 X172.622 Y126.349 E5.52236
G1 X172.414 Y126.177 E5.54732
G1 X172.142 Y125.856 E5.58620
G1 X171.989 Y125.604 E5.61349
G1 X171.809 Y125.180 E5.65609
G1 X171.724 Y124.863 E5.68641
G1 X171.657 Y124.355 E5.73382
G1 X171.657 Y123.985 E5.76802
G1 X171.723 Y123.479 E5.81524
G1 X171.808 Y123.164 E5.84544
G1 X171.960 Y122.795 E5.88234
G1 F2400.000 E2.88234
G92 E0
G1 X173.572 Y121.374 F6000.000
G1 X173.419 Y70.708 F6000.000
G1 E3.00000 F2400.000
G1 X173.065 Y70.663 E3.03294 F720.000
G1 X172.727 Y70.559 E3.06570
G1 X172.560 Y70.485 E3.08253
G1 X172.401 Y70.397 E3.09936
G1 X172.110 Y70.189 E3.13242
G1 X171.974 Y70.068 E3.14930
G1 X171.729 Y69.797 E3.18311
G1 X171.427 Y69.332 E3.23435
G1 X171.206 Y68.812 E3.28660
G1 X171.065 Y68.228 E3.34216
G1 X171.014 Y67.602 E3.40032
G1 X171.065 Y66.977 E3.45824
G1 X171.204 Y66.395 E3.51361
G1 X171.342 Y66.044 E3.54854
G1 X171.515 Y65.714 E3.58298
G1 X171.839 Y65.275 E3.63343
G1 X171.966 Y65.143 E3.65036
G1 X172.241 Y64.912 E3.68359
G1 X172.548 Y64.724 E3.71684
G1 X172.712 Y64.649 E3.73358
G1 X173.050 Y64.544 E3.76630
G1 X173.224 Y64.512 E3.78267
G1 X173.632 Y64.499 E3.82045
G1 X173.935 Y64.540 E3.84866 F720.000
G1 X174.105 Y64.585 E3.86494
G1 X174.440 Y64.718 E3.89827
G1 X174.599 Y64.806 E3.91508
G1 X174.890 Y65.014 E3.94814
G1 X175.026 Y65.135 E3.96501
G1 X175.271 Y65.406 E3.99882
G1 X175.574 Y65.871 E4.05008
G1 X175.794 Y66.390 E4.10232
G1 X175.935 Y66.975 E4.15788
G1 X175.986 Y67.601 E4.21604
G1 X175.935 Y68.225 E4.27395
G1 X175.796 Y68.808 E4.32932
G1 X175.577 Y69.326 E4.38135
G1 X175.277 Y69.789 E4.43241
G1 X175.034 Y70.060 E4.46605
G1 X174.899 Y70.181 E4.48284
G1 X174.611 Y70.390 E4.51575
G1 X174.452 Y70.478 E4.53254
G1 X174.288 Y70.553 E4.54928
G1 X173.950 Y70.659 E4.58202
G1 X173.776 Y70.691 E4.59837
G1 X173.479 Y70.708 E4.62591
G1 X173.444 Y70.072 F6000.000
G1 X173.081 Y70.010 E4.66002 F360.000
G1 X172.731 Y69.853 E4.69546
G1 X172.414 Y69.608 E4.73249
G1 X172.142 Y69.287 E4.77137
G1 X171.923 Y68.901 E4.81250
G1 X171.762 Y68.456 E4.85624
G1 X171.694 Y68.130 E4.88702
G1 X171.650 Y67.601 E4.93610
G1 X171.693 Y67.075 E4.98497
G1 X171.761 Y66.750 E5.01563
G1 X171.921 Y66.307 E5.05922
G1 X172.138 Y65.921 E5.10019
G1 X172.408 Y65.601 E5.13893
G1 X172.722 Y65.355 E5.17581
G1 X173.070 Y65.196 E5.21118
G1 X173.310 Y65.142 E5.23396
G1 X173.456 Y65.131 E5.24746
G1 X173.800 Y65.162 E5.27938 F360.000
G1 X174.156 Y65.287 E5.31428
G1 X174.484 Y65.504 E5.35064
G1 X174.773 Y65.801 E5.38898
G1 X175.011 Y66.167 E5.42941
G1 X175.191 Y66.591 E5.47202
G1 X175.306 Y67.073 E5.51778
G1 X175.350 Y67.601 E5.56686
G1 X175.307 Y68.128 E5.61573
G1 X175.192 Y68.608 E5.66133
G1 X175.014 Y69.030 E5.70377
G1 X174.777 Y69.396 E5.74406
G1 X174.491 Y69.693 E5.78224
G1 X174.165 Y69.911 E5.81850
G1 X173.810 Y70.039 E5.85335
G1 X173.504 Y70.072 E5.88184
G1 F2400.000 E2.88184
G92 E0
G1 X173.468 Y64.786 F6000.000
G1 X28.986 Y67.601 F6000.000
G1 E3.00000 F2400.000
G1 X28.935 Y68.225 E3.05792 F720.000
G1 X28.853 Y68.618 E3.09497
G1 X28.730 Y68.988 E3.13106
G1 X28.577 Y69.326 E3.16539
G1 X28.277 Y69.789 E3.21640
G1 X28.034 Y70.060 E3.25007
G1 X27.759 Y70.290 E3.28329
G1 X27.452 Y70.478 E3.31652
G1 X27.120 Y70.613 E3.34970
G1 X26.776 Y70.691 E3.38234
G1 X26.418 Y70.708 E3.41543
G1 X26.065 Y70.663 E3.44835
G1 X25.727 Y70.559 E3.48111
G1 X25.401 Y70.397 E3.51475
G1 X25.110 Y70.189 E3.54783
G1 X24.974 Y70.068 E3.56468
G1 X24.729 Y69.796 E3.59851
G1 X24.519 Y69.496 E3.63240
G1 X24.272 Y68.993 E3.68420
G1 X24.148 Y68.622 E3.72044
G1 X24.065 Y68.228 E3.75764
G1 X24.022 Y67.826 E3.79506
G1 X24.022 Y67.378 E3.83647
G1 X24.100 Y66.781 E3.89219
G1 X24.204 Y66.395 E3.92911
G1 X24.423 Y65.877 E3.98115
G1 X24.615 Y65.559 E4.01549
G1 X24.839 Y65.275 E4.04893
G1 X25.101 Y65.022 E4.08263
G1 X25.389 Y64.813 E4.11556
G1 X25.548 Y64.724 E4.13234
G1 X25.880 Y64.589 E4.16551
G1 X26.224 Y64.512 E4.19815
G1 X26.632 Y64.499 E4.23593
G1 X26.935 Y64.540 E4.26414 F720.000
G1 X27.105 Y64.585 E4.28042
G1 X27.440 Y64.718 E4.31373
G1 X27.599 Y64.806 E4.33057
G1 X27.890 Y65.014 E4.36364
G1 X28.026 Y65.135 E4.38049
G1 X28.271 Y65.406 E4.41432
G1 X28.573 Y65.871 E4.46555
G1 X28.794 Y66.390 E4.51779
G1 X28.935 Y66.975 E4.57338
G1 X28.984 Y67.541 E4.62599
G1 X28.350 Y67.601 F6000.000
G1 X28.329 Y67.959 E4.65916 F360.000
G1 X28.277 Y68.292 E4.69031
G1 X28.192 Y68.608 E4.72051
G1 X28.079 Y68.896 E4.74915
G1 X27.941 Y69.160 E4.77671
G1 X27.688 Y69.503 E4.81613
G1 X27.491 Y69.693 E4.84148
G1 X27.278 Y69.848 E4.86582
G1 X27.048 Y69.964 E4.88962
G1 X26.690 Y70.060 E4.92397
G1 X26.444 Y70.072 E4.94671
G1 X26.200 Y70.041 E4.96943
G1 X25.962 Y69.968 E4.99250
G1 X25.731 Y69.853 E5.01636
G1 X25.414 Y69.608 E5.05339
G1 X25.227 Y69.402 E5.07914
G1 X24.989 Y69.035 E5.11955
G1 X24.863 Y68.760 E5.14759
G1 X24.762 Y68.456 E5.17721
G1 X24.694 Y68.130 E5.20800
G1 X24.657 Y67.787 E5.23993
G1 X24.657 Y67.417 E5.27415
G1 X24.693 Y67.075 E5.30596
G1 X24.761 Y66.750 E5.33662
G1 X24.861 Y66.447 E5.36613
G1 X24.986 Y66.172 E5.39406
G1 X25.138 Y65.921 E5.42124
G1 X25.408 Y65.601 E5.45998
G1 X25.722 Y65.355 E5.49686
G1 X25.952 Y65.239 E5.52066
G1 X26.190 Y65.164 E5.54372
G1 X26.456 Y65.131 E5.56854
G1 X26.800 Y65.162 E5.60045 F360.000
G1 X27.156 Y65.287 E5.63535
G1 X27.484 Y65.504 E5.67173
G1 X27.773 Y65.801 E5.71007
G1 X28.011 Y66.167 E5.75048
G1 X28.191 Y66.591 E5.79309
G1 X28.306 Y67.073 E5.83887
G1 X28.348 Y67.541 E5.88239
G1 F2400.000 E2.88239
G92 E0
G1 X26.390 Y64.792 F6000.000
G1 X26.581 Y121.063 F6000.000
G1 E3.00000 F2400.000
G1 X26.632 Y121.068 E3.00473 F720.000
G1 X26.935 Y121.109 E3.03294 F720.000
G1 X27.105 Y121.153 E3.04922
G1 X27.440 Y121.287 E3.08253
G1 X27.599 Y121.375 E3.09935
G1 X27.890 Y121.583 E3.13243
G1 X28.026 Y121.704 E3.14929
G1 X28.271 Y121.975 E3.18311
G1 X28.573 Y122.439 E3.23436
G1 X28.794 Y122.959 E3.28659
G1 X28.935 Y123.543 E3.34218
G1 X28.986 Y124.170 E3.40032
G1 X28.935 Y124.794 E3.45825
G1 X28.796 Y125.376 E3.51361
G1 X28.577 Y125.894 E3.56565
G1 X28.277 Y126.358 E3.61667
G1 X28.034 Y126.628 E3.65033
G1 X27.899 Y126.749 E3.66708
G1 X27.611 Y126.958 E3.70003
G1 X27.453 Y127.047 E3.71679
G1 X27.287 Y127.122 E3.73357
G1 X26.950 Y127.228 E3.76629
G1 X26.598 Y127.276 E3.79916
G1 X26.418 Y127.277 E3.81574
G1 X26.065 Y127.231 E3.84867
G1 X25.726 Y127.128 E3.88145
G1 X25.560 Y127.053 E3.89827
G1 X25.401 Y126.965 E3.91508
G1 X25.110 Y126.757 E3.94817
G1 X24.974 Y126.636 E3.96502
G1 X24.729 Y126.365 E3.99885
G1 X24.427 Y125.901 E4.05010
G1 X24.206 Y125.381 E4.10232
G1 X24.065 Y124.797 E4.15792
G1 X24.014 Y124.170 E4.21606
G1 X24.065 Y123.546 E4.27398
G1 X24.204 Y122.964 E4.32934
G1 X24.423 Y122.445 E4.38138
G1 X24.723 Y121.982 E4.43240
G1 X24.966 Y121.712 E4.46607
G1 X25.101 Y121.590 E4.48282
G1 X25.390 Y121.382 E4.51579
G1 X25.547 Y121.293 E4.53252
G1 X25.712 Y121.218 E4.54930
G1 X26.050 Y121.112 E4.58202
G1 X26.224 Y121.081 E4.59836
G1 X26.521 Y121.064 E4.62593
G1 X26.556 Y121.699 F6000.000
G1 X26.919 Y121.762 E4.66003 F360.000
G1 X27.269 Y121.919 E4.69548
G1 X27.586 Y122.163 E4.73251
G1 X27.858 Y122.484 E4.77139
G1 X28.077 Y122.871 E4.81251
G1 X28.238 Y123.315 E4.85627
G1 X28.306 Y123.641 E4.88705
G1 X28.350 Y124.170 E4.93612
G1 X28.307 Y124.696 E4.98499
G1 X28.192 Y125.176 E5.03059
G1 X28.014 Y125.599 E5.07304
G1 X27.777 Y125.965 E5.11331
G1 X27.491 Y126.262 E5.15149
G1 X27.165 Y126.479 E5.18775
G1 X26.810 Y126.607 E5.22261
G1 X26.444 Y126.641 E5.25663
G1 X26.081 Y126.578 E5.29073
G1 X25.731 Y126.421 E5.32617
G1 X25.414 Y126.177 E5.36320
G1 X25.142 Y125.856 E5.40209
G1 X24.923 Y125.469 E5.44321
G1 X24.762 Y125.024 E5.48696
G1 X24.694 Y124.699 E5.51775
G1 X24.650 Y124.170 E5.56681
G1 X24.693 Y123.643 E5.61568
G1 X24.761 Y123.319 E5.64635
G1 X24.921 Y122.876 E5.68993
G1 X25.138 Y122.490 E5.73091
G1 X25.408 Y122.169 E5.76965
G1 X25.722 Y121.924 E5.80654
G1 X26.070 Y121.765 E5.84190
G1 X26.310 Y121.711 E5.86466
G1 X26.456 Y121.699 E5.87817
G1 X26.496 Y121.699 E5.88187 F360.000
G1 X26.456 Y121.659 F6000.000
G1 X24.121 Y121.616 F6000.000
G1 X24.121 Y70.159 E10.64119 F720.000
G1 X24.704 Y70.678 E10.71342
G1 X25.071 Y70.941 E10.75513
G1 X25.492 Y71.150 E10.79855
G1 X25.931 Y71.284 E10.84101
G1 X26.393 Y71.344 E10.88413
G1 X26.862 Y71.321 E10.92757
G1 X27.310 Y71.220 E10.97007
G1 X27.740 Y71.046 E11.01297
G1 X28.131 Y70.806 E11.05541
G1 X28.476 Y70.517 E11.09698
G1 X28.777 Y70.182 E11.13867
G1 X29.029 Y69.818 E11.17958
G1 X29.140 Y69.621 E11.20049
G1 X29.322 Y69.221 E11.24121
G1 X29.467 Y68.783 E11.28389
G1 X29.563 Y68.323 E11.32732
G1 X29.622 Y67.601 E11.39429
G1 X29.563 Y66.877 E11.46151
G1 X29.466 Y66.415 E11.50513
G1 X29.320 Y65.976 E11.54799
G1 X29.136 Y65.574 E11.58888
G1 X29.024 Y65.376 E11.60987
G1 X28.770 Y65.011 E11.65098
G1 X28.466 Y64.676 E11.69290
G1 X28.118 Y64.387 E11.73467
G1 X27.724 Y64.149 E11.77730
G1 X27.291 Y63.976 E11.82042
G1 X26.842 Y63.879 E11.86289
G1 X26.372 Y63.860 E11.90642
G1 X25.911 Y63.923 E11.94945
G1 X25.473 Y64.060 E11.99186
G1 X25.057 Y64.271 E12.03504
G1 X24.693 Y64.534 E12.07657
G1 X24.121 Y65.048 E12.14764
G1 X24.131 Y52.747 E13.28535
G1 X37.481 Y33.867 E15.42403
G1 X47.054 Y33.867 E16.30945
G1 X51.323 Y36.066 E16.75360
G1 X55.298 Y37.926 E17.15951
G1 X59.294 Y39.623 E17.56102
G1 X63.311 Y41.154 E17.95865
G1 X67.347 Y42.522 E18.35276
G1 X71.396 Y43.728 E18.74354
G1 X75.459 Y44.771 E19.13150
G1 X79.534 Y45.652 E19.51707
G1 X83.255 Y46.310 E19.86660
G1 X83.616 Y46.373 E19.90047
G1 X87.706 Y46.933 E20.28229
G1 X91.801 Y47.333 E20.66291
G1 X95.537 Y47.552 E21.00898
G1 X95.899 Y47.573 E21.04256
G1 X100.000 Y47.653 E21.42193
G1 X104.101 Y47.573 E21.80126
G1 X104.463 Y47.552 E21.83485
G1 X108.199 Y47.333 E22.18093
G1 X112.294 Y46.933 E22.56154
G1 X116.384 Y46.373 E22.94337
G1 X116.745 Y46.310 E22.97723
G1 X120.466 Y45.652 E23.32676
G1 X124.541 Y44.771 E23.71233
G1 X128.604 Y43.728 E24.10029
G1 X132.653 Y42.522 E24.49107
G1 X136.689 Y41.154 E24.88518
G1 X140.706 Y39.623 E25.28281
G1 X144.702 Y37.926 E25.68432
G1 X148.677 Y36.066 E26.09023
G1 X152.946 Y33.867 E26.53438
G1 X162.519 Y33.867 E27.41981
G1 X175.869 Y52.747 E29.55848
G1 X175.879 Y65.044 E30.69578
G1 X175.295 Y64.524 E30.76803
